/* XPM */
static char *image_xpm[] = {
/* width height ncolors chars_per_pixel */
"128 128 255 2",
"   c #ffffff",
" . c #fffffe",
" X c #fffffc",
" o c #fffefe",
" O c #fffefd",
" + c #fffdf8",
" @ c #feffff",
" # c #fdffff",
" $ c #fdfeff",
" % c #fefffd",
" & c #fefefd",
" * c #fdfefb",
" = c #fefdfd",
" - c #fdfdfe",
" ; c #fdfdfd",
" : c #fdfdfc",
" > c #fefdf8",
" , c #fdfcfd",
" < c #fdfcf9",
" 1 c #fcffff",
" 2 c #fbfffe",
" 3 c #fcfdfd",
" 4 c #fcfcff",
" 5 c #fcfcfe",
" 6 c #fcfcfd",
" 7 c #fcfcfc",
" 8 c #fcfcfb",
" 9 c #fafcfd",
" 0 c #fdfbfb",
" a c #fcfbfc",
" b c #fcfbfb",
" c c #fdfbfa",
" d c #fcfbfa",
" e c #fcfafa",
" f c #fdfbf6",
" g c #fdf9f0",
" h c #fbfbfc",
" i c #fbfaf9",
" j c #fafaf9",
" k c #faf9f6",
" l c #fcf6ea",
" m c #fcf3e5",
" n c #f8f4ed",
" p c #faefde",
" q c #f4efe8",
" r c #f8ead7",
" s c #f9e9cf",
" t c #f7e5cb",
" u c #f3e8db",
" v c #f2e5d5",
" w c #f5dfc2",
" x c #f5d9b3",
" y c #edddce",
" z c #ecd7c0",
" A c #f2d2ab",
" B c #f1cc9e",
" C c #e9d1bc",
" D c #e9cdb2",
" E c #e1cdbc",
" F c #ebc7a1",
" G c #efc38a",
" H c #ecbd85",
" I c #efbb7a",
" J c #ecb87e",
" K c #e2c6af",
" L c #e1c0a6",
" M c #d3c1a8",
" N c #dfba9c",
" P c #ccb99f",
" Q c #efb56d",
" R c #efb06d",
" S c #f2af5c",
" T c #f6a952",
" U c #f9a847",
" V c #eea95e",
" W c #efa359",
" Y c #ee9e52",
" Z c #f8a23d",
".  c #f1a045",
".. c #ef9b4a",
".X c #ed9b4a",
".o c #eb9b4d",
".O c #ec9846",
".+ c #f4992f",
".@ c #f3952a",
".# c #f0962d",
".$ c #f29429",
".% c #ef942a",
".& c #e2b188",
".* c #e7ad68",
".= c #e3a774",
".- c #e7a65d",
".; c #d0b393",
".: c #d5a983",
".> c #c6b196",
"., c #c7b08f",
".< c #c2a98d",
".1 c #e7a05f",
".2 c #e79e4a",
".3 c #e7964c",
".4 c #e79639",
".5 c #df9f69",
".6 c #e09652",
".7 c #d79b6f",
".8 c #bd9a7b",
".9 c #e8923a",
".0 c #e8912d",
".a c #e8912c",
".b c #e9912b",
".c c #e7912b",
".d c #e9902a",
".e c #e7912a",
".f c #e7902a",
".g c #ea9129",
".h c #e79129",
".i c #e79029",
".j c #ef9226",
".k c #eb9127",
".l c #e89128",
".m c #e89028",
".n c #e89026",
".p c #e79128",
".q c #e79028",
".r c #e79027",
".s c #e79026",
".t c #e69134",
".u c #e6902b",
".v c #e6902a",
".w c #e69129",
".x c #e69029",
".y c #e69028",
".z c #e49138",
".A c #ce9261",
".B c #e78f2f",
".C c #e78f2c",
".D c #e68e2c",
".E c #e88f2b",
".F c #e78f2b",
".G c #e78e2b",
".H c #e68f2b",
".I c #e68e2b",
".J c #e88f2a",
".K c #e78f2a",
".L c #e78e2a",
".M c #e68f2a",
".N c #e68e2a",
".P c #e98f29",
".Q c #e88f29",
".R c #e88e29",
".S c #e78f29",
".T c #e78e29",
".U c #e68f29",
".V c #e68e29",
".W c #e98e28",
".Y c #e88f28",
".Z c #e78f28",
"X  c #e78e28",
"X. c #e68f28",
"XX c #e68e28",
"Xo c #ec8f24",
"XO c #ea8f25",
"X+ c #e98f26",
"X@ c #e98e26",
"X# c #e88f27",
"X$ c #e88f26",
"X% c #e88e26",
"X& c #e78f27",
"X* c #e78f26",
"X= c #e78e27",
"X- c #e78e26",
"X; c #e78e24",
"X: c #e68f27",
"X> c #e68f26",
"X, c #e68f25",
"X< c #e68e26",
"X1 c #e58f2c",
"X2 c #e58f2a",
"X3 c #e58e2a",
"X4 c #e58f28",
"X5 c #e58e28",
"X6 c #e58e27",
"X7 c #e58e25",
"X8 c #dc8f4a",
"X9 c #e68d30",
"X0 c #e68d29",
"Xa c #e78d27",
"Xb c #e58d27",
"Xc c #e88d26",
"Xd c #e68d26",
"Xe c #e58d26",
"Xf c #ea8d22",
"Xg c #e88d23",
"Xh c #e78c24",
"Xi c #e68d24",
"Xj c #e78b2a",
"Xk c #e78a22",
"Xl c #e78a21",
"Xm c #e78a20",
"Xn c #ea8a1e",
"Xp c #e6891e",
"Xq c #e7881f",
"Xr c #e6871b",
"Xs c #e78518",
"Xt c #e18c41",
"Xu c #e38b37",
"Xv c #e18839",
"Xw c #e38b27",
"Xx c #e38821",
"Xy c #e38722",
"Xz c #e18531",
"XA c #e08230",
"XB c #e18327",
"XC c #df802a",
"XD c #da8948",
"XE c #db8638",
"XF c #da8139",
"XG c #dc812d",
"XH c #d6894c",
"XI c #d68138",
"XJ c #d18448",
"XK c #ab8664",
"XL c #dd7d2c",
"XM c #da7c2e",
"XN c #dc7c27",
"XP c #d77c34",
"XQ c #d87b2c",
"XR c #da7826",
"XS c #d87827",
"XT c #d67829",
"XU c #d77624",
"XV c #d47222",
"XW c #cd7a2a",
"XY c #c97725",
"XZ c #cf7227",
"o  c #cb6d23",
"o. c #bf6d27",
"oX c #9f714d",
"oo c #b65e1c",
"oO c #9e6130",
"o+ c #ad5719",
"o@ c #97521c",
"o# c #934913",
"o$ c #91430d",
"o% c #814f2d",
"o& c #7f4722",
"o* c #843e0e",
"o= c #763c17",
"o- c #7b3509",
"o; c #71340e",
"o: c #6f2e08",
"o> c #6a2905",
"o, c #60290b",
"o< c #5a2508",
"o1 c #562207",
"o2 c #4b1f08",
"                                                                                         O X           X m t x B I W.4.0.l.m.r.m.m.l.m.l.0.4.2.* H B w p f           o O o                                                                                      ",
"                                                                                   . O         X p x H V.  Z.+.jXfXlXcX#.Y.q.q.q.l.l.m.l.q.rX;XgXo.%.+ Z T Q B w l           O .                                                                                ",
"                                                                               O         g w G S U.+XoXpXlXhX#.m.S.m.i.i.i.i.i.i.i.i.f.i.i.f.e.e.f.hX&X%XlXf.% Z T Q A r X       O o                                                                            ",
"                                                                           &       f w I U.+XoXpX;.v.u.i.f.i.x.S.Q.i.i.i.i.i.i.i.i.i.i.i.i.i.i.i.i.i.x.e.c.a.u.pXiXl.$ Z S B p         .                                                                        ",
"                                                                     . :       m B S.+XfXl.m.e.i.i.xX.X.X..Z.Z.Z.R.S.S.i.i.i.i.i.i.i.i.i.i.i.x.K.K.i.f.K.K.K.K.f.c.a.eX$Xp.% U Q w +       .                                                                    ",
"                                                                   &       s I U.jXmX..c.e.v.U.U.UX.X.X.X.X.X .T.G.SX..i.iX..iX.X..i.i.i.i.S.I.F.F.F.F.F.H.F.G.H.M.K.f.f.c.cX;Xm.+ S A g       .                                                                ",
"                                                               &       t Q ZXnXi.l.h.i.yX..U.M.UX.X..UX..V.T.L.T.TX .ZX.X.X.X.X.X..SX.X..i.S.U.K.F.F.F.F.M.M.N.N.M.F.F.F.F.F.f.c.YXm.% T B g     o                                                              ",
"                                                           o       s Q ZXnX,.v.f.x.S.U.U.U.M.UX.X.X.X.X..T.L.L.TX X .ZX.X.X.X.X.X..UX.X.X.X.X..U.N.I.K.M.N.N.N.N.M.F.H.H.F.H.K.i.f.c.eXk.j T B g     O                                                          ",
"                                                         O     m I ZXm.s.e.iX.X.X..M.N.N.N.N.VX.X.X.X X X .TX X X X.X.X.X.X.X.X.X.X.X.X.X.X.X.X..S.U.U.U.V.N.N.N.F.H.H.F.L.M.U.S.K.K.i.e.eXl.j T x X     .                                                      ",
"                                                     .     + B UXnX>.c.f.i.i.xX.X..N.N.N.N.VXXX.X.X.X X XaX X X X .Z.ZXXX.X.X.X.X.X:X.X.X.X.X.X..iX.X.X.X..U.V.N.I.M.M.N.N.N.M.K.F.M.M.U.K.c.eXk.@ S s     O                                                    ",
"                                                   &     s Q.jXg.m.q.i.i.i.iX..y.U.N.N.VX.X6X6X.X.X X XX.K.K.K.f.K.K.K.K.KX X XXX.X.X.X..v.e.c.c.c.c.e.v.v.U.N.N.N.HX2.M.M.N.N.N.N.M.H.S.F.K.U.c.QXp U B +                                                      ",
"                                               & =   > B ZXm.h.e.x.i.i.i.i.xX..U.M.N.N.VX.X4X6X.X.X XaXdXpXrXpXpXpXpXpXpXpX-X-X&X.X .TXdXpXpXpXpXpXpXpXpXmX..U.N.N.N.N.M.N.N.N.N.N.N.N.N.N.M.N.N.M.uXg.j S p     O                                              ",
"                                             o     p Q.jXg.p.q.i.i.i.i.i.i.i.M.F.N.U.U.VX.X.X5X.X.X Xd.F.-.*.-.*.*.*.*.*.-X%X-X:X.X Xh.t V.*.*.*.*.*.*.*.-X$.Z.M.N.N.N.N.N.N.N.M.M.N.N.N.N.N.M.N.N.M.m.mXm U A     O                                            ",
"                                           &     x UXp.U.i.y.i.i.i.i.i.i.f.K.M.F.N.U.M.N.UXXXXX X .LXi.4 l # # # @ @ - # p.dXa.UX .KXm Y * # # # # # - @ r.Y.m.U.N.N.N.N.N.N.N.N.N.N.MX3.N.N.N.I.N.H.N.I.CXh.# I g   O                                          ",
"                                         O   @ B.+Xl.m.i.Z.i.i.i.i.i.i.q.S.M.M.M.V.V.U.N.N.VXXX X .GXh.4 m 3 h h h h e 2 r.QX=X X .KXl Y f a h h h h h - vX#.m.U.N.N.N.N.N.N.N.N.N.N.N.N.N.NX3X3.N.N.N.N.N.FXaXn S p   o                                        ",
"                                       o   > I.jX$.b.i.i.i.i.i.i.i.iX..y.U.MX..yX.X.X..N.N.NXX.T.L.FXc.4 m 1 a h h a b 1 r.YX=X X .CXl Y f 3 a 6 h a h @ vX#X&.M.N.N.N.N.N.N.N.N.N.N.N.N.N.NX3X3.N.N.N.N.N.N.G.CXq T s                                          ",
"                                     O   g QXf.m.m.i.i.i.i.i.i.i.i.i.i.qX..UX.X.X.X..U.V.V.V.N.N.L.KXh.4 m 1 h 6 h 7 d 1 r.YX=.TX .CXk Y f 5 7 6 5 5 b @ v.YX#.M.N.N.N.N.N.N.N.N.N.N.N.NX2X2X2X2.N.N.I.N.N.N.N.F.EXl U w     .                                  ",
"                                   O   l SXm.p.h.i.i.i.i.i.i.i.x.i.i.i.f.i.i.i.i.q.U.M.UX.X..U.V.N.FXd.4 m 1 d 7 7 7 d 1 r.YX=.SX .CXk Y f - 6 5 5 6 b @ v.YX#.M.N.N.N.N.N.N.N.N.N.N.N.NX2X2.uX2X2.N.N.H.F.F.F.F.F.0Xk Z x                                      ",
"                                 O   l QXn.Z.q.i.i.i.i.e.e.i.i.i.i.i.i.i.i.i.i.i.i.N.NX.X.X.X..U.N.HXd.4 m 1 b 7 7 7 d # rX%X=.SX..CXk Y f - 5 6 7 7 8 @ v.Y.m.U.I.N.NX2.N.N.N.N.N.N.NX2X2X2X2X2X2.M.M.H.u.H.M.F.F.M.dXk Z x   &                                ",
"                               o   l SXm.i.q.i.i.i.i.i.e.e.e.i.i.i.i.i.iX..x.i.iX.X..iX.X.X.X..U.L.FXc.4 m 1 b 7 7 7 d # rX%X=.SX..CXk Y f - 7 6 7 7 b @ vX+X+.M.I.NX3.N.N.N.N.N.N.N.MX2X2X2X2X2X2X2.H.F.u.u.u.H.F.F.M.0Xh Z x   O                              ",
"                             o   f QXn.i.i.i.i.i.i.i.i.e.i.h.i.i.i.i.i.i.i.i.i.i.SX..qX.X.X.X..U.L.FXc.4 m 1 b 7 7 5 a # r.YX-.S.T.CXk Y f - 8 : ; 7 b @ vX+X+.M.M.M.M.N.N.N.N.V.N.MX4X4.MX2X2X2X2.v.M.H.u.u.u.F.F.F.F.F.dXk Z w   O                            ",
"                           .   > IXg.e.i.i.i.i.i.i.i.i.i.i.i.i.i.i.i.i.i.i.i.S.i.U.UX.X.X.X.X..T.L.FXd.4 m 1 b 7 7 6 b # r.a.Z.c.C.BXd.- f - 7 7 7 7 b @ vX@X#.M.N.F.M.H.N.N.N.N.N.N.UX2.N.N.M.N.NX2.uX2X2X2.M.F.N.F.F.F.M.aXh U s   :                          ",
"                               GXo.Y.S.q.i.i.i.i.i.i.i.i.K.F.S.qX..i.i.i.iX..N.N.V.V.V.V.VX .L.L.L.GXa.4 m 1 a 6 7 6 b # rXrXsXrXrXrXs.2 f 3 7 7 7 6 a @ vX@X$.U.I.N.I.D.D.I.N.N.MX2X2X2.N.N.N.N.N.u.uX2.M.N.N.F.F.F.F.F.F.F.EXl T p   &                        ",
"                         &   B.#X .d.i.S.M.i.i.i.i.i.i.i.S.F.iX..i.i.iX.X.X..N.M.U.U.V.N.N.L.L.F.C.FXqX1 m 1 a 6 7 6 6 - l B A A A A B A d 6 7 6 6 5 a @ tX@.dX2.N.N.I.D.D.D.N.N.M.MX2.N.N.N.N.N.M.u.H.M.N.N.N.F.F.F.u.u.F.F.J.0Xg S f   .                      ",
"                       O   w ZXg.m.i.S.S.i.i.i.i.i.i.K.K.f.F.i.i.i.iX.X.X.X.X.X..U.U.N.N.N.G.EXlXrXw.2 G g 6 7 7 7 7 7 7 3 @ # # 1 # # # 7 7 7 5 4 5 b @ sXpXsXf.K.N.N.I.I.N.NX3.N.N.N.N.N.NX2X2X2.v.H.N.K.F.N.F.F.F.F.F.C.C.F.C.aXo I                          ",
"                     O   m TXm.e.Z.S.S.i.i.i.i.i.i.i.f.K.K.f.i.i.iX.X.X.X.X.X.X.X..U.N.H.0XhXy.4 H t g @ 3 7 7 7 7 7 7 7 7 i e i i i i d 7 7 7 7 6 6 7 6 f x Q.zXxXh.0X3X3X3.NX5.N.N.N.N.MX2X2X2X2X2.M.N.F.F.F.M.K.K.K.F.F.F.N.F.c.K.# A   O                    ",
"                   o   * QXn.m.Z.i.i.i.i.i.i.i.i.i.i.i.i.i.i.i.i.iX.X.X.X.X.X.X.X..U.CXhXp.2 B n # # 3 d 7 7 7 7 7 7 7 7 7 7 7 7 7 7 7 7 7 7 7 7 7 7 7 7 3 # @ m G.zXrXc.HX3.N.N.N.N.N.NX2.v.uX2X2X2.M.N.F.H.u.H.F.F.K.F.K.F.F.F.f.bXi U s   O                  ",
"                   &   B.j.iX#.Y.i.i.i.i.i.i.i.i.i.i.i.i.i.i.iX.X.X.X.X.X.X.X.X..U.0Xy.t B g   1 d d 8 7 7 7 7 ; ; 7 7 7 7 7 7 7 7 7 7 7 7 7 7 7 7 7 ; 7 7 d a @   p HXwXh.C.N.NX3.NX2X2X2.HX2X2X2.N.MX2.H.u.u.u.u.F.F.F.F.F.F.F.c.f.bXh S f   o                ",
"                 .   s ZXg.ZX&.Z.i.i.i.i.i.i.i.i.i.i.i.x.x.iX.X.X.X.X.X.X.X.X.X..SXx.- r @ 3 d 8 7 7 7 7 7 7 ; ; ; 7 7 7 7 7 7 7 7 7 7 7 7 7 7 ; 3 3 7 7 7 7 6 7 d @   w.4Xp.cX3X3X3X3X2X2X2X2X2X2.NX2X2X2.u.u.u.u.F.F.F.F.H.u.u.u.c.f.c.k G   &                ",
"               o   > SXg.mX-.Z.i.i.i.i.x.i.i.i.i.i.i.i.i.iX.X.X.X.X.X.X.X.X..U.MXx J f @ d 7 ; 7 7 ; 7 7 ; ; ; ; ; : 7 7 7 7 7 7 7 7 7 7 7 7 ; ; ; 7 7 ; 7 7 7 7 ; 8 d   m WXr.CX3.N.N.NX2X2.N.N.N.MX2X2.u.uX2.H.H.F.F.F.K.H.u.F.F.F.K.cX; Z t   .              ",
"               &   B.j.QX=.Z.Z.i.i.i.i.i.iX..i.i.i.i.i.i.iX.X.X.X.X.X.X.X.X..QXx G   5 d 3 7 7 7 7 ; 7 ; ; ; ; ; ; 5 6 7 7 7 7 7 7 5 5 6 5 5 7 7 ; 7 7 7 7 7 7 7 7 ; ; d 2 g.-Xr.c.N.N.N.V.N.N.N.N.FX2X2.H.F.M.F.G.N.K.F.K.K.F.F.F.F.F.F.bXl Q +   o            ",
"             .   m UXg.f.Z.ZX..i.i.iX.X.X..iX..i.i.i.iX.X.X.X.X.X.X.X.XXXX.FXx I % a 8 ; ; 7 7 7 7 7 7 ; ; ; 7 7 7 6 6 8 d d d d d a a 7 6 6 7 7 7 7 7 7 7 7 7 7 7 7 7 3 d $ n.2Xp.u.NX0X0.NX3.N.N.NX2X2.N.N.N.N.N.N.M.F.I.F.F.F.F.F.F.F.f.c.@ B   .            ",
"             o   JXo.d.Z.ZX.X..i.i.iX.X.X.X.X.X..i.i.iX..iX.X.X.X.X X XX.QXq.- < 7 b 7 7 ; 7 7 7 7 7 ; : 5 5 7 7 d d h 4 1 # # # # # # 4 5 h d 8 7 h 7 7 7 7 7 7 7 7 7 7 ; d 2 p.zXh.UX0X0.N.N.N.N.N.N.N.N.N.N.N.N.N.N.N.N.F.F.N.F.F.F.F.K.cXg T l   .          ",
"           O   s ZX;.ZX .Z.i.i.i.i.iX.X.X.X..i.i.i.i.i.S.iX.X.X.X.X.X .VXh.C r @ d ; ; ; 7 7 7 ; 7 ; ; ; ; 6 7 b # @ @ g p t w w w t r l * @ @ 3 e b 7 7 7 ; 7 7 7 3 , ; ; ; d   AXp.R.NX0.N.N.N.N.N.N.N.N.N.N.N.N.N.N.N.N.N.F.F.N.F.F.F.F.F.b.j G   o          ",
"           .   QXf.SX .S.ZX.X.X.X.X.X.X.X.X.X..i.iX.X..i.iX.X.X.X.XXXX.KXr H @ d ; ; ; ; ; 7 ; ; ; ; ; 7 6 b $ @ r B.*.O.0XfXnXnXnXf.0.4 W J x g @ h d 7 7 ; 7 7 7 7 7 ; ; ; : 8 *.-Xp.CX0.N.N.N.N.N.N.N.N.N.N.U.V.N.N.N.N.N.N.N.N.K.F.F.F.F.bXh T m   O        ",
"         &   s ZX;.ZX..i.iX.X.X.X.X..iX.X.X.X..i.iX.X..i.iX.X.X.X.XXXXXh.z p - 8 ; ; ; ; ; ; ; ; ; ; ; 7 b # l J.tXxXlXiX .T.K.F.F.LX0XeXxXpXw.2 A * 1 d 7 7 7 7 7 7 7 ; ; ; ; d @ wXwX .U.V.V.V.N.N.N.N.N.N.N.N.N.N.N.N.N.N.N.N.N.F.F.N.I.K.Z.aXo G            ",
"         .   QXf.SX:X..i.i.iX.X..i.i.xX.X.X.X.X..i.i.i.i.iX.X.X.X.XX.SXr Q   7 ; ; ; ; ; ; ; ; ; ; ; , 8 @ p.2Xs.m.0.0.C.C.I.N.I.H.u.CX1.C.B.CXkXq.* m 1 b 7 7 7 7 7 ; ; & ; ; ; 7 *.*Xp.vX.X.XX.N.N.N.N.M.M.M.M.K.N.N.N.N.N.K.F.K.K.K.N.N.S.Z.dXh U m   O      ",
"       O   s ZX<X&X:X.X..iX.X.X.X..i.x.x.xX.X.X.X..i.i.i.i.iX.X.XXXXX#Xr A   c ; ; ; ; ; ; ; ; ; ; ; , ; g.-Xp.0.C.F.L.H.N.NX2X2X1X2X1X1X1.D.H.0.0Xx.2 m $ b 7 7 7 7 7 ; ; ; ; ; d   wXx.m.UX..V.V.V.N.N.MX2X2.M.K.F.F.F.F.K.i.F.K.q.U.N.UX..Z.i.a.j G   .      ",
"       o   JXf.eX>X:X.X.X.X.X.X.X..x.x.xX.X..i.i.i.i.i.i.iX.X.X.X .VXc.H r   8 ; ; 7 ; ; ; ; ; ; ; 7 d   BXs.0.H.F.H.N.N.N.NX2X2X2X1X1X1X1X1.I.L.C.0Xs.* f 7 8 7 7 7 8 ; ; ; ; : 8 : k.2Xm.v.V.N.V.V.N.N.N.N.N.M.M.N.F.F.K.S.S.i.U.N.N.NX.X..Z.i.eXk T g   .    ",
"     &   m UXg.iX.X.X.X.X.X.X.X.X..i.i.iX.X.X..i.i.i.i.i.iX..U.UX .KXm.2 f $ , ; ; ; ; ; ; ; ; ; ; , , 1.-Xn.0.G.G.F.I.I.N.K.HX2X1X1X1.D.HX1.C.F.F.M.0Xx B @ d 7 7 7 8 7 , 8 d b 3 $ @ GXr.c.V.N.NX..V.N.U.M.G.F.F.F.F.F.K.K.K.S.U.G.N.N.U.U.U.i.i.K.+ A   =    ",
"     O   B.#.m.iX.X.X.X.X.X.X..i.i.i.i.i.i.iX..i.i.i.i.i.iX..L.L.L.CXr V # , 7 7 ; ; ; ; ; ; ; ; 7 7 $ k.2Xn.u.F.D.D.D.D.I.N.F.I.D.D.D.C.D.DX1.u.u.N.uXh.4 l - 8 8 d e e 4 @     f p w QXi.f.N.N.N.I.U.N.I.N.N.F.F.F.F.F.F.F.F.G.I.N.N.N.N.I.I.i.i.aXm S        ",
"   &   X VXl.hX.X..ZX X.X.X..i.i.i.i.i.i.S.Z.ZX..i.i.i.i.iX..T.T.L.CXr I @ a 7 7 ; ; ; ; ; ; 5 7 7 8 $ k.2Xn.0.F.C.D.D.I.N.N.D.D.D.D.D.D.D.IX1.C.C.C.C.dXr A & e $ @ @ # g s A J Y.tXiXiX..U.I.VX.X.X..M.N.N.N.N.F.M.F.F.F.F.F.N.N.I.UX..F.N.N.M.K.JX$ Z s   O  ",
"   O   t ZX*.qX.X..ZX X.X.X..i.i.i.i.i.i.iX.X..i.i.i.i.i.i.i.Z.S.L.aXr I @ a 6 : ; ; ; ; 7 ; 6 6 6 , = 1 VXn.0.G.C.C.C.K.F.I.D.D.D.D.D.D.MX2X1.C.D.C.C.aXr J   * l t B R. .gXrXrXmX-.i.fX..U.NX.X.X..U.F.N.N.N.K.F.F.F.F.F.F.F.F.F.F.U.U.N.F.F.G.F.J.b.j G   o  ",
"   &   H.j.eX.X.X.X.X.X.X.X..i.i.i.i.iX.X.X.X..i.i.i.i.i.i.i.iX..Z.aXr I @ 0 ; ; ; ; ; ; ; 7 : ; ; ; < @ BXs.0.G.I.F.F.F.C.D.I.D.D.D.D.N.N.N.D.C.C.C.F.CXi.O G.*.OX3XxXpXlX#.d.b.v.xX.X.X.X.X.X..U.I.N.M.M.M.N.U.i.i.K.F.F.G.G.K.K.F.F.K.K.F.F.F.F.F.cXg S +   .",
" o   < TXm.x.iX.X.X.X.X.X..i.i.i.i.iX.X.X.X.X.X.X.X..iX.X..iX.X.X..aXr Q # 8 ; ; ; ; ; ; ; ; ; ; ; ; , - l.2Xr.0.H.H.F.N.D.D.D.I.I.C.F.F.F.F.C.C.D.C.F.F.FX<XrXpXi.E.0.c.C.uX2.M.U.UX.X.X.X.X.X..U.N.N.MX.X..U.UX..i.K.F.F.M.S.U.i.f.f.S.K.F.M.K.K.f.f.q Z t   :",
" :   v Z.n.y.iX.X.X.X.X.X..i.i.i.i.iX.X.X.X.X..iX.X..i.iX.X.X.X.X..cXp V 1 , : ; ; ; ; 7 7 ; ; ; ; ; ; 8 @ r.2XsXc.a.C.I.N.N.I.H.M.M.F.F.F.F.D.C.F.F.F.u.H.F.C.C.c.u.HX2.HX2.v.M.N.VXXX.X.X.X.X..U.N.NX.X.X.X..iX..i.K.K.K.K.i.i.i.i.i.i.K.F.M.M.i.i.i.0.$ G   o",
" &   B.#.l.yX.X.X..q.qX.X.X..i.i.i.SX.X..i.iX..i.U.U.i.i.xX.X..SX..vXm.O g $ , ; ; ; ; ; ; ; ; ; ; ; ; ; 8 # l JX1XrXh.J.a.F.H.M.M.F.F.K.N.N.N.N.N.F.F.F.M.F.F.H.F.F.uX2.uX2X2.M.VXXX.X.X.X.X.X.X.X.X.X.X.X.X.X.X.X.X.X..U.x.i.i.i.i.i.i.i.S.U.U.S.f.i.CXf V    ",
"     RXf.f.rX>X:X..q.qX.X.X..i.iX.X.X.X..Z.iX..U.i.i.i.iX.X.X.X.X..UX@Xh t @ 8 ; ; 7 ; ; ; ; ; ; ; ; ; ; ; 8 $   s H.OXmXsXpXa.F.0.C.HX3.I.N.N.N.N.H.H.F.H.F.F.F.H.H.H.M.M.M.N.N.VX5X:X.X4X4X.X.X.X.X.X.X.X.X..U.UX.X.X.X..x.x.i.i.i.i.i.iX.X.X.X..Z.S.dX; U m  ",
"   l TXi.pX>X>X.X.X.X.X.X.X.X.X.X:.r.i.i.i.i.i.i.i.q.iX.X.X.X.X.X .U.dXs B @ d : ; 7 ; ; ; ; 7 7 ; ; ; ; ; ; : 8 @ @ g w H YX1XxXrXxXa.G.C.C.I.N.N.N.M.F.D.F.K.N.F.L.F.F.F.N.N.N.NX.X.X.X6X.X.X.X.X.X.X.X.X..V.N.N.V.UX.X.X.X.X..i.i.i.i.iX.X.X.X..S.R.Q.m.+ x  ",
"   t Z.s.iX:X>X>X:X.X.X.X.X.X:X.X.X..i.i.i.i.i.i.i.q.iX.X.X.X.X.X X..iXq W > 6 , 6 6 ; ; ; ; 3 , ; - ; ; ; ; ; ; 8 d 4 @   < r A I.2.0XrXsXqXd.F.C.C.I.N.I.N.N.F.F.F.F.F.F.F.N.N.F.N.VX.X:XX.NX.X.X.X.X..N.N.N.N.N.N.N.NX.X.X.X..i.S.i.i.iX..U.N.N.U.S.Q.e.$ G  ",
"   B.@.e.qX:X7X>X:X.X.X.X5X:X.X:X.X.X..q.i.i.i.i.i.q.i.S.ZX.X.X.X .S.U.dXx x @ d , 7 7 ; ; ; 5 , , - 7 ; ; ; 7 7 7 7 8 d d ; # @ @ < p x H.-.tXxXxXkXa.E.C.H.I.N.N.F.F.N.N.N.N.F.F.F.N.N.N.V.NX.X.X.X.X..N.N.N.N.N.V.N.NX.X..ZX..Z.i.i.i.i.U.N.L.L.U.Q.d.cXf.*  ",
"   IXo.e.rX>X7X>X:X6X.X.X.X.X.X.X.X.X.X..i.i.i.i.i.i.Z.iX.X.X.X.X..M.N.cXq.- 8 a 7 7 7 ; 7 7 7 7 7 7 , 7 7 6 6 b 7 ; ; ; ; : b b b 5 # @   : p A J.2.GXsXrXh.C.C.H.N.L.N.N.N.F.F.F.N.N.N.N.VX:X.X.X.X.X..N.N.NXXX.X..UX.X.X.X X..S.i.i.iX..U.N.N.S.i.Q.d.fXl T l",
"   VXn.e.rX>X>X>X7X7X7X6X.X.X.X.X.X.X.X.X.X..q.i.iX..Z.S.UX.X.X.X..U.V.U.RXs B   c ; 7 7 7 7 , 6 5 ; ; 7 8 6 5 a 7 ; ; ; ; ; ; ; 7 : 8 d d , # @   < r B.*.zXxXxXd.K.F.N.N.N.K.F.F.N.N.N.N.VX.X.X.X.X.X..VXX.VX.X.X.X.X.X.X.X.X.X..i.i.i.U.U.M.M.U.i.i.m.dX= Z t",
" l TXm.hX:X>X7X>X7X7X7X7X7X.X.X6XXX.X:X:X.X.X.X.X.X.X.X.X.X.X.X.XXX.X.X..SXgX1 t 1 d , 5 5 , , , ; ; ; , 0 7 7 7 7 ; ; ; ; ; ; 7 ; ; ; ; ; ; 6 a a 5 #   @ m A.*.tXsXpX=.H.N.N.N.N.N.N.N.NX.X.X.X.X.X.X.X.X.X.X.X.X.X.X.X.X.X.X.X..i.i.iX..N.I.NX..i.i.i.J.d.# A",
" r. Xg.fX.X:X7X7X7X7X7X7X>X.X6X<X<X6X:X:X.X.X.X.X.X.X.X.X.X.X.X.X6X.X.X.X..fXm.4 p @ d , - ; ; ; ; ; ; ; ; ; 7 7 7 ; ; ; ; 7 ; ; ; ; ; ; ; ; 7 5 5 7 8 d 8 # @ @ m B.-XxXx.N.H.NX3.N.N.N.VX.X.X.X.X.X.X.XXX.X.X.X.X.X.X.X.X.X.X.X..q.i.iX..M.MX.X..x.i.i.i.E.l H",
" w.+X*.yX.X:X7X>X7X7X>X>X:X:X.X6X4X6X6X6X.X.X.X.X.X.X..yX:X:X.X.X6X.X.X..iX..eXq.2 p # d , ; ; ; - ; ; ; ; ; ; ; ; ; ; ; ; ; ; ; ; ; ; ; ; ; ; ; 3 3 3 ; 7 8 b 7 #   * x.-XmXp.K.VX0X5X.X.X.X.X.X.X.X.X.X4X4X.X.X.X6X.X.X.X.X.X..i.i.i.iX.X..U.x.x.x.i.i.i.bXi.*",
" BXe.nX:X.X.X>X7X7X7X:X.X.X:X:X.X6X:X:X7X:X.X6X.X.X.X.X.X.X.X.X.X.X.X..Z.iX.X..cXq.4 w   ; d , ; 7 ; ; ; ; ; ; ; ; ; ; ; ; ; ; ; ; ; 7 6 7 7 h i b 7 3 3 7 ; ; ; , c ; @ # w.-XrX=X2XXX.X4X.X.X6X.X.X.X.X.X.X.X.X.X6X.X.X.X.X.X.X..i.i.i.i.i.i.x.x.iX..i.i.eX;.2",
" QXi.mX.X.X:X>X>X>X>X:X.X.X.X.X.X.X:X6X6X6X6X6X.X.X.X.X.X.X.X.X.X.X.X.X.X.X..U.U.fXnXw B f @ 9 8 8 7 7 3 7 ; ; ; ; ; ; ; ; ; ; ; ; 5 5 5 h 8       7 : 7 7 h 7 ; ; ; : d 7 @ f GXwXn.SX4X..U.VX0X5X.X.X.X.X.X.X.X.X6X.X.X.X.X.X..i.i.i.i.i.iX.X.X.X.X..i.i.eX<.4",
".2Xi.rX.X.X:X>X>X:X>X:X.X.X.X.X.X.X4X6X6X6X.X.X.X.X.X.X.X..UX.X.X.X.X.X..V.N.M.VXX.uX Xr.2 x % @ 6 e b 7 7 7 7 7 7 7 ; ; ; ; ; 6 7 6 h j    .8oX n ; h 7 7 h h 7 ; ; ; 7 ; b ,   w.zXp.vX.X.X.X5.VX.X.X.X.X.X6X.X.X.X.X.X.X..UX.X..i.i.i.i.i.iX.X.X..i.i.i.iX..0",
".4X*.r.r.iX.X>X>.UX:X X.X.X.X.X.X.X6X6X6X.X.X.X.X.X..i.U.N.IX.X.X.X.X..U.N.N.N.N.NX.X..WXqXx V w 8 @ 1 h d 8 7 a 0 7 7 7 b d j j j 7     qoXo>o>oX   h 7 7 h 7 7 7 ; 6 7 5 5 8 d   r.4XqX#X<X..VX:X.X.X.X.X.XXX.X.X.X.X.X..U.G.UX.X..i.i.i.q.i.U.V.U.i.i.i.i.Z.b",
".0.s.q.q.iX.X6X..xX:X X.X.X.X.X.X.X6X6X6X.X.X.X.X.X..S.F.N.S.K.U.qX..K.I.N.K.N.N.N.V.VX3.C.EXqXx W B p @ @ - e i i k i             , y.8o=o-XMXSo> M   j 7 7 7 7 7 5 6 7 6 6 7 : d   r.tXl.UX.X.X.X..V.NX.X.X..ZX.X.X.X.X..U.S.i.i.i.i.iX..U.V.N.VX..i.i.i.i.i.g",
".lX&.q.iX.X.X.X..iX&.ZX.X.X.X.X.X.X.X6X.X.X.X.X.X.X..U.K.K.q.K.K.i.x.K.F.N.N.N.N.N.N.N.N.N.N.CX@XnXr.z Q w g # 2 1     q y E P.8oXo%o;o-ooXuX9X9o$oX   d 7 7 7 7 ; 5 6 7 7 7 ; ; ; d   xXx.YX.X.X.X:.V.NX.X.X.X.X.X.X.X..U.UX..i.i.i.iX.X..N.N.N.UX..i.i.i.i.i.l",
".l.m.r.i.iX.X:X.X..i.iX.X.X.X.X.X.X.X6X.X.X.X.X.X..i.i.i.i.i.i.f.F.F.F.F.N.V.H.N.N.N.N.N.V.N.NX3.C.CXaXqXy.O I x m PoXo=o,o>o>o-o$o+XP.3.3XtXt.9XZo= u   8 ; ; 7 7 7 ; 7 7 ; ; ; ; 5 a   JXr.dX.X.X..V.NX.X.X.X.X.X.X.X..UX.X.X..i.i.iX.X..U.NX.X.X.X..i.i.i.i.q",
".m.r.r.q.i.iX:X.X..qX.X.X.X.X.X.X.X.X4X.X.X4X.X.X.X..i.i.i.i.i.f.F.K.F.G.U.yX4X2.U.VX3.NX0X0X3.N.N.N.N.RX@XnXnXUo=o:o$ooo XUXAX9X9.9.3.6 N.=.6XtXMo> M   i ; ; 7 7 7 ; ; ; ; ; ; ; 5 , $ q.tXf.xX.X.X..VX.X.X.X.X..U.N.N.UX..iX.X.X..iX.X..U.VX5X.X.X..i.i.i.i.m",
".m.r.r.q.i.iX.X.X.X>.r.qX..iX.X.X.X.X4X4X.X<X6X6X.X.X..i.x.x.i.i.G.K.U.F.F.M.U.MX3.N.N.N.N.NX3X5X0.N.N.TX0.QX1o;o$XNXzX9X9XzXzXAXvX8.6.& * y.5.3XFo: M   i ; ; 7 ; ; ; ; ; ; ; ; ; ; ; 8 # IXr.cX.X.X.X.X.X.X.X..U.N.N.N.i.x.iX..i.i.iX.X.X.X.X.X.X.X..iX..i.iX#",
".m.m.q.i.iX..i.iX..i.i.q.q.i.i.iX.X.X.X.X.X6X6X4X.X.X.X.X..x.x.K.F.K.x.F.H.U.M.M.U.N.V.N.N.N.NX3.D.I.N.NXw.#o@o*XCXBXzXzXzXAXzXvXt.6.5 v 2 1 N.6Xto; M O i ; 7 7 ; ; ; ; ; ; ; ; ; ; ; 8 # tXw.Y.UX.X.X.X.X.X..V.N.N.NX..U.U.x.i.i.i.iX.X.X.X.X.X.X.X.X.X..i.qX$",
".l.m.q.iX.X..i.i.i.i.q.i.i.i.i.iX.X.X.X.X6X6X5XXX.X.X4X.X..S.K.N.L.UX..M.M.U.V.U.U.N.V.N.N.N.NX3X3X3X0X0X .Do;ooXjXzXAXAXzXzXzXvXtX8 N y C D C.5XIo; y   i , : 7 ; ; : ; ; ; 7 ; ; ; ; : 1 g.2Xm.q.xX.X.X.X.X..N.N.N.NX.X.X..i.i.i.i.i.iX.X..UX.X.X.X.X.X.X..ZX$",
".0.s.q.iX.X.X..i.i.i.i.i.i.i.i.i.iX.X.X4X5X5X5X5X6X.X.XXX..N.N.N.N.U.H.U.U.N.N.N.N.N.V.N.V.N.NX0X0X0X0X0.kXQo:XZXjXCXAXzXzXzXzXzXvX8 N C F N C Jo.o:.* s # 6 7 7 7 7 7 - - 5 6 ; ; ; ; ; b @ JXr.mX:X.X.X..U.N.N.L.N.UX.X.X.X.X..i.i.i.i.q.U.NX.X.X.X.X..i.iX:.l",
".4X*.q.yX.X.X:.q.i.i.i.i.i.i.i.i.iX.X..V.V.N.VX6X6X6.V.NX0.N.N.N.N.M.M.V.U.L.V.N.N.N.N.N.N.N.N.N.NX0XwXb.kXGo:o X9XCXCXAXAXAXAXzXvX8.= y z v D.1o@o#Xn.D G 8 h 8 7 5 5 6 6 6 5 ; ; ; ; ; d   AXp.kX&X:X..V.N.N.N.S.S.iX.X..U.U.U.U.i.i.x.x.N.N.VX.X.X..i.i.iX>.g",
".2X;.r.yX.X.X..i.iX..i.i.i.i.i.i.iX.X..N.VX0X5X6X6X6X0.N.N.N.V.N.N.U.U.VXX.T.V.N.N.N.N.N.F.J.WXgXqXc.$.bXwXGo:o+X9XCXAXCXCXCXCXCXzX8.6.& f v.5XJo;XW.#.RXn G   i i 5 6 8 7 6 5 ; ; 7 7 7 b @ tXwXoX&X:X..V.N.N.N.UX.X.X..U.V.LX.X..i.ZX..U.N.N.NX.X.X..i.i.iX*.0",
" IXi.mX:X.X.X..i.iX..i.i.i.i.i.i.iX.X.X.X6XXX.X.X.X5X5.N.N.NXX.V.U.UX.XXXXXX.V.M.C.C.LXhXqXrXyX1. Xwo+o-o-o*o$ooXzXCXCXCXCXCXCXCXAXEX8.6.&.=.6o+o<o-o-o-o-o# M     j 7 7 7 7 7 ; ; 5 5 7 d   uX3XoX.X.X..V.V.V.U.UX.X.X..U.VX..i.i.iX.X.X..U.N.G.MX.X..i.i.dXi.4",
" B.dX*X:X.X.X.X.X.X..i.i.i.i.i.i.iX.X.X.X.X.X.X.X.X.X..V.V.V.U.UX.XXX..K.QX@XgXnXrXrXw.4.- H x m.<o:o-o+o XVXRXAXCXCXCXCXCXCXCXNXCXLXEXtX8XtXtXTooo+ooo+o+o$o>oX u   j 6 7 7 7 ; 7 6 6 , b   uX1XfX.X.X.X.X.X.X.X.X.X.X.X..UX.X..i.i.iX..q.U.U.K.U.i.i.i.i.dXi.-",
" t ZXhX:X.X.X.X.X.X.X..q.i.iX.X.X.X.X.X.X.X.X..i.i.Z.UX.X.X.X.X.X:X<XlXrXrXyX1.2 Q B w m * @  .<o:o+XPXFXAXCXCXCXCXCXCXCXCXCXNXLXGXLXGXAXEXAXLXCXCXNXCXAXzXEXZo*o, y   i 7 7 7 6 ; ; 7 3 7   uX1XfX:X.X.X.X.X.X.X.X.X.X.X.X.X.X.X.X.X.X.X.X.X..i.i.i.iX.X..fXi Q",
" p. Xg.yX.X6X6X.X.X:X..y.y.iX.X.X.X.X4X4X.X..i.i.iX.X.X.X4X.X.X.X:Xa.4.* G x u k 2 1 2 # h . Po1o..6.6XDXFXMXQXNXNXNXNXNXNXNXLXFXFXFXFXEXGXNXNXRXNXRXSXMXEX8.6.3o$o= n 7 h 7 7 7 7 6 , : 8   vXwXfX:X.X.X:X:X4X.X.X.X.X.X.X.X.X6X6X.X.X.X.X.X.X..x.xX.X.X..M.g G",
" f YXm.xX.X.X6X:X.X.X.X..i.iX.X.X.X.X.X4X.X..Z.i.iX..iX.X.X.X..UX+Xd w       @ 3 d d d 8 ; ko&o#.6.& y.7XHXFXMXSXNXNXRXNXNXLXFXH.7.AXDXFXMXNXRXRXRXRXQXFXH L C.5.3o-XK   j 7 7 7 7 7 ; 3 d   wXyX@X.X.X.X:X:X6X5X.X.X.X.X.X.X.X.X6X.X.X.X.X..i.xX4X.X..UX.X..# A",
"  .*Xf.uX.X.X,X>X.X.X..i.i.iX.X.X.X.X.X.X.X.X.X.X.X.X.X.X.X.XXX..dXq B   i d 8 8 7 7 7 i   Mo>XJ.7 y   D.AXDXPXSXSXSXSXSXQXIXH.7 q D.AXDXPXRXRXSXSXTXPXH.7 q 2.&.1o.o& n & a 6 7 7 7 7 ; d   AXp.W.x.iX.X.X:X:X.X.X.X.X.X.X.X.X.X.X.X.X.X..i.x.xX.X..i.U.UXd.  s",
"   G.j.uX.X:X7X>X.X.X.X..i.i.i.iX.X.X.X.X.X.X.X.X.X.X.X..U.NXXXX.JXm.- f 3 7 7 7 7 7 ; j  .8o*.6 N k q q.:XHXPXUXUXUXUXSXPXH.A K @ n.:.6XFXQXSXUXUXTXI.A C n q y.7X8o- E   h 7 7 6 5 6 6 d @ JXr.mX.X.X.X.X.X.X.X.X.X.X.X.X.X.X.X.X.X.X.X.X..iX.X.X.X.X..fXm W g",
"   x.+.wX.X:X>X>X.X.X.X..i.i.i.iX.X.X.X.X.X.X.X.X.X.X..U.N.NXXX.X..YXi w # d 7 7 7 ; ; j  XKo$.1 C K N L DXHXPXUXVXVXVXTXI.A.: k 3 2 y.7XHXPXSXUXUXTXI.7 C N N K NX8o-.>   j 7 7 7 ; 6 7 3 f.2Xm.iX.X.X.X..i.i.i.i.iX.X.X.X.X.X.X.X.X.X..i.i.i.SX.XXX.X..fXf R  ",
"   r UX,.yX.X.X.X:X X X.X.X.X.X.X.X.X.X.X.X.X.X.X.X.X..K.N.NX.X.X..cXr R # a 7 7 , ; ; j  XKo$.1 K E L C NXHXPXUXVXVXZXPXJ.A y   q n @ NXHXFXTXUXUXTXI.A K E L z.&Xto-.<   j 7 7 7 7 7 d 2 tXaX#.U.q.q.U.i.S.i.i.i.iX.X.X.X.X.X.X.X.X.X..i.i.Z.M.UX.X..U.d.$ F  ",
"   f TXm.yX:X:X:X:X.X..Z.ZX.X.X.X.X.X.X.X.X.X.X.X..U.N.N.G.NX..U.N.MX@.L s # d , , ; ; j &.8o-.3.7 u q y.AXFXTXVXVXVXZXPXJ N u L L N K y.7XFXQXSXUXUXPXJ.7 u q E.AXvo: M & j 7 7 7 7 7 d 2 GXr.h.Z.i.S.K.i.i.i.i.i.iX..iX.X.X.X.X.X..i.iX.X..i.U.VX..Z.SX$.+ w  ",
"     JXf.iX>X>X<X.X.X.X.X.X.X.X.X.X.X.X.X.X.X.X.X.X..U.N.N.NX..U.N.U.dXr R X b , , : i j   Eo:XF.6.& u.7X8XvXQXNXUXVXZXPXJ L N.: N.:.: E.&XIXMXSXRXCXGXtXH N v.7X8o.o& k   i j 7 7 7 b ; n.4Xf.i.i.i.i.K.i.i.q.i.i.i.i.iX..iX..i.i.i.i.i.i.i.iX.X..i.S.SXg U m  ",
" :   x.+.nX:X.X:X>X:X..iX.X.X.X.X.X.X.X.X.X.X.X.X..y.yX.X.X.X..U.N.NX X@Xl x @ 0 h =     n Eo;ooXtXD.6.6XWo#o*o$o XRXTXPXJ N E K D L N E.=XEXMXLXZo@o$o#o..6.6XDXvo$o% E u     h 7 3 d   GXr.k.y.i.i.i.i.i.i.i.q.q.i.i.i.i.i.y.i.i.i.i.i.i.i.iX.X..i.U.uXm S    ",
" O   p ZXg.yX.X>X>X:.qX.X.X.X.X.X.X.X.X4X.X.X.X.X.X..i.xX.X.X..U.N.N.T.fXp.2 n 9   8.<o%o=o*o#o XLXMXvo.o&XKXKXKo*o+XLXPXD.7 y y K K v K.AXtXuXTo*oXXKXKo%o+XEXEXAooo#o*o=o% P   3 d 2 sX1X%.xX..S.i.i.i.q.p.i.i.i.i.i.i.i.i.y.x.i.i.i.i.i.i.iX.X..i.S.c.j G   o",
"     % VXp.xX:X>X>X:X.X.X.X.X.X.X.X.X.X.X.X.X.X.X.X..Z.xX.X.X.XX.N.N.NX4.mXs.*   yo%o>o#o XVXBXBXNXCo.o=.8 M P.,XKo-XWXuXt.6.: g q k v.=.6XtXuo#XK P P P.8o&o.XuXuXuXAXTooo$o>XK o 6 k.2Xp.vX..i.S.i.q.q.r.p.q.i.iX..i.i.q.q.i.i.i.i.i.i.i.i.iX.X..Z.SX; Z s   O",
"   =   G.j.yX>X:.ZX..Z.UX.X.X.X.X..iX.X.X.X.X.X.X..i.iX.X.X.X.X..N.VX.X..ZXiX;.:o=o$XEXuXzXGXGXGXGXzo*XK P.<oOo;o%o&o+.9Xt.6.5 L # n.&.=.6..ooo% P PoXo=o&oOo$Xu.9Xt.3.3.3.3XZo-XK X QXr.mX..U.T.S.q.r.q.i.i.i.i.i.i.i.i.i.i.i.i.i.i.i.i.i.i.i.iX.X..iXq.* X    ",
"   O   r ZXiX&.q.qX.X.X.X.X.X.X.X.X.X.X.X.X.X.X.X.X..i.iX.X.X.X..V.VX.X:X:X#.Fo-o$XtXtXEXDXEXEXE.zXWo&.,.>o%o1o,o<o;o-XE.O.6.5.= z L.=.1.3.Oo-XK MXKo<o<o1o;o*XW.OX8.6.1.=.=.1XPo:XJXoXhX=X..U.R.Q.q.q.i.i.i.i.i.i.i.q.q.i.qX..q.i.i.i.i.i.i.i.iX.X..m.@ B   &  ",
"       . VXrX#X&X&X.X X.X.X..iX.X.X.X.X.X.X.X.X.X.X.X.X.X.X.X.X.X.X.X.X>X7.@ooo>XPX8.6.=.=.6XtXt.OoooX M.8o,o<o1o<o,o>o....3.1.5.5.5.1 Y YXIo=.<.>o%o1o1o1o,o;oo.o.3.1.= y D.= Vo@o:.0XcXcX..Z.Y.Z.i.i.i.i.i.i.i.i.i.U.i.q.i.ZX..i.i.i.i.i.i.iX.X..SX; Z r o O  ",
"     =   A.@X+X&X&.Z.R.ZX.X..iX.X..iX..Z.S.iX.X.X..iX..iX.X..iX.X.X.X.X.Xc.@o*o#.3.6.= u z.5.1.3.Oo@.8 MoXo1o1o2o1o<o<o@...o.o Y Y.o.o.O To.oO P.8o,o1o2o2o<o,o#.o.1.= F 2 n.& RXJo;XY.%XaX=.Z.Z.Z.i.i.i.i.i.i.i.i.i.i.i.i.i.i.S.i.i.i.i.i.f.K.SX .FXg R     .  ",
"     &   l UXn.ZX-X=X X .ZX..iX.X.X..i.i.iX.X.X..iX.X.X..iX.X.X.X.X..ZX.X+Xao-o..1.= D 2 j N.1.1XDo&.< Po%o<o<o2o2o2o1o# Y.X.X.X.X.X.X.O To+oX MXKo1o<o2o2o1o<o-.3 R.& n 2 @ y.= Wo@o+.@XhX-.Z.i.i.i.i.i.i.i.i.i.i.i.i.i.i.i.S.i.i.i.i.i.i.K.LX .S.S.+ x   O    ",
"       .   HXo.qX-X=X:X.X..iX.X.X.X..i.i.i.iX..iX.X..iX.X.X.X.X.X.X..ZXa.kXBo-XJ.=.& k k f u.=.*XHo&.,.>oXo=o<o2o2o2o1o$ Y.o.o Y Y Y Y.X To@XK P.8o%o1o2o2o2o<o:X8 R D u z z v F VoOo@.@XiX&.Z.i.i.i.i.i.i.i.i.i.i.q.iX.X.X..i.i.i.i.i.i.i.ZX X .KXm S f   .    ",
"       O   p UXlX#X-X>X>X:.UX..iX.X.X..i.i.iX.X..U.i.qX..q.i.i.iX.X.X.X<.jXNo-XH.= z y C D z F RXHo&.,., P.8o,o2o2o2o<o*.o Y.1.1.1.1 W Y Wo#XK P.,.,o%o2o2o2o<o:XD J z N F F L D Vo.o#.$XhX#X&.q.i.i.i.i.i.q.r.q.q.q.iX.X..i.iX..i.i.i.i.i.S.Z.S.J.$ B   O      ",
"             JXf.mX-X>X>X:.UX..i.i.i.i.i.i.iX..i.i.i.r.r.q.i.i.iX.X.X.X<.kXBo;XJ J D N D F L F.*X8o&.,.,.;.8o,o2o2o1o<o*.o.1.*.= z F.*.- Wo#XK P.,.;o%o2o2o2o<o-XD R F z K K y F VoOo#.$X;X#X&.r.i.i.i.q.q.r.r.q.qX..i.i.i.i.i.i.i.i.i.i.i.xX..SXl U l   O      ",
"         O   r ZXmX&X-X>X.X.X.X..q.r.r.q.i.iX..i.q.r.q.r.q.i.q.i.qX:X&X*.kXao;XJ R D z L D u F.-.6o#.8 PXKo=o<o2o2o<o<o# Y.1.= D 1 u J.* Vo@oX P.<oXo<o2o2o1o<o-.3 V.= t u u w.= Vo@o@.@X;.mX&.y.i.i.i.q.r.r.r.q.xX.X..i.i.i.i.i.i.i.i.i.i.xX=.i.j G            ",
"               IXf.lX-X-X:X.X.X.X.X.X.X.X..i.i.iX..r.r.r.q.i.q.i.qX*X-X-Xh.@o#o@ R.= v u q z.= V Wo@XK MoXo1o<o2o1o,o>o+ V.*.& q 9 2 D.= Ro.oO M.8o,o1o2o2o<o,o$.o W.1.& g p.& R.6o=o..jXg.nX#X*X&.q.q.r.r.r.q.q.S.U.i.iX..i.i.i.i.i.i.i.iX..ZXl T l   o        ",
"           O   p UXgX#X-X=XXX.X.X.X.X.X.X..i.i.i.r.r.r.r.i.i.i.iX&X*X<XO.j.+o+o;.6 R.& g r.&.* W To.oX MXKo<o<o1o<o,o:XI R.= z 1 j 2 n.& RXDo@.;.<o;o1o1o1o>o:o@...o W.1 N N.= Vo.o>XN.@.jXgX%X@X*X&.r.r.q.q.i.i.S.S.y.i.i.y.i.i.i.Q.i.i.Q.Z.P.$ B   .          ",
"             o   GXoX+XcX-X=X.X.X.X.X.X.X.X.X..q.q.r.r.q.i.i.qX*X*X7.k.%XYo$o-o*XD V.* G H.* W.o WXDo&.,.>o%o<o,o<o;o*.6.* N q y z C u z.= Vo#XK PoXo1o,o<o=o*o. Y.X Y W.1.1 W Wooo-o*o+XG.$XfXcX$X&.r.r.q.i.i.S.iX.X.X.X.X..S.i.S.Q.Q.S.Z.mXm T f   o          ",
"             .   l UXn.WX-X-X.X.X.X.X .Z.ZX.X..q.i.i.i.i.i.iX&X$X7.%XGo*o;o+XI.O Y Y W.1.1 W Y.o Y Yo#XK M.8o=o,o&o%o@ W.* D K.& F N N y.& SoOo% P.<o%o<o,oOo#.3...X.X.o Y Y.X...OXFo.o*o,o+.%XoX%.mX&X&.Z.SX .Q.i.i.SX.X..M.G.F.K.Q.Q.Q.SX#.+ x   o            ",
"               o   A.@XaX=X-X.X.X.X.X .ZX..i.i.i.i.i.i.i.i.qX#Xd.%XQo>o*Xt U.....X.X.X Y Y Y.o.... TXIo&.8 P.<.8XKo-XI W.1 F C D D D D C J W.3o*XK P.,XKXKo=o. T.X.X.O...X.X.X.X.. Y.OXzooo:o#.%XOX#X#.Y.Q.R.S.i.i.i.i.y.U.N.L.N.K.Y.YX .KXf Q   & .            ",
"                 &   QXnX@X-.Z.SX.X..Z.iX..i.i.i.i.i.i.qX&.rX*.%XBo:o@.O. .X.X.X.X.X.....X.o...X...X To.o;XK.8XKo*o. Y.o.1 N u C D D v z.* Y YXDo*oX.8.8o@o@.o.X.o...O.O.O.O.X.X.X.X.....OXTo-o@.@XcX#.Y.Y.Z.i.i.i.i.S.M.V.N.N.N.M.S.S.fXh U p   &              ",
"                 .   p ZXl.ZX&.SX.X..i.i.i.i.i.iX..q.i.qX&X=X;.#o*o*.....o Y Y Y Y.o.X.X.o.o.X.X.X...X Yo.o*o-o*XW...O.o.1.= D f y q p.&.1.X.O YXto#o-o*o..X.O.O.O.O.O.O.O.O.X Y Y Y Y.o.X..XTo>o..$XdX#.m.i.i.i.i.i.K.N.U.U.UX.X..Z.Z.M.# B   o                ",
"                 . O   B.$XaX#.Z.iX.X..i.i.i.i.i.i.i.q.rX&Xd.@XYo,XF...o.-.*.=.1.1 Y.X.O.O.X.O.O.O.O.O.O....Xt.O...9.O.O.6.5.= z # k N.5.6.O.O.9.O.OXtXt.O.9.9.9.9.9.9.9.9.3.o.1.5.=.*.1.o.O.9o+o-.bX@X&.i.i.i.i.i.i.K.FX.X..UX.X..Z.KXf R X   &                ",
"                   . o   IXn.lX*.y.iX.X..i.i.i.i.i.i.q.r.rX<.+o#o@...3.1.= D r.=.=.1.3.O.O.O.O.9.9.9.9.9.9.9.9.zXu.zXuXtXt.6.5.: v D.5.1.3XtXuXuXuXu.z.zXuXuXuXuXuXuXuXuXtXt.6.= N q N.=.1Xt.9Xzo-XY.$X<.i.l.q.i.i.i.K.KX..iX.X.X..cXh T m   O                  ",
"                     .   l TXn.qX*.iX.X..iX..i.i.i.i.i.qX:.nX3o-o..O.6.5 N n # C.=.5X8XtXtXtXvXuXuXuXuXuXvXvXuXzXzXAXAXzXEXtX8.5.7.7.6XDXEXzXzXzXzXGXGXAXAXAXAXAXAXAXAXzXEX8.5.& v   u.&.5X8Xv.9o@o#.+X<.p.i.q.i.i.i.i.i.i.i.iX..iXi Z w   O                    ",
"                       O   t ZXk.mX&.q.i.iX..S.S.i.i.i.iX:.jXWo:XP.3.5.= z 1 5 n.&.5X8XEXEXEXAXGXAXAXAXAXzXzXzXzXuXzXAXAXzXvXtX8X8X8XtXvXzXzXzXzXzXAXAXAXCXLXNXNXNXNXQXMXFXH.5 K 3 h 2 K.7.6XEXuooo*.#X&.i.i.q.i.i.i.i.i.i.i.i.i.Q.% B   :                      ",
"                         :   x.+Xf.Y.Z.S.SX .Z.S.i.i.i.mX<.$o.o;XzX8.7 N & j n # y.7XHXPXMXQXQXQXMXQXLXLo o+ooooooooo+o+o+o+ooooooooooooooooooooooo+o+o+ooXRXUXUXUXUXUXQXF.A.: n 8 n 9 q.:.6XIXAo.o-.0.l.q.q.i.i.i.i.i.i.i.i.S.bXg I &                          ",
"                           =   B.$Xe.Y.T.S.Q.Z.i.i.K.i.QX .%XYo;XGXD.7 v y K C K u NXHXPXTXTXTXPXPXPXPXZo$o%o%o%o%o%o%o%o%o%o%o%o%o%o%o%o%o%o&o&o&o&o&o&o*ooXRXUXUXUXUXQXF.A z u K D L y C.AXPXQo o-X1.l.i.Q.Z.i.i.i.i.i.i.S.bXh R g   o                        ",
"                                 GXoX@.YX .Q.Q.Q.i.i.Q.QX .%XWo:XWXE.: E.; N K.: K EXHXPXZXTXIXD.A.AXDXZo*.: P.> P P P P P P P P P P P P P P P P.>.>.>.;o@ooXLXUXRXUXSXTXI.7 C L.; L.: N C.AXPXQo.o*.bX$.S.Q.Q.i.i.i.i.i.S.bXl T p   o                          ",
"                             .   & IXn.Z.Z.q.i.Q.Q.Q.Y.Q.Y.kXwo:o.Xt.7 z K K C L z KXHXQXTXPXH.A z zXHXDo#oO.;.;.,.,.>.>.>.>.>.>.>.>.>.>.>.,.,.,.<.,.;oOo$XIXFXFXQXRXSXTXI.A K E L C L E z.AXPXCo+o#.#X<.Q.Q.Q.i.i.i.i.S.dXh T s   O                            ",
"                               o   f QXnXO.m.Y.Y.Y.Q.Q.QX#X-.#o*o@.9XH N u E K z v.7XJXQXQXF.A.; 9 j.&X8XFo$o&.8.;.>.,.,.,.,.,.,.,.,.,.,.,.,.,.,.;.8o@o$XJ.=.:XHXFXQXUXSXPXH.: u E M K u.&XHXPXCo#o+.@Xb.i.i.q.i.q.i.Z.dXk U t   O                              ",
"                                 O   g QXn.x.YX%.Z.Q.Q.m.mX<.+ooo-XvX8.A C < q <.&XHXFXTXPXD.7 v q n y.AXFXMo+o-oOXK.<.;.;.,.,.,.,.,.,.,.;.;.,.8oOo-o#XJ.A y q.7XHXPXSXRXQXFXH N X u > L.AXJXLXZo;XN.jXX.i.i.q.i.q.S.dXk T w   :                                ",
"                                   O   f QXnX@.YX=.Z.Q.mX#X#.g.Co:oo.9XD.7 v   K.AXDXPXQXFXD.& K N L K.&XIXLXCo o$o-o*oOXK.8.<.,.,.,.:.8XKoXo&o*o$o.XEXH N 2 1 D.AXEXQXRXSXPXD.A C   y.AXHXFXAo$o#.#Xi.Z.i.S.Z.iX#.dXl T t   O                                  ",
"                                     O   f IXoXc.YX-X#X#X#X#Xa.@o.o>XTXtXH.: D.7XDXFXQXSXPXD.: C L K C.:XFXMXUXRXCXVooo$o*o*o*o*o*o&o*o$o$o$o+o XNXLXI.7 y y y y.:XDXMXSXUXQXPXD.A C.:XHXFX9o+o:XB.kX<X..S.SX<.Z.RXk S s   :                                    ",
"                                       O     G.@Xl.mX#X#X#X#.WXc.@o@o:XQ.9XEXJXDXPXMXQXSXMXF.A C v v C.AXFXQXTXUXUXRXNXNXUXVo o o o o XVXUXNXNXRXUXQXI.= K L K L NXDXPXTXUXSXQXPXEXFXFXvXzo@o:XY.%Xd.Y.Z.Z.T.YX@Xq R p   :                                      ",
"                                         .     A ZXm.QX#X+X@X@X@XO.%o@o>ooXAXuXAXLXNXRXRXNXF.6.7 u u.7.6XIXQXSXRXRXUXUXUXRXRXNXNXNXCXNXNXNXUXUXRXRXMXF.A C y E u.:XDXMXRXRXRXRXLXzXzXzo.o*o-XS.$XcX#.QX X .KXc.% I l   :                                        ",
"                                           o     s TXrXa.WX@X@X@X@XO.+o.o-o;o#o+o.o XZXZXZXTXJXH.:.:.AXJXPXZXZXZXZXZXZXZXZXZXZXZXZXZXZXZXZXZXZXZXZXWXJ.A.: q i P.AXJXWXZo o o o.ooo@o-o:o@Xa.jXhX%X-X=.R.WXk Z B .   :                                          ",
"                                                   l Q.%Xl.dX@X@XOXOX@.@.go.o#o*o-o-o-o:o:o>o;o=o&o&o&o;o:o:o>o>o>o>o>o>o>o>o>o>o>o>o>o>o>o>o>o>o>o:o;o&o%XK.<o%o%o=o:o>o>o:o:o:o-o$ooXG.@XOXcXcX-X=.S.LXq T w     O                                            ",
"                                                 O     A UXrX@.kXOXOXOXcXO.@.@.%XcXyXBXNXYXYXYXYXYXYXYXYXYXYXYXYXYXYXYXYXYXYXYXYXYXYXYXYXYXYXYXYXYXYXYXYXWXWXWXWXYXYXYXYXWXNXBXwX+.$.$XoXhXcXcXcX@.WXk.# Q l     &                                              ",
"                                                   O     p Q.@Xm.WX+X@XOX@X%XcX@.k.k.k.j.%.%.%.%.%.%.%.%.$.$.$.$.$.$.$.$.$.$.$.$.$.$.$.$.%.$.$.$.%.%.%.%.j.j.j.j.%.%.%.%.%.k.g.kX@XhXiXcXcXcX%.YXcXl T A X   &                                                  ",
"                                                             x TXnXgX@X+X@X+X@X@X-XdXdXcXdX7X7XeX7XeX7X7X7XeXeXdXdXeX7XdXdXcXdXdXdXdXdXdXeXeXdXdXeXeXdX7XeXaXXXbXbXbXbXbXbXXXXXaXcXcXcXcXcX+X@Xq Z H m     &                                                    ",
"                                                         O     m G. XnXg.PXOX%X-X-X-X-X-X-X-X-X-X-X=X X X X X-X-X-X=X XaXaXcX-X-X-X-X-X-X-X-XdX-X-X-X-X-X-X-X XaX=X<X=X X X X XaXcXcXc.W.WXq.# V w     o                                                        ",
"                                                           . =     p J ZXrXk.mX#X%X%X-X-X-X-X-X-X=X=X=X=X=X=X-X-X-X=X XXX-X-X-X-X-X-X-X-X-X-X;X-X-X-X-X-X-X-X=X-X-X-X=X X X .YXcXcX@XcXq.% S x +     &                                                          ",
"                                                               .       s Q. XfXm.YXcXcX-X-X-X-X=X X-X-X-X-X-X-X-X;XiXdXdX-X-X-X-X-X-X-XiX-X-XiX-X-X-X-X-X-X-X-X-X-X-X=X X X .R.RXhXq.+ V A f     O                                                              ",
"                                                                   O       p G T.jXrXgX#X#X%X-X%XcX-X-X-X-X-X;X-X-X-X-X-X-X-X-X-X-X-X-X-X-X-X-X-X-X-X-X-X-X-X-X-X-X-X=X=.R.WXkXn Z V x +     o                                                                  ",
"                                                                       O       m B V ZXoXrXg.Y.RXaXaXcX-X-X-XiXiX-XdX-X-X-X-X-X-X-X%X-X-X-X-X-X-X-X-X-X-X-X-X-X=.Z.VXaXhXr.@ U I w X     o o                                                                    ",
"                                                                           &       X s G S ZXoXpXmXgXcXaX%X-X-X-X%X-X-X*X$X$X$X$X-X@X@X@X@X@X$X$X$X$X%X#.Y.mX+XgXpXn.+ U Q x m       O o                                                                        ",
"                                                                               .         + s B S U.+.jXnXnXmXgX$X@X+X+X@X+X+.nX+XOXOX@X$X+XOX+XOX@X@XfXnXnXo.+ U T I x m         O                                                                              ",
"                                                                                     O           g t B I.-. .+.%XmXpXmXfXOXOXOX+XOXOXgXgXgXfXlXqXO.+.  T.* G x p +         O O                                                                                  ",
"                                                                                       . . O             + m w B I V.4.b.kXOXfXfXOXOXfXO.k.#.  Q G x s l             : o                                                                                        "
};
