/* XPM */
static char *image_xpm[] = {
/* width height ncolors chars_per_pixel */
"32 32 248 2",
"   c #ffffff",
" . c #fffffe",
" X c #feffff",
" o c #fdffff",
" O c #fcffff",
" + c #fffefe",
" @ c #fffefd",
" # c #fefefe",
" $ c #fefefd",
" % c #fffdfc",
" & c #fefdfc",
" * c #fefdfb",
" = c #fdfeff",
" - c #fdfefe",
" ; c #fdfefd",
" : c #fdfdfd",
" > c #fefcfa",
" , c #fdfcfc",
" < c #fdfcfb",
" 1 c #fdfbf9",
" 2 c #fcfcfc",
" 3 c #fcfcf9",
" 4 c #fcfbfa",
" 5 c #fcfbf9",
" 6 c #f9fbfe",
" 7 c #fef9f5",
" 8 c #fcfaf9",
" 9 c #fcfaf7",
" 0 c #fcf9f6",
" a c #fcf8f4",
" b c #fdf8f2",
" c c #f7fafb",
" d c #fcf7ef",
" e c #fbf7f0",
" f c #faf7f5",
" g c #fbf4eb",
" h c #f9f5ed",
" i c #fcf2e5",
" j c #fbf2e7",
" k c #fcf1e4",
" l c #fbf0e2",
" m c #faeedf",
" n c #f1eeed",
" p c #f9ebd9",
" q c #fae9d5",
" r c #f9e8d3",
" s c #f8e9d7",
" t c #f2e7da",
" u c #f6e2ca",
" v c #f6dfc4",
" w c #f7dec1",
" x c #f1e0d0",
" y c #f5dbbc",
" z c #f2dbc2",
" A c #f4d9bb",
" B c #f6d7b5",
" C c #f7d7b0",
" D c #f6d5af",
" E c #efd4bd",
" F c #f4cfa2",
" G c #f2cba4",
" H c #f3c894",
" I c #ebceb7",
" J c #ebc9aa",
" K c #e2cdbc",
" L c #f2c48e",
" M c #f3c085",
" N c #f2be82",
" P c #eec498",
" Q c #dec4b0",
" R c #f4bc79",
" S c #f0bc7f",
" T c #efba80",
" U c #f1b773",
" V c #efb470",
" W c #eeb26b",
" Y c #e3b791",
" Z c #ecb77f",
".  c #edb175",
".. c #d1b8a7",
".X c #deb290",
".o c #efad5d",
".O c #eda85d",
".+ c #eda458",
".@ c #f1a44b",
".# c #eda24a",
".$ c #efa04c",
".% c #eea246",
".& c #f09f3f",
".* c #f99b2f",
".= c #f49a31",
".- c #ee9c45",
".; c #f09b38",
".: c #f9992a",
".> c #f7992b",
"., c #f6982a",
".< c #f69729",
".1 c #f3982c",
".2 c #f3972d",
".3 c #f3962a",
".4 c #ef9938",
".5 c #ee9630",
".6 c #f29629",
".7 c #ed952a",
".8 c #eba95e",
".9 c #eaa757",
".0 c #eba554",
".a c #eba34f",
".b c #ea9f48",
".c c #e0a87b",
".d c #e5a15f",
".e c #e79f50",
".f c #d4a581",
".g c #c5a485",
".h c #e9993d",
".i c #e9993b",
".j c #e99737",
".k c #e99531",
".l c #e49950",
".m c #d1976a",
".n c #c49b78",
".p c #c69777",
".q c #f19426",
".r c #f19325",
".s c #ef9327",
".t c #ec9329",
".u c #ec9227",
".v c #ee9124",
".w c #ec9128",
".x c #eb9127",
".y c #eb9026",
".z c #eb8f24",
".A c #e89432",
".B c #e8932d",
".C c #e9912a",
".D c #e99028",
".E c #ea9025",
".F c #e98f26",
".G c #e88f26",
".H c #e79435",
".I c #e79232",
".J c #e7912d",
".K c #e7912a",
".L c #e7902d",
".M c #e7902a",
".N c #e79029",
".P c #e79028",
".Q c #e79027",
".R c #e78f2b",
".S c #e78f2a",
".T c #e78f29",
".U c #e78f28",
".V c #e6912e",
".W c #e6912b",
".Y c #e6902d",
".Z c #e6902c",
"X  c #e6902b",
"X. c #e6902a",
"XX c #e69029",
"Xo c #e69028",
"XO c #e68f2c",
"X+ c #e68f2b",
"X@ c #e68f2a",
"X# c #e68f29",
"X$ c #e68f28",
"X% c #e68f27",
"X& c #e5912c",
"X* c #e5902d",
"X= c #e58f2d",
"X- c #e58f2c",
"X; c #e58f2a",
"X: c #e58f29",
"X> c #e58f28",
"X, c #e0914c",
"X< c #dc9054",
"X1 c #e4902c",
"X2 c #e48f2c",
"X3 c #cc905c",
"X4 c #c69162",
"X5 c #c29167",
"X6 c #e78e28",
"X7 c #e68e2b",
"X8 c #e68e2a",
"X9 c #e68e29",
"X0 c #e68e28",
"Xa c #e68e27",
"Xb c #e68d28",
"Xc c #e68e26",
"Xd c #e68e25",
"Xe c #e68d24",
"Xf c #e58e2a",
"Xg c #e58e28",
"Xh c #e58d2b",
"Xi c #e58d26",
"Xj c #e58a23",
"Xk c #e68c22",
"Xl c #e58b22",
"Xm c #e58a22",
"Xn c #e58b21",
"Xp c #e58a20",
"Xq c #e58a1f",
"Xr c #e68920",
"Xs c #e5891c",
"Xt c #e5881f",
"Xu c #e5871b",
"Xv c #e58719",
"Xw c #e5861a",
"Xx c #e18a3d",
"Xy c #df8639",
"Xz c #db863b",
"XA c #d8863a",
"XB c #e48b24",
"XC c #e4881e",
"XD c #d88629",
"XE c #d68645",
"XF c #d18647",
"XG c #ca8951",
"XH c #be8c60",
"XI c #b58962",
"XJ c #e08426",
"XK c #e48417",
"XL c #d88324",
"XM c #d58225",
"XN c #df7f27",
"XP c #d77e2d",
"XQ c #dc761b",
"XR c #d48023",
"XS c #cf7a20",
"XT c #c47d40",
"XU c #c7772e",
"XV c #cb771f",
"XW c #c17e45",
"XY c #bd783e",
"XZ c #b37a49",
"o  c #c57226",
"o. c #ca6c1b",
"oX c #c46c25",
"oo c #bf7130",
"oO c #bf6b20",
"o+ c #a3724a",
"o@ c #c0661d",
"o# c #ba5c11",
"o$ c #b35a16",
"o% c #775945",
"o& c #71503b",
"o* c #813d0d",
"o= c #682a04",
"o- c #551900",
"               %     g C U.%.A.P.P.A.b V F i     @ +            ",
"           $     m N.i.1.s.D.UXXXX.T.D.t.2.j R q     @          ",
"         @   1 L.5.,X6XfX:XBXeXaX$XeXiX;X=Xb.3.= N e   &        ",
"       &   m.0.:XoX-XOXc.A v r.#.I u r.aXmXOX=Xh.3.@ r   %      ",
"     @   s.&.qX&.N.NX.X0.j a X.aX+ 2 X.OXmXOX8X;X1.x.4 u   &    ",
"   .   l.&.uX*.M.N.MX Xw.V g ; V.0 e ;.#XK.VX@X8X@X1.C.4 r   @  ",
" # @ >.0.sX*.N.NXXXcXl W v 5 5 4 5 8 : B.aXCXOX;X@.RX*.w.% b + +",
" @   L.:X&.N.NXXXaXa B X o = X o X X 2 o ; TXC.YX@X@.R.V., Z   $",
"   l.5.TX#X$.N.WXu H   9 < a F M M D 9 4 5 -.9XtXOX8X8X7X .= r  ",
"   S.,.WXXX$.NXa.V j ; < <.oXKXCXCXw.8 3 X   uXqXOX@.R.SX=.3 V  ",
" d.i.GX..N.U.KXk.b 5 : - a.AXj.I.I.HXw H y S.0X#X@X@.R.RX@X8.k k",
" C.1X;.NXoX$.MXe.i a - 4 X C.hXmXuXtX6X#XlXuXqX$X#X$X#.T.NXO.1 F",
" R.6X.X$X$.N.NX.Xr w X 9 , X 0 v H.8.HXrXr.L.VX0X$X9X9X$.NX .s W",
".a.EXgX%XaX$X$X.Xn.b d X < 0 2 o     d A VXfXmX X%X$X$X$.NX@.G.h",
".AXdX%X$XaX$X$X$X.Xp.b w =       6 Q n   o r.bXqX.X$X$X$.N.NX$.B",
".QX$.UX$X>X$.T.N.S.YXjXj.0 G...pX4oX.g < f X g.jXeX#X$X#.NX#X#.N",
".QX$.P.NX$XgX$X#.L.ZX8Xj.vo@o.XQ.  J.p   < 9   LXv.ZX@X#.NX$X$.U",
".HXc.N.NX$XgX0X+XlXu.L.aXVo@XyXN.l.fo$.f c 8 - yXs.ZX#X#.NX#X$.B",
".0.xX:.NX$X$X.Xq.9 A l..X4XzXQXzX<XQXPXG.g 4 - yXsX.X$X$X$X#.G.h",
" S.6X+X$X$X$X Xp.0 o  .g IX<o..X zXPXA EX5 O   LXv.JX$X$X$.W.s W",
" B.3X>X$X$X$X$.ZXw F KXYXFXZoX Y KXEXYXGXY.. h.hXe.K.N.N.NX .1 F",
" b.i.FX@X$X$X$Xg.uXVXWXxXWo%o*.O. XGo%o*.+.mXT.zX..N.N.N.N.U.k i",
"   N.<.W.N.N.PX:.to  I JX4o&o-.e.+X4o%o- Y xXU.GX..P.N.N.Z.3 V  ",
"   k.5.UX..U.Q.C.EoO Y MX3o&o= P zX4o&o=.8 YoOXm.CX$.U.NX@.= q  ",
" @   L.:X1.N.NXcoOXA.$.$X,o+XT G z.do+XY.-.-XzoOXB.C.NX*., T   @",
"   @ *.0.qX2.tXSXF B.dXy.IXyXNX<.cXNXNXyXJ.d BXEXV.7X2.u.# 7 $ +",
"   +   j.&.u.5o..m t.cXPXFo+XIXIXIXIXZoXXQ.f tX3o..B.F.; p   @  ",
"     @   p.&.<XLXY IX,.c EXUXH.n.nXHXW JXyX< JXYXS.6.; u   @    ",
"       &   l.o.:XVooo@XW.po@o#o$o$o#oo..XTo@ooo..:.@ p   &      ",
"         @   < H.=.rXLXRXRXRXMXLXLXMXRXDXMXL.v.* M a   &        ",
"           .     m M.&.>.<.v.y.x.x.y.v.q.>.; R s     @          ",
"               %     g C R.a.B.GXe.C.# U D j     @              "
};
