/* XPM */
static char *image_xpm[] = {
/* width height ncolors chars_per_pixel */
"256 256 256 2",
"   c #ffffff",
" . c #fffeff",
" X c #fffffe",
" o c #fffefe",
" O c #fffffb",
" + c #fffdf6",
" @ c #feffff",
" # c #fefefe",
" $ c #fdffff",
" % c #fcfefe",
" & c #fefdfe",
" * c #fdfdfe",
" = c #fdfdfd",
" - c #fcfdfe",
" ; c #fdfffc",
" : c #fdfdfc",
" > c #fdfef9",
" , c #fdfcfd",
" < c #fdfcfc",
" 1 c #fcfcff",
" 2 c #fcfcfe",
" 3 c #fcfcfd",
" 4 c #fcfcfc",
" 5 c #fdfcf9",
" 6 c #fbfefd",
" 7 c #fbfcfc",
" 8 c #f9fdfd",
" 9 c #fdfbfc",
" 0 c #fcfbfc",
" a c #fbfbfd",
" b c #fbfbfb",
" c c #fbfbfa",
" d c #fbfafb",
" e c #f9fafb",
" f c #fffaef",
" g c #fbfaf5",
" h c #fbf6ee",
" i c #fdf6e4",
" j c #fdf1dc",
" k c #fceed5",
" l c #f7efe0",
" m c #fae8ca",
" n c #f3e7d8",
" p c #f8e1be",
" q c #f7daae",
" r c #efdfcd",
" s c #eed8c0",
" t c #efd1af",
" u c #f7ce95",
" v c #f3c78c",
" w c #f4c07d",
" x c #e6d0bb",
" y c #e5c8b0",
" z c #e5c09e",
" A c #d9bfa7",
" B c #e9b57d",
" C c #f1b366",
" D c #dbb89a",
" E c #dbb28f",
" F c #cbb799",
" G c #c8b294",
" H c #c9b08f",
" I c #c5b093",
" J c #eaab72",
" K c #eba769",
" L c #efa85a",
" M c #eca25d",
" N c #eea150",
" P c #ee9c4e",
" Q c #ec9c50",
" R c #ea9d53",
" S c #ee9c4a",
" T c #f29b3a",
" U c #eb9c46",
" V c #ec9a4b",
" W c #ed9940",
" Y c #ea9642",
" Z c #e9933e",
".  c #f0962c",
".. c #eb922a",
".X c #ea9128",
".o c #e8912a",
".O c #e89128",
".+ c #e3aa79",
".@ c #e5a663",
".# c #e49e61",
".$ c #e49c49",
".% c #e39552",
".& c #e49343",
".* c #e49436",
".= c #e6912d",
".- c #daa881",
".; c #da9d6b",
".: c #d99665",
".> c #dc9350",
"., c #ceab8a",
".< c #c5ac8e",
".1 c #d29970",
".2 c #c09a79",
".3 c #e7902d",
".4 c #e8902a",
".5 c #e7902a",
".6 c #e89029",
".7 c #e79029",
".8 c #ea9026",
".9 c #e89028",
".0 c #e89026",
".a c #e79028",
".b c #e79027",
".c c #e79026",
".d c #e69034",
".e c #e6902b",
".f c #e6902a",
".g c #e69029",
".h c #e69028",
".i c #de9043",
".j c #e78f30",
".k c #e78f2c",
".l c #e68f2c",
".m c #e68e2c",
".n c #e88f2b",
".p c #e78f2b",
".q c #e78e2b",
".r c #e68f2b",
".s c #e68e2b",
".t c #e98f2a",
".u c #e78f2a",
".v c #e78e2a",
".w c #e68f2a",
".x c #e68e2a",
".y c #e98f29",
".z c #e88f29",
".A c #e88e29",
".B c #e78f29",
".C c #e78e29",
".D c #e68f29",
".E c #e68e29",
".F c #e98e28",
".G c #e88f28",
".H c #e88e28",
".I c #e78f28",
".J c #e78e28",
".K c #e68f28",
".L c #e68e28",
".M c #ed8e23",
".N c #eb8e25",
".P c #ea8f26",
".Q c #ea8e27",
".R c #ea8e24",
".S c #e98f26",
".T c #e98e26",
".U c #e98f24",
".V c #e98e25",
".W c #e88f27",
".Y c #e88e27",
".Z c #e88f26",
"X  c #e88e26",
"X. c #e88e25",
"XX c #e78f27",
"Xo c #e78f26",
"XO c #e78e27",
"X+ c #e78e26",
"X@ c #e78e25",
"X# c #e68f27",
"X$ c #e68f26",
"X% c #e68f25",
"X& c #e68e27",
"X* c #e58f2e",
"X= c #e58f2a",
"X- c #e58e2a",
"X; c #e58f29",
"X: c #e58f28",
"X> c #e58e28",
"X, c #e58f27",
"X< c #e58e27",
"X1 c #e58e25",
"X2 c #e38e34",
"X3 c #d88e4f",
"X4 c #e58d2d",
"X5 c #e68d29",
"X6 c #e58d29",
"X7 c #e48d29",
"X8 c #e88d27",
"X9 c #e68d27",
"X0 c #e48d28",
"Xa c #ec8d23",
"Xb c #ea8d24",
"Xc c #e98d26",
"Xd c #e98d24",
"Xe c #e88d26",
"Xf c #e88d24",
"Xg c #e68d25",
"Xh c #e68c2d",
"Xi c #e78c26",
"Xj c #e78c25",
"Xk c #ea8c22",
"Xl c #e58b23",
"Xm c #e58a2b",
"Xn c #e48630",
"Xp c #e78a20",
"Xq c #e6871e",
"Xr c #e08a3f",
"Xs c #e08a30",
"Xt c #e18b27",
"Xu c #e18926",
"Xv c #e08825",
"Xw c #df8536",
"Xx c #e1842e",
"Xy c #df8130",
"Xz c #e08427",
"XA c #df812a",
"XB c #db8947",
"XC c #dc882f",
"XD c #db8238",
"XE c #dc802c",
"XF c #d88a4d",
"XG c #d8873f",
"XH c #d88139",
"XI c #d58646",
"XJ c #bf8556",
"XK c #dc7e2d",
"XL c #dc7b2b",
"XM c #dc7c27",
"XN c #d87c33",
"XP c #d87b2b",
"XQ c #da7829",
"XR c #da7824",
"XS c #d87827",
"XT c #d77827",
"XU c #d87624",
"XV c #d37b33",
"XW c #d4772b",
"XY c #d57424",
"XZ c #cf732b",
"o  c #cd6e26",
"o. c #c0702c",
"oX c #bc6623",
"oo c #9c714e",
"oO c #a4642b",
"o+ c #ab581c",
"o@ c #955323",
"o# c #954a16",
"o$ c #8b400e",
"o% c #7a4b2d",
"o& c #7c3d13",
"o* c #7b380c",
"o= c #783206",
"o- c #6a300c",
"o; c #6e2b02",
"o: c #622b0a",
"o> c #662602",
"o, c #5e2404",
"o< c #56250b",
"o1 c #512107",
"o2 c #4f1e05",
"o3 c #4e1600",
"                                                                                                                                                                                                     X X o               X + f j m q v C L W W.*.3.o.X.9.9.9.9.9.9.9.9.9.9.W.O.X...* W U L w u q p j i f O               o X X X o                                                                                                                                                                                              ",
"                                                                                                                                                                                               o             X + j m q u v w C L U.*X2X*X7X>.L.KXXX+X+.W.b.b.b.b.b.b.O.b.b.W.b.b.9.t.r.lX*X2.*.&.$ L C w v u p m j f O             X o                                                                                                                                                                                          ",
"                                                                                                                                                                                       X o           + i k p u w C N T.eXlXlXlXpXk.V.P.N.S.P.9.9.9.G.a.9.b.b.O.O.O.O.o.o.o.9.O.O.O.9.O.9.9.t.X.T.UX+XlXlXg.= W L C w u p k i + X         o o                                                                                                                                                                                    ",
"                                                                                                                                                                             X X X o         O i m t u w L.*XvXpXpXpXk.M.M.M.M.M.N.N.N.N.Y.W.G.G.G.7.7.a.a.7.7.a.b.O.o.o.7.o.7.o.7.7.7.7.o.O.8.8.8.P.8.8.8.N.UXkXpXlX7.* L w u q m i +         o X   X                                                                                                                                                                          ",
"                                                                                                                                                                           o           O f m u w N.*X0X1XlX&X&.9.W.W.W.ZX .Y.GX+.WXX.GXX.b.a.7.7.7.7.o.7.a.7.o.7.7.7.o.7.o.7.7.7.7.7.7.7.o.7.6.7.7.G.b.a.a.9.6.6.o.o.aX#X1X<X0.* N w u p j +           o                                                                                                                                                                        ",
"                                                                                                                                                                     X #       X f m t w C.$XCXtX1X<.D.I.G.z.a.b.6X#.b.bX#.a.7XX.I.7.B.7.7.7.7.7.7.7.7.7.a.7.7.7.7.7.7.7.7.7.7.7.7.7.7.7.7.7.B.g.7.7.7.7.7.7.7.o.o.o.o.3.o.7.a.hX@X0Xs.& C w u m f X       #                                                                                                                                                                    ",
"                                                                                                                                                                           + m q w N.*XtXlX@X..W.IXX.7.7.D.KXXX+.W.K.7.B.aX#.7.G.G.z.z.I.7.7.7.7.7.7.7.7.7.7.7.7.7.7.7.7.7.7.6.7.7.7.7.7.7.7.7.a.a.a.7.7.g.a.7.a.7.7.7.7.7.7.7.7.9.9.5.EX9Xl.j L w q k +         #                                                                                                                                                              ",
"                                                                                                                                                             X       > k t w NXtXpXpXk.M.R.8.U.WX .a.K.7.K.I.K.I.K.7.7.I.K.B.D.B.z.z.7.a.h.7.7.7.7.7.7.7.7.7.7.7.7.7.7.7.7.7.g.g.7.7.7.7.7.7.7.7.7.7.7.7.g.7.7.7.7.7.7.4.7.7.7.5.6.9.6.X.8.8.MXkXlX7 N w q k O       o                                                                                                                                                          ",
"                                                                                                                                                                 + m u LX*XtX1X#.a.9.bXo.I.I.h.W.9.7.7.7.7.K.K.K.7.K.K.I.7.K.7.J.z.H.7.D.5.7.7.7.7.7.7.7.7.7.7.7.7.7.7.7.7.g.g.7.7.7.7.7.7.7.7.5.5.5.7.7.g.5.5.5.7.5.4.5.p.7.7.7.a.7.e.5.6.6.9.o.9XXXlX0.* C u p f         o                                                                                                                                                    ",
"                                                                                                                                                   X       O j t w.$XtXlX#.o.o.a.b.7.g.u.7.I.I.I.I.I.7.K.K.K.K.K.K.K.K.I.I.I.I.C.C.C.B.D.w.B.h.7.7.7.7.7.7.7.7.7.K.7.7.7.g.7.7.7.K.7.K.g.w.w.w.p.p.p.u.u.5.p.p.p.r.p.p.p.p.u.5.u.w.r.I.h.g.g.7.7.4.o.o.o.aX<Xt Y w t j X                                                                                                                                                        ",
"                                                                                                                                             X o       O k u C.*XuXg.h.7.7.a.7.a.7.7.7.u.7.7.7.B.B.I.K.K.K.K.K.K.K.K.K.K.J.J.H.v.n.n.B.a.a.7.7.7.7.K.K.7.7.7.7.7.7.7.7.7.7.7.7.7.7.7.7.B.p.p.p.p.p.p.p.p.p.p.p.p.e.p.p.p.p.x.p.r.q.u.7.7.7.7.7.7.7.7.5.4.9.X.nX5Xi.j C u k +                                                                                                                                                    ",
"                                                                                                                                           X       + p v NXvXp.U.M.M.0.b.a.7.7.7.7.7.B.x.K.D.K.x.x.K.K.K.K.K.K.K.K.K.K.K.J.J.J.v.v.n.D.K.K.K.7.7.7.7.K.K.K.7.K.K.K.K.K.K.K.7.K.7.K.7.7.B.s.p.p.p.p.p.p.p.p.p.p.p.r.p.p.p.x.p.x.w.p.x.p.w.p.D.7.7.7.7.7.7.z.F.X.X.M.MXpX< N v p +       o                                                                                                                                        ",
"                                                                                                                                       o       + m u UXlXlX+.c.8.9XX.bX$.a.D.K.7.K.7.K.D.u.u.w.E.E.K.D.E.E.D.K.K.K.K.D.D.v.v.v.C.u.v.B.K.I.K.7.7.7.K.7.7.7.7.7.K.K.K.B.7.7.K.K.K.7.7.K.D.w.w.p.p.p.p.p.p.p.p.p.p.e.w.r.w.x.x.w.w.w.p.p.p.p.p.p.p.p.p.p.u.7.7.7.6.8.P.FX$XlXt U v p +       #                                                                                                                                    ",
"                                                                                                                                           f p v.$XtX&.X.9.9.9XX.b.b.b.a.7.K.K.K.K.E.E.E.w.K.K.K.K.K.K.K.K.KX<.K.K.vX5.v.v.v.v.J.J.J.J.J.J.I.K.K.K.K.K.K.K.K.K.K.K.K.v.D.K.K.K.7.K.7.K.K.K.h.B.x.x.p.p.x.p.x.x.x.w.wX=.w.x.x.x.x.x.x.p.p.p.p.p.v.p.p.p.e.5.7.7.7.5.7.o.o.6.XX9X7.& w p +       #                                                                                                                                ",
"                                                                                                                                 o     > p v UXuXi.GXXXXX$.h.a.a.a.7.7.7.K.K.K.K.D.x.x.p.x.K.K.K.K.K.K.K.K.K.K.K.D.v.v.E.v.v.v.J.J.J.J.J.z.B.K.K.7.K.K.K.K.K.K.K.K.K.w.K.K.K.K.7.7.7.7.7.7.7.B.x.s.x.p.p.p.w.p.w.x.p.x.x.x.x.x.x.x.p.p.x.p.w.w.e.w.p.q.e.p.B.7.7.7.7.7.7.6.n.y.tXiXu S v m +                                                                                                                                    ",
"                                                                                                                             X     + m v UXl.R.8.U.8.a.bX$.a.7.K.7.K.K.K.B.u.x.x.x.D.D.D.w.K.K.K.K.K.K.K.K.K.K.K.L.v.v.v.C.v.v.J.J.J.J.J.J.K.K.K.K.K.K.K.K.K.K.K.K.K.E.K.K.K.K.7.K.7.K.K.K.K.K.u.x.x.x.q.s.u.D.D.u.x.p.x.x.x.x.x.x.x.p.w.w.e.eX=.p.p.p.r.w.p.7.5.7.7.B.7.z.a.6.9.N.MXkXl U v m +     o X                                                                                                                        ",
"                                                                                                                         o       j u SXuXg.B.b.b.b.b.b.a.7.g.7.K.I.K.u.x.x.x.s.x.x.x.x.x.x.K.K.K.K.K.K.K.J.J.JXO.JX5.C.C.J.J.J.J.J.J.B.K.K.K.7.K.B.K.K.K.K.K.K.K.K.K.7.K.K.K.K.K.7.7.7.K.K.K.D.K.K.K.u.E.u.D.u.E.x.s.x.x.x.p.x.x.x.p.rX=.r.p.p.p.p.p.p.w.e.B.7.u.5.D.p.5.7.7.7.7.G.F.S.AXlXt N u k                                                                                                                              ",
"                                                                                                                       o     i t CXCX+.o.o.o.7.7.7.b.a.7.7.K.K.K.K.K.B.x.x.x.p.x.x.x.xX-.x.K.K.K.K.K.K.K.J.J.J.J.J.J.J.J.J.J.J.J.J.J.K.K.K.K.K.K.K.K.K.K.K.K.K.K.K.K.K.K.K.K.K.K.7.7.K.K.K.K.K.K.K.K.K.K.K.K.K.K.D.D.D.w.x.x.p.p.p.x.p.p.p.p.p.p.p.x.x.wX=.g.K.D.p.p.p.B.7.p.7.7.7.7.4.5.5.yXlXt L u i     o                                                                                                                    ",
"                                                                                                                   X     + p w.*Xu.v.7.7.b.a.a.a.a.a.7.7.g.gX:.K.B.K.D.s.x.x.x.x.x.x.x.x.x.K.K.K.K.K.K.K.J.J.JX9.JX9.J.J.J.J.J.J.J.J.B.K.I.I.7.K.K.K.K.K.K.K.K.K.K.KX#X#.bX#.7.K.7.K.7.K.7.K.7.K.7.7.7.K.7.K.7.K.7.K.h.K.D.D.D.x.p.pX=.w.e.x.p.p.x.x.p.wX=.K.5.p.p.p.x.D.7.p.w.7.a.a.I.B.a.9.tX5XqX* w p +     o                                                                                                                ",
"                                                                                                                 X   X k v.*X1.N.M.N.G.c.a.7.7.7.7.7.7.7.7.K.K.7.h.D.x.x.x.x.x.D.L.xX>.LX<.K.KX<.K.L.J.J.J.L.L.JX9X9X9.J.J.L.K.J.J.J.J.J.J.J.J.J.J.J.J.J.J.J.J.K.K.KX#.K.K.K.K.K.K.K.K.K.K.K.K.K.K.7.K.K.K.K.K.K.K.K.K.D.x.x.x.x.x.x.w.wX=X=X=.x.w.w.x.x.x.x.p.p.p.u.xX=.w.w.w.K.w.p.p.u.a.I.9.o.8.MXp W u k     o o                                                                                                            ",
"                                                                                                             o     + q CXtXl.6.S.U.Z.a.b.7.7.7.7.7.K.7.7.7.K.K.K.a.D.p.x.x.x.x.K.K.E.KX<.KX<.K.K.K.L.J.J.JX&.LX9.JX9.J.J.J.L.K.J.J.J.J.J.J.J.J.J.J.J.J.J.J.J.J.K.K.K.K.K.K.K.K.K.K.K.D.K.K.7.7.K.g.K.7.K.7.K.K.K.K.K.K.D.s.x.x.x.x.x.q.r.eX=.w.q.w.x.x.x.x.x.x.x.x.w.w.r.w.p.u.7.p.p.p.D.K.B.K.h.G.P.8XlXt C q +                                                                                                                ",
"                                                                                                           X     k v.&X0.X.X.9.I.c.bXX.b.7.7.7.7.K.7.7.K.K.D.K.K.K.D.x.x.x.x.x.D.KX<X<X<X<.KX<.K.K.K.J.JX8.LX&X9X9X9.JXOX8XO.K.J.J.J.J.J.J.J.J.J.J.J.J.J.J.J.L.K.K.K.K.K.K.K.K.K.K.K.K.K.K.K.I.a.K.7.K.7.K.K.K.K.K.K.K.D.x.x.x.x.x.x.p.wX=X=.w.x.w.x.x.x.x.x.x.x.x.wX=.x.w.p.u.h.x.x.x.B.7.p.w.I.7.t.6.o.9Xl.* v j X   o                                                                                                        ",
"                                                                                                             + q LXvX0.G.9XX.b.g.7.7.a.7.7.7.7.K.7.g.g.K.K.K.7.a.D.x.p.x.x.w.x.L.K.KX<X<X<X<X<.K.K.L.JX9.JX9X9X9.E.J.J.E.LX8.K.L.L.K.JXO.J.J.B.K.K.J.YXOX+X+XO.K.K.K.I.J.B.J.J.K.B.L.u.D.g.D.g.B.B.B.g.K.D.K.K.KX:.KX#.D.D.K.u.x.p.x.x.x.xX;X;X;.w.x.p.x.x.x.x.x.x.x.x.x.x.x.x.E.x.x.x.u.x.x.p.u.u.w.7.7XX.tX0Xt C q +     X                                                                                                    ",
"                                                                                                     X   X j u.*Xk.M.8.O.b.b.h.7.K.7.7.7.7.7.7.7.7.7.7.7.K.K.D.D.p.x.x.x.x.x.x.D.K.K.K.KX<X<.K.K.K.L.J.JX9XiX8.L.H.T.F.z.I.G.9.9.6.6.6.6.6.6.6.6.F.IX&XeX+X+X+.K.K.K.J.J.JX8.E.D.F.6.u.5.6.6.4.o.o.o.n.4.4.4.4.e.9.5.D.C.K.D.x.x.p.p.x.x.v.x.w.u.x.x.x.x.x.x.x.p.xX6.x.x.x.x.p.x.x.x.x.r.x.x.x.x.p.u.D.w.9.N.N.XXl.* u i     X                                                                                                  ",
"                                                                                                       + p CXtXl.M.R.WXX.b.a.7.K.7.7.7.7.7.7.7.7.7.7.7.K.u.s.p.p.p.D.K.K.K.D.x.K.K.K.KX<.KX<.K.K.K.L.JX9X8.LXjXlXuXvXvXvXvXvXvXvXvXvXvXvXvXzXvXvXvXlXkXgX+X+X+X#.K.K.J.J.J.EX+XlXvXvXvXvXzXvXvXvXvXvXvXvXvXzXzXvXzXuX..Z.7.K.x.x.x.x.x.x.x.p.x.x.x.x.x.x.x.x.x.s.x.x.x.x.x.x.x.x.x.x.xX=X=.x.x.u.x.D.x.x.I.TX8.Y.FXuXs w m O   o X                                                                                              ",
"                                                                                               o     f u.$Xv.O.9.GXXX#X$.b.7.7.K.7.7.7.7.7.7.7.7.7.7.7.7.u.x.u.p.x.E.E.E.D.D.x.E.E.K.K.L.LX<.K.L.I.J.J.JX9.BXl.* v z u u v v v v v v v v v v v v u CXbXg.JXOXO.K.K.K.L.J.J.KXl.$ v v v v v v v v v v v v v v v v z J.V.R.B.K.D.w.x.x.x.x.x.x.x.x.xX6.x.x.x.x.u.D.D.w.w.q.w.w.w.wX-.x.x.x.w.x.p.s.x.x.s.u.h.K.5.g.B.6.GXu.$ q + @   X                                                                                            ",
"                                                                                             #     k wXsXl.J.WX+.WXX.7.7.7.7.7.7.7.7.7.7.7.7.7.7.7.7.D.7.u.x.p.p.w.x.E.D.w.x.x.x.x.K.K.L.EX&.K.J.J.J.C.C.J.BXp U j                       X         p.=Xj.u.J.K.K.7.K.J.J.J.HXu B + X X   X @ X X                   q.=.R.7.g.7.D.x.x.x.x.x.x.p.x.x.x.x.x.x.x.u.u.E.wX=.xX=X=X=X=.xX6.x.x.x.x.s.s.x.s.s.u.D.x.u.u.x.D.JX5XvX2 u j     X                                                                                          ",
"                                                                                           X   O q LXtXb.M.Q.C.H.H.I.D.7.7.7.7.7.7.7.7.7.7.7.7.7.7.p.p.x.p.x.p.x.x.p.w.K.E.x.x.x.x.K.KX&X5.J.J.J.J.J.C.CXO.5Xp U k 6 e a d e d d d d d 0 d d b e 8 p.rXj.B.J.K.J.J.J.J.J.C.CXu B f 0 d e a a e b b b b e e b a b 6 t.l.R.7.7.K.D.x.x.x.p.x.x.x.x.x.x.x.x.x.x.x.x.x.x.x.x.x.x.x.x.x.xX6.x.xX5.m.s.x.x.x.x.s.x.x.x.r.v.J.J.NXaXj C m O   X                                                                                        ",
"                                                                                         X   f q.&Xv.ZX..UXX.z.B.6.I.7.K.7.7.7.7.7.7.7.7.7.K.7.7.7.B.u.D.p.x.x.x.p.x.x.x.u.E.x.x.x.E.D.L.LX9.J.J.J.J.C.C.C.uXq U k % a 7 7 7 3 a 3 a 3 3 0 4 3 a 6 p.sXf.4.J.I.J.J.J.CX5.C.AXu B + = 0 4 3 7 4 7 3 a 4 a 4 0 3 0 $ t.k.R.7.7.a.D.x.p.x.x.p.x.p.x.x.x.x.x.x.x.x.x.x.x.x.v.x.x.x.x.x.x.x.x.xX-.sX-.x.x.x.x.x.x.x.x.x.q.v.J.Y.QXaXv N q +   o                                                                                      ",
"                                                                                           f u.*X9.y.A.W.W.W.7.7.h.K.7.7.7.7.7.7.7.7.7.7.K.7.K.7.K.D.u.E.B.D.5.D.D.D.D.B.D.w.x.x.xX6.xX-.K.J.K.L.J.J.C.v.v.pXl U k % a 2 2 2 a 2 a a 2 2 a 3 7 a % q.EXf.z.J.J.J.J.C.J.J.J.CXv B f = 4 3 2 2 2 2 a 2 a 2 a 2 a 0 $ t.v.U.7.7.I.u.x.x.x.x.x.x.x.x.p.x.x.x.x.x.x.x.x.x.xX6.x.xX6.x.x.x.x.x.xX=X>.x.x.x.x.x.x.x.p.x.x.x.x.C.z.B.t.3X9 Z u +                                                                                        ",
"                                                                                   X     j vXsXl.8.b.a.I.7.7.7.7.7.7.7.K.7.7.o.7.7.7.7.K.7.7.K.K.7.x.u.x.D.K.K.h.K.K.K.K.h.K.x.xX6.xX6.x.LX8.K.C.v.C.v.v.v.nXl U k % 7 2 2 a 2 a 2 a 2 2 2 3 3 a $ q.EXj.z.I.J.J.J.C.v.v.v.CXu B f , 4 3 2 2 2 a 2 a 2 a 2 2 2 3 $ t.v.R.7.K.B.D.s.x.x.x.x.x.x.x.x.x.x.x.x.x.x.x.x.x.xX6.x.x.x.x.x.x.xX5.xX=.w.x.x.x.x.x.x.x.x.p.x.x.x.x.v.C.C.I.nXuX2 u i                                                                                      ",
"                                                                                       k wXt.8.X.8.G.G.7.7.7.7.7.7.7.7.7.7.7.7.7.7.7.7.7.K.K.7.7.K.D.B.D.7.K.K.K.7.K.K.K.K.D.x.x.x.x.x.x.D.C.D.C.v.v.v.C.v.nXq Y k % 0 2 a 2 2 2 a 2 a 2 a 3 0 a $ q.CXd.z.I.J.J.J.C.v.v.v.CXu B f = 4 3 2 3 3 2 a 2 2 2 a 2 3 4 $ t.x.M.I.K.K.D.x.x.x.x.x.x.x.x.x.x.x.x.xX6.x.x.x.x.x.x.x.x.x.x.x.x.x.x.xX=X7X>X>.x.x.x.s.x.x.x.x.x.p.s.x.x.p.z.A.Q.MX& w j     o                                                                              ",
"                                                                               X     m CXvXO.X.9.SXX.7.7.7.7.7.7.7.7.7.7.7.7.o.7.7.7.7.7.K.K.K.K.7.E.D.w.K.K.7.K.K.K.K.K.K.x.x.x.xX-.x.x.x.x.vX5.v.v.C.J.J.tXq Y k % 0 a a a 2 a 2 a 4 b 4 3 2 a $ q.AXf.B.J.J.J.J.J.v.x.v.xXu.+ f = 4 4 4 4 4 a a a a a 2 4 4 4 @ t.l.M.G.B.D.x.x.x.x.x.x.x.x.x.x.x.x.x.x.x.xX6.x.x.x.x.xX6.x.x.w.xX-X=X=X=X=X=X=.x.x.x.m.x.x.x.x.x.x.x.x.x.p.u.z.Q.MX@Xt C k     o                                                                            ",
"                                                                                 X m LXt.X.8.b.a.W.7.7.7.7.7.7.7.7.7.7.7.g.g.g.7.7.7.7.7.7.7.7.7.K.K.h.K.7.D.7.7.K.K.K.K.g.w.D.B.D.D.D.D.x.x.x.vX5.v.C.v.C.nXl Y k % 0 3 a 3 4 a 4 4 a 4 4 3 2 a $ q.JXl.B.J.J.z.J.J.v.v.v.xXu B f = 4 3 3 3 3 2 2 2 2 2 2 3 4 4 @ t.l.M.I.I.K.x.x.x.x.x.x.x.x.x.x.x.x.x.x.x.x.x.x.x.x.x.x.x.p.xX=X=X=X=X=X=X=X=X=.x.x.x.s.x.p.x.p.x.x.p.x.p.p.p.5.5.3.n.XXt C k X   X                                                                          ",
"                                                                               X p LXu.F.8.b.b.W.6.7.7.7.7.7.7.7.7.7.5.7.5.g.g.7.7.7.7.7.7.7.7.B.7.7.7.K.7.7.7.7.K.K.7.K.D.w.D.D.K.K.K.K.w.x.x.v.v.v.v.v.n.pXl Y k % 0 3 4 b 4 4 4 4 4 4 4 3 2 a $ qXOXj.4.J.J.J.z.J.v.v.v.xXu B f = 4 3 2 2 2 2 2 2 2 2 2 4 4 4 @ t.r.M.6.I.K.x.x.x.x.x.x.x.x.x.x.x.x.x.x.x.x.x.x.x.x.x.x.x.x.xX=X=.rX=.e.eX=X=X=.x.x.x.m.x.r.x.p.x.p.r.p.p.p.p.5.e.u.7.7X5Xv L m @   X                                                                        ",
"                                                                         X   > p.$Xl.X.PX..b.7.7.7.7.7.7.7.7.7.7.7.7.7.6.5.5.g.7.7.7.7.7.7.7.u.u.u.7.7.7.7.7.7.K.7.K.D.x.u.x.E.E.w.K.K.K.K.K.K.x.x.x.x.x.s.eXl.$ k % 0 2 a 4 b 4 4 4 4 4 4 4 4 0 $ q.YXj.B.H.J.J.J.J.v.v.v.sXu B f = 4 2 2 2 2 3 3 3 4 4 4 4 4 < @ t.w.M.5.g.I.D.x.x.x.x.x.x.x.x.x.x.x.x.x.x.x.x.x.x.x.x.x.x.xX=X=X=.eX=.eX=X=X=X=X=X=.x.x.v.w.p.p.p.p.p.p.q.p.p.p.p.p.u.u.N.MXl L m O   X                                                                      ",
"                                                                           O p.$Xl.V.0.c.b.b.7.7.7.7.7.7.7.7.6.5.5.7.o.5.5.g.5.7.7.7.7.7.7.7.7.7.7.7.o.7.7.7.7.7.7.K.D.x.x.u.K.K.K.K.K.K.K.K.K.x.x.x.x.x.s.eXl.$ k % 0 2 4 4 4 4 4 4 4 4 4 4 4 0 $ qX8Xj.B.J.z.I.I.J.v.x.v.sXl B f * = 2 2 2 * 4 4 4 4 4 < 4 4 < @ t.u.M.5.7.7.D.s.p.x.x.pX-.w.w.r.x.x.x.x.x.x.x.x.x.x.x.xX5.xX=X=X=X=X=X=X=X=X=X=X=X=.w.x.r.r.r.r.r.r.r.r.r.p.p.p.p.p.x.B.Q.MXcXv N p X                                                                        ",
"                                                                     X   O p.$Xt.X.Z.W.9.b.a.7.7.7.7.7.7.7.7.5.5.5.5.g.5.g.g.g.5.7.7.7.7.7.K.7.7.7.g.g.g.7.7.7.7.7.a.D.p.x.u.K.D.K.K.K.K.K.K.K.E.x.x.x.x.x.eXv.$ k % 0 2 4 4 4 7 7 7 7 4 4 4 4 0 $ qXeXj.B.J.J.K.K.K.x.x.x.sXu J f * 4 3 2 2 2 3 4 4 7 7 : : % : @ t.v.M.5.h.K.D.p.x.p.x.xX=X=X=X-.x.x.x.x.x.x.x.x.x.x.x.x.wX=X=X=X=X=X=X=X=X=X=.eX=X=.r.rX=.wX=X=.e.eX=X=X=.w.p.p.p.p.p.7.G.z.p.5Xt L p @   X                                                                  ",
"                                                                   X   O q.$Xv.W.c.b.b.b.a.7.7.7.7.7.7.7.7.7.5.f.5.7.o.7.o.7.7.7.7.7.7.7.7.7.7.I.7.K.g.7.7.I.7.K.K.K.K.D.K.7.7.K.K.K.K.K.K.K.K.C.v.v.v.v.v.nXl.$ k $ 0 4 4 4 4 4 4 7 4 4 4 4 3 0 $ qXfXl.I.I.IXO.I.K.x.x.x.xXu J f = = 3 2 2 2 4 4 4 4 4 4 2 = 4 @ t.u.M.4.z.7.x.p.xX=.xX=X=.x.x.x.x.x.x.x.x.x.x.x.x.x.x.xX=.eX=X=X=X=X=X=X=X=X=X=X=X=X=.r.w.p.p.e.e.e.eX=X=X=.e.p.p.p.p.u.7.5.5.G.FXv L m @   X                                                                ",
"                                                                     O q.$Xg.X.8.c.b.b.a.7.7.7.7.7.7.7.7.7.o.5.5.g.o.o.o.o.o.7.7.7.7.7.7.7.7.7.7.7.K.7.K.7.7.K.7.B.K.K.K.7.a.K.K.K.K.K.K.K.K.K.v.v.v.v.v.v.nXl.$ k $ 0 4 b 4 4 4 4 4 4 3 3 4 3 0 $ qXeXf.I.I.K.J.K.K.x.x.x.xXu J f & 4 3 4 4 4 = 4 = 4 4 4 * = < @ t.u.M.z.z.D.x.x.x.r.xX=X=.x.x.x.x.x.x.x.x.x.x.x.x.w.x.rX=X=X=X=X=X=X=X=X=X=X=X=X=X=.e.w.x.p.p.e.e.e.e.e.e.e.r.p.p.p.p.q.p.p.p.zXa.MXl L m     o                                                              ",
"                                                                   X p.$Xv.P.UX..G.I.7.7.7.7.7.7.7.7.7.7.o.7.5.g.5.7.o.7.o.7.7.7.7.7.7.7.7.7.7.7.7.7.7.7.7.7.7.K.7.7.7.K.7.7.K.K.K.K.K.K.K.K.K.C.v.v.v.v.p.3Xl U k $ < 4 4 4 4 4 4 4 3 2 1 3 * 3 $ p.LXf.G.D.7.J.J.D.v.x.v.qXu B f * = 3 4 4 = = 4 4 4 4 = 2 = < @ t.n.M.t.G.7.x.x.p.w.qX=X=.x.x.x.x.x.x.x.x.x.x.x.xX=X=.eX;.gX;X=X=X=X=X=X=X=X=X=X=X=.e.w.v.p.v.e.e.eX=.eX=.r.p.p.p.p.p.p.p.p.p.7.N.MXdXv L m                                                                  ",
"                                                                   m LXg.X.9.9.7.6.7.7.7.D.h.7.7.7.7.7.o.7.o.7.5.5.7.7.7.7.g.g.g.7.7.7.7.7.5.7.7.7.7.7.7.7.7.7.7.K.B.E.K.D.K.K.7.K.K.K.K.K.K.K.v.v.v.v.v.v.3Xl U k $ 4 4 4 4 4 : 7 : 2 2 2 * 2 0 $ p.xXlXX.I.B.J.J.C.v.v.x.qXu B f * = 3 4 4 = 4 = = 4 = 4 * = < @ t.A.M.I.a.B.D.D.p.w.x.wX=.w.x.x.x.x.x.x.x.E.K.B.D.w.D.DX=X=X=.w.r.xX=X=X=X=.x.x.wX=.eX=.r.w.r.e.e.e.eX=.e.w.p.p.x.p.x.p.p.p.p.5.7.6.6.XXt C j   o                                                            ",
"                                                             #   m CXt.9.9X#.b.7.7.7.7.7.7.7.7.7.7.7.7.7.7.7.o.7.7.g.7.7.7.7.7.7.7.7.7.I.7.g.7.7.7.7.7.7.7.a.7.7.K.D.E.K.K.K.K.K.K.K.K.K.K.K.J.C.v.v.v.v.v.eXl U k % 4 4 4 4 4 4 4 4 3 2 2 2 2 0 $ p.rXl.W.G.I.J.vX5.v.v.x.mXt B f * = 3 = 4 = 4 = 4 4 4 4 2 * <   t.A.M.G.K.I.K.u.p.p.q.w.w.w.v.x.x.x.x.x.x.x.x.E.E.s.D.K.wX=X=.x.x.x.wX=X=.w.p.x.xX=X=.e.eX=X=.w.eX=X=.r.p.p.p.p.x.p.p.p.p.p.p.p.7.7.6.9.vXu w j   X                                                          ",
"                                                           X   j CX1.o.P.Z.aXX.a.7.7.7.7.K.7.7.7.7.7.7.7.7.7.7.7.7.7.5.B.B.7.7.7.K.7.7.7.7.g.7.7.7.7.7.7.B.D.D.K.K.D.x.L.D.D.K.K.K.K.K.K.D.C.C.C.v.v.v.v.v.eXl U k % 4 4 4 4 4 4 4 4 4 4 4 3 2 4 $ pX=XlXOXO.D.J.v.v.x.x.x.mXm B f = 4 3 4 4 4 = 4 4 4 4 4 2 2 4 @ t.y.M.G.h.J.x.x.x.p.r.x.s.q.s.s.x.x.x.x.x.x.x.x.x.x.x.xX=X=X=.x.x.x.x.x.x.x.x.x.wX=X=.e.e.eX=X=X=X=X=.w.x.p.x.x.x.x.p.p.p.p.p.p.u.7.4.5.Q.PXm v f   X                                                        ",
"                                                         o   i vXv.8.8.Z.W.I.a.D.K.7.7.7.7.7.7.7.7.7.7.7.7.7.7.7.7.u.p.p.D.a.7.7.K.7.K.7.7.7.7.7.7.7.I.K.x.x.x.w.E.E.x.w.E.x.D.D.D.L.J.J.x.v.x.v.v.v.v.v.n.eXu Y k $ 4 4 3 3 3 4 4 4 4 3 3 4 4 0 $ pX=Xp.TXeXXXO.J.J.A.v.v.qXm B f 3 4 4 = 4 = 4 = 4 3 3 3 2 * < @ t.A.M.9.I.B.E.x.u.x.r.w.m.m.m.m.s.s.s.s.x.x.x.p.wX-X-X-X=X=.x.x.x.x.x.x.x.x.x.x.r.e.e.e.eX=X=.w.x.r.x.x.x.x.p.p.x.p.p.e.p.p.p.p.p.p.r.f.Q.MXiX4 u f   X                                                      ",
"                                                       X   + uX2.z.W.G.W.I.7.D.K.K.7.7.7.7.7.7.7.7.7.K.7.7.7.7.7.K.u.p.p.5.h.K.7.K.K.7.7.7.7.7.K.K.7.K.K.w.x.u.x.x.x.x.K.K.x.x.x.E.J.J.J.C.x.v.vX5.v.x.v.v.pXu U k % c 4 2 2 2 4 4 4 3 2 2 3 4 4 $ pXvXqXqXqXqXqXqXqXqXqXqXqXq.@ g - 4 4 4 4 4 4 4 4 2 * 2 2 4 < @ t.A.M.I.J.L.D.x.x.x.x.x.m.m.m.m.m.m.m.x.x.x.x.xX=X=X=X=X=.w.x.x.x.x.x.x.x.x.x.x.xX=X=.e.eX=X=.x.v.x.x.p.x.p.p.p.p.p.e.e.p.p.p.p.p.p.p.u.t.u.t.v.* u ;   o                                                    ",
"                                                     X   + u.*X6.X.B.7.z.6.g.7.D.q.B.7.7.7.7.o.7.o.7.7.7.7.7.a.K.7.u.p.p.B.a.7.K.K.7.7.7.7.7.7.K.K.I.K.I.x.x.x.D.K.K.K.E.w.D.x.x.x.v.v.C.vX5.vX5.vX5.v.v.A.kXu U k % 0 4 2 2 2 4 4 b 2 a 2 3 4 4 @ m L L C C C C C C C C C L R B + 3 4 4 4 4 = 4 4 4 2 2 2 2 4 < @ tX8.M.a.J.K.D.x.x.x.x.x.m.m.m.m.m.m.mX-.x.x.x.xX=.w.wX=X=.w.q.x.x.x.x.x.x.x.x.v.w.e.e.e.e.e.r.r.x.p.x.x.x.p.p.p.p.p.p.e.e.e.e.p.p.p.n.n.e.z.z.oXt Y p     X                                                  ",
"                                                   X   O q.&X0.F.T.7.a.6.7.7.I.D.u.D.7.7.7.7.7.7.7.7.7.7.7.u.5.7.7.u.p.p.5.7.7.7.7.7.7.7.7.K.K.K.K.J.J.J.u.E.u.D.K.E.K.E.x.E.x.x.x.v.v.v.C.x.v.s.x.v.x.r.k.3Xl Y k $ c 4 2 2 2 4 4 4 3 3 3 3 4 4 - g i f f + g + + g g f f h i h 4 4 4 4 4 4 = = 3 3 2 2 2 2 4 < @ tXOXaXX.I.KX>.E.v.s.x.x.k.m.m.m.m.s.m.x.x.x.x.x.w.x.x.xX=X-.x.x.x.x.x.x.x.x.w.w.wX=X=.r.x.x.x.x.x.x.x.p.x.p.p.p.p.p.p.e.e.e.r.r.l.l.n.n.6.n.n.y.tX0 L m   o X                                                ",
"                                                 X o   p.$X0.t.Q.P.7.7.7.7.7.z.K.7.7.7.7.7.7.7.7.7.7.7.7.u.s.p.w.a.p.p.p.5.7.7.7.7.7.7.K.K.K.K.K.K.K.K.K.K.K.K.K.D.x.E.K.x.x.x.x.v.x.v.C.CX5.JX8.E.C.kXhX0X7XC.@ j - 4 4 3 a 3 4 4 4 4 4 4 4 4 4 4 3 - 2 1 1 1 a a a 7 7 7 7 - 7 4 4 4 4 4 4 = 2 2 2 2 2 2 4 : 4 @ tX8.M.IXX.YX&.KX-.s.x.x.s.s.s.m.m.E.s.x.x.xX-.xX=.xX6.x.x.x.x.x.x.x.x.w.wX=X=X=.e.e.e.e.p.x.x.p.x.p.x.x.x.p.p.p.p.p.p.p.p.p.p.l.3.l.p.p.p.n.p.6.F..Xt C j   X                                                ",
"                                                 X   j wXu.y.G.S.Y.b.g.7.D.K.B.7.7.7.7.7.7.7.7.7.7.7.7.7.u.p.p.5.7.p.p.p.5.7.7.7.7.7.7.K.K.K.K.K.K.K.K.K.7.K.7.K.K.D.D.K.xX-.x.x.x.x.C.v.v.CXb.MXdXpXvXC R B q k 5 3 7 4 4 4 4 4 4 4 4 4 4 4 4 4 4 4 c 4 0 3 0 b b b b 0 0 0 c 4 4 4 4 4 4 4 4 2 1 * 2 2 2 3 4 < $ tXvXqXpXa.MXa.J.JX9.E.xX-.x.x.s.m.x.s.x.xX-X-.xX=.x.x.x.x.x.x.q.x.xX=X=X=X=X=X=X=X=X=.e.x.x.x.p.p.p.x.p.p.w.p.p.p.u.p.p.p.p.p.3.3.3.p.p.p.3.p.e.9.8.kXs v f   o                                              ",
"                                               X   f uXs.T.9.P.I.7XX.7.x.u.w.B.K.7.7.7.7.7.7.7.7.7.7.7.7.u.x.x.u.D.u.p.p.5.7.7.7.7.7.7.K.K.K.K.K.K.K.K.K.K.K.K.K.K.K.K.K.E.x.xX5.v.x.v.v.C.EXjXpX4 R v q i + X % 4 b 4 4 4 4 4 4 4 4 4 4 4 4 4 4 4 4 4 4 2 3 3 b 4 b 4 b 4 b 4 4 4 4 4 4 4 4 3 2 * 2 2 a 2 4 4 4 = i u C ZXuXqXkX8X8Xg.L.x.q.s.s.l.lX=.r.xX5X>X-.xX=.x.x.x.x.x.x.x.x.xX=X=X=X=X=X=X=X=.e.r.x.p.x.p.p.p.p.p.x.w.D.f.f.5.5.5.p.p.s.k.m.m.p.x.p.p.p.p.e.6.6.kX2 u >   X                                            ",
"                                             o   O q.*Xb.NXX.W.7.g.7.K.7.a.7.7.7.7.7.7.7.7.7.7.7.7.7.7.7.7.K.u.u.u.7.7.7.7.7.7.7.K.7.7.K.K.K.K.K.K.K.K.K.K.K.K.K.K.K.K.E.x.x.x.x.v.s.q.nXtXC.i K t j + @ - 4 d d 4 4 4 4 b 4 4 4 4 4 4 4 4 4 4 4 4 4 b 4 4 4 b 4 b 4 b 4 4 b 4 4 4 4 4 4 4 4 4 4 4 : 4 4 4 4 4 : 4 *   f m v.#XCXCXm.H.xX-.H.sX6X>.x.xX-.xX6X6X6.xX6.x.x.x.x.x.xX=X=X=X=X=X=X=X=X=X=X=X=X=.x.x.x.p.x.p.p.q.x.x.p.p.p.p.p.u.w.p.x.x.p.p.x.p.x.p.p.w.5.e.o.XX0 U p   X                                            ",
"                                             # X m.$Xl.M.UXX.W.h.7.7.7.7.7.7.o.7.7.7.o.7.7.7.o.7.7.7.7.7.7.7.7.7.o.7.7.7.7.7.7.7.7.7.K.K.K.K.K.K.K.K.K.K.K.K.7.K.K.K.K.E.x.x.D.C.p.k.JXs.$ w m f $ - a b b 0 4 4 4 4 4 4 4 4 4 = = 4 4 4 4 4 4 4 4 4 4 4 4 b 4 4 4 4 4 4 4 4 4 4 = 4 4 4 4 4 4 4 = 4 4 4 4 4 4 4 4 7 7 1 @ X h q JX2Xt.p.p.v.vX5.EX6X-X-.x.xX6.x.xX6.x.x.x.x.x.p.wX=X=X=.eX=X=X=.eX=X=X=.r.x.x.x.p.p.p.r.r.e.r.p.p.p.p.p.u.f.p.p.x.p.p.p.p.p.p.p.u.7.o.o.o.SXu C k   o                                          ",
"                                           X   j CXl.9.S.Z.WXO.7.7.7.7.7.7.7.7.7.7.7.7.7.7.7.7.7.7.7.K.K.7.K.7.7.7.7.7.7.7.7.7.7.7.K.K.K.K.K.KX<.K.K.K.K.K.7.K.K.K.K.K.D.x.v.Q.NXlXv.$ v k +   1 b 5 7 4 4 4 4 4 b 4 4 4 4 4 4 4 4 = 4 4 4 4 4 4 4 4 b 4 4 4 4 4 b 4 4 4 4 4 4 4 4 4 4 4 4 4 4 4 = = 4 4 4 4 4 < 3 3 3 : 4 , & @ f q.@XCXvXeXcXd.E.x.x.w.x.x.x.x.EX6.x.x.x.x.x.x.wX=.e.e.e.eX=X=X=X=X=X=.r.r.x.x.r.p.p.w.e.e.e.x.x.p.p.p.u.f.x.x.x.x.p.p.p.p.p.p.e.g.5.5.o.9.4Xs u +   o                                        ",
"                                             + uXt.8.9.8.8.W.G.B.7.7.7.7.7.g.7.I.7.7.7.7.7.7.7.7.7.7.7.7.7.7.7.7.7.7.7.7.7.7.7.K.K.K.K.K.K.K.K.KX<.K.K.K.K.K.K.K.K.D.p.v.u.u.tXj.* B m + @ 4 0 4 4 4 < 4 4 4 4 4 4 4 4 4 = 4 4 4 = 4 4 4 4 4 4 4 = 4 4 4 4 4 4 4 4 4 4 4 4 4 4 4 4 4 4 4 4 4 4 4 = 4 = 4 4 4 = 4 4 4 : - * 2 : 4 & X i q.@XsXjXdX-X-.xX5X6.x.s.sX-.x.x.xX=X=X=X=X=X=X=.eX=X=X=X=X=X=.x.x.xX=.e.eX=.r.eX=.e.e.e.w.e.r.p.p.p.p.p.p.p.p.p.p.p.p.p.p.p.3.5.7.4.X.o.s.i q X   X                                      ",
"                                         X   q WXl.W.W.WX+.W.G.B.7.7.7.7.7.7.7.7.7.7.7.7.7.7.7.7.7.7.7.7.7.7.7.7.7.7.7.7.7.7.7.K.K.K.K.K.K.K.K.K.K.K.K.K.7.K.K.K.K.D.r.r.mXsXC.@ p + $ < 5 : 7 - 4 = 4 4 = 4 4 4 4 4 4 4 4 4 = = = = = = 4 = 4 4 4 4 b 4 4 4 4 4 4 4 4 4 = 4 4 = 4 4 4 4 4 4 4 4 4 4 4 = = 4 4 4 4 = < 3 1 2 , = 7 7 = X i u.iXzX7.wX-X-.x.x.xX6X-.m.x.xX=X=X=.eX=X=.e.eX=X=X=X=X=X=.x.x.xX=X=X=.e.e.e.e.e.eX=.e.e.e.p.p.p.p.x.p.p.x.p.e.e.e.e.p.p.3.e.6.5.5.O.4X7 L m   X                                      ",
"                                       X   k CXp.M.H.WX+.WX+.z.B.7.K.7.7.7.g.7.7.7.7.7.7.7.7.7.7.7.7.7.7.7.7.g.g.g.7.7.7.7.7.7.K.K.K.K.K.K.K.K.K.K.K.K.K.KX<.K.K.K.K.l.nX7.& v i @ a c 7 < - 7 4 4 4 = 4 4 4 4 4 4 4 4 4 = 4 = 4 = 4 4 4 4 4 4 4 4 4 4 4 = 4 4 4 4 4 4 4 4 4 4 4 4 4 4 4 4 4 = 4 = 4 : : : 4 < 4 4 4 4 3 2 2 2 2 4 7 3 4 % > m.@XC.x.k.s.x.E.x.xX6.EX6.xX>X=X=X=X=X=X=X=X=X=X=X=X=.w.x.x.rX=X=X=.eX=.e.e.e.e.e.e.e.r.p.p.p.p.p.p.p.x.p.e.e.e.e.e.e.e.3.n.4.5.o.O..Xt w i   X                                    ",
"                                     X   + uXs.Q.N.W.WXOX&.h.K.K.7.7.7.7.7.7.g.7.7.7.7.7.7.7.7.7.7.7.7.7.7.7.7.7.7.I.7.K.7.K.K.K.K.K.K.K.KX<.K.K.K.K.K.K.K.K.L.J.J.BXiXu R q O % b 4 3 - 4 < 4 4 4 4 4 = 4 4 4 4 4 4 = = = = = = = = 4 = 4 4 4 = 4 4 4 4 4 = 4 4 4 = 4 4 4 4 4 = 4 4 4 4 4 = = 4 = = : - 4 4 4 4 4 4 4 4 3 4 4 4 4 = : = < 4   i BXCXl.RX6X<X-Xh.sX-X6X-.sX-.xX-X=X=X=X=X=X=X=X7X=.w.xX=X=X=X=X=.e.e.e.eX=.eX=X=.e.e.p.p.p.p.p.p.p.p.p.e.e.e.e.e.p.p.p.p.p.5.7.4.6X<X2 q                                        ",
"                                     o   q.&Xt.P.SXo.WXO.I.7.7.K.7.7.7.7.7.7.K.7.7.K.7.7.7.7.7.7.7.7.7.7.7.K.7.7.K.7.7.K.K.K.K.K.K.K.K.K.K.K.K.K.K.K.K.K.K.K.KXO.u.zX7 C k @ , < 4 4 = 4 4 4 = 4 4 4 = 4 = 4 4 4 = 4 = = = = = = = = 4 4 = 4 4 4 4 4 = 4 4 4 4 4 4 4 4 4 4 4 4 4 4 4 = 4 = 4 = 4 = = 4 4 < 4 = 4 = 4 = 4 = 4 4 4 = 4 = : - 4 0 % + t.*Xk.TX>.E.xX6X6.xX-.s.x.x.xX=X=X=X-X=X=X=X=X=X-.xX=X=X=X=X=.e.e.eX=X=X=.e.r.e.r.p.p.p.p.p.p.p.p.p.e.e.e.e.p.p.p.p.p.p.5.7.5.5.FXt L m   X                                  ",
"                                   X   k CXl.9.SXOXoX+XO.I.K.7.7.K.7.7.7.7.7.g.7.7.7.7.K.7.7.7.7.7.7.7.7.7.7.7.7.7.K.7.K.K.K.7.K.K.K.K.K.K.K.K.K.K.K.KX<.K.K.I.wXtXs w i # c 4 = 3 - 3 = 4 4 4 4 4 = 4 = 4 4 4 4 = = = = = = = = = = : : 4 4 4 4 4 4 4 4 4 4 4 4 4 4 4 4 4 3 3 3 3 4 4 4 4 = = = = = 4 = = = = = = = 4 4 4 4 4 4 = 4 = = 4 - < 5 % X q.iXv.5.x.x.x.x.xX6.x.x.x.xX-X-X-.x.x.x.x.x.x.p.pX=.eX=X=X=X=.e.e.eX=.e.r.p.x.x.x.p.p.p.p.p.u.u.u.w.e.e.p.p.p.p.p.p.p.5.7.7.5.P.NXt u +   X                                ",
"                                 X   + vXt.F.SXX.WXO.G.I.I.I.7.7.7.7.7.7.7.K.7.7.7.7.7.7.K.7.7.7.7.7.7.7.7.7.7.7.7.7.7.K.7.K.K.K.K.K.K.K.7.K.K.K.K.K.K.K.J.L.eX*X2 v f * a b 3 3 : 4 4 4 = 4 4 4 = 4 = = 4 4 = 4 = = = = = = = = = : * 2 2 3 = 4 4 4 = 4 4 4 4 4 4 4 2 2 2 3 3 3 3 3 3 4 4 4 4 4 = 4 = 4 = 4 = 4 = 4 = 4 = 4 4 4 4 4 = = = < 4 : 8 8 @ p.$X6.nX>.E.E.x.x.x.x.xX6.E.x.x.x.x.x.x.x.x.p.p.w.eX=X=.w.r.r.r.r.r.x.r.p.p.x.x.x.u.p.p.p.e.5.u.p.p.p.p.p.p.p.p.p.p.p.u.u.o.8.8.w.& q   o                                ",
"                                 #   p NXl.b.IX+X .J.B.K.K.7.7.7.7.7.7.7.7.K.K.K.7.K.K.K.K.K.7.7.7.7.7.7.7.7.K.7.K.K.7.K.K.K.K.K.K.K.K.K.K.K.K.K.K.L.K.K.J.JXiXs w f - 0 4 4 4 4 4 4 4 4 4 4 4 = 4 = 4 = 4 = = = = = = = 4 = 4 = = = 3 * 2 3 4 4 4 4 = 4 4 4 4 4 4 4 2 2 2 = 4 4 3 1 2 2 4 4 4 4 4 4 4 4 4 4 4 4 4 4 4 4 4 4 4 4 4 = 4 4 = 4 = < 8 8 0 @ p.iXv.RXg.E.E.x.x.xX6.x.EX6.x.x.E.E.x.x.x.x.x.xX=X=X=X=.w.x.p.x.x.x.x.x.p.x.x.x.D.p.x.p.p.x.x.p.p.p.p.p.p.p.p.p.p.p.p.p.5.6.P.4Xu C j   X                              ",
"                               o   i wX0.P.F.t.J.B.J.z.K.K.K.7.7.7.7.7.7.7.7.7.K.7.7.K.K.7.7.7.7.7.7.7.7.7.7.7.7.7.K.K.K.7.K.K.K.K.K.K.K.K.K.I.K.K.J.JXO.r.AXu B f 2 0 2 = : = 4 = 4 = 4 = 4 4 4 4 4 = 4 = = = = = = = = = 3 = 4 = 4 3 2 2 3 4 4 = 4 = 4 = 4 4 4 4 4 * 2 2 2 2 2 2 2 * 2 = 4 = 4 = = = 4 = 4 4 4 4 4 4 4 = 4 = 4 4 = 4 4 = = 4 4 4 4 3 a X q.*Xk.RX=.K.E.x.xX6.xX-.x.x.s.xX-.x.x.x.x.x.pX=.w.wX=.x.p.p.x.x.p.x.x.p.x.p.x.D.p.p.x.p.x.p.p.p.p.p.p.p.p.p.x.p.p.p.p.e.a.6.9.XX= u >                                ",
"                               X   q.*Xb.Q.b.I.B.I.B.I.K.K.K.7.g.7.7.7.7.K.K.K.K.K.K.7.7.K.K.K.7.7.7.7.7.7.7.K.K.K.K.K.7.K.K.K.K.K.K.K.L.L.LX&.LX8X&.J.JX-Xu C i - d 4 3 4 4 4 4 4 = 4 = = = 4 = 4 4 4 4 4 4 = = 4 * * = 4 = 4 4 4 4 3 3 3 4 4 4 4 4 4 4 4 4 4 4 4 4 2 2 2 2 3 3 3 3 3 4 4 4 4 4 4 4 b 4 4 4 4 = 4 4 4 = 4 4 4 4 4 = 4 4 4 < 4 = 3 2 3 < 7   tXsXq.gX#.L.x.EX6X6X6X6.x.s.s.s.x.x.x.x.x.x.w.wX-.x.x.x.p.x.x.x.x.x.x.x.x.x.E.x.x.p.x.x.x.p.x.p.p.p.p.p.p.p.p.p.p.p.u.a.5.6.oXl N m   #                            ",
"                             X   n CXt.M.Q.K.z.J.A.I.7.K.7.7.7.7.7.7.7.7.K.K.K.K.K.K.7.K.K.7.7.7.7.7.7.7.7.7.K.K.K.K.K.K.K.K.K.K.K.K.B.J.JX9.KX&.JX9.A.tXu M j $ c 4 4 4 = 4 = = = 4 = 4 4 4 4 4 4 4 4 4 4 4 = : = 2 * 2 = 4 4 4 4 4 4 4 4 4 4 4 4 4 4 4 = 4 4 3 3 3 , 2 2 2 3 3 3 4 4 4 4 4 4 4 4 a 4 b 4 b 4 4 4 4 4 4 = 4 4 4 4 4 4 4 4 9 4 4 4 : - < 7 8 + vXs.6.KX;.L.LX-X6X6X6.EX6X6X6.x.x.x.x.x.x.x.x.w.x.x.x.x.x.p.x.p.x.x.x.x.x.q.x.p.x.p.p.p.x.p.x.p.x.p.x.p.p.p.p.p.p.e.7.6.4.o.PX0 u f   o                          ",
"                               O uX4.J.R.F.7.H.J.J.B.K.K.K.7.7.7.7.7.7.7.7.K.K.7.7.K.K.K.7.K.K.K.7.7.7.7.7.7.h.K.7.7.K.K.K.K.K.K.K.K.L.J.J.JX&.J.LX8XbXjX2 p   a 4 4 4 4 4 = 4 = 4 = 4 4 4 4 4 4 4 4 4 4 = = 4 = 3 2 2 * 4 4 4 4 4 4 4 4 4 4 0 0 0 0 0 0 2 0 0 2 0 0 3 0 0 0 0 3 a 3 2 3 4 4 4 4 4 4 4 4 b 4 4 4 4 4 4 = 4 4 4 4 4 4 4 = 4 9 = - = = : , 7 c % f JXuX9XXX&.L.xX5X6X6.xX6.x.x.x.x.x.x.x.x.x.x.v.x.x.x.x.x.x.x.x.x.x.x.x.x.x.p.x.x.x.x.x.p.p.p.x.x.p.x.p.p.p.p.p.p.p.u.a.7.o.FXd W p   X                          ",
"                           X   m N.H.9.T.GXX.H.J.z.B.7.K.7.7.7.7.7.7.7.K.K.K.K.K.K.K.7.7.K.7.K.7.7.7.7.7.7.7.B.B.7.7.K.K.K.K.K.K.K.K.K.J.J.JX9X9.LX8.MXu v O 4 < : 4 4 = = 4 = = = = = 4 4 4 = 4 = 4 4 = = = = 4 = 2 * 3 3 3 3 4 4 9 0 d b a 1 - % % $ $ $ $ $ $ $ $ $ $ $ $ % 1 1 a a d 0 4 : 4 4 a 4 0 0 0 4 4 4 4 4 = = 4 4 4 = 4 4 = 4 , 4 4 = 4 = : , : 9 ; k.$XlXaX9X9.v.vX5X6X5.x.x.x.xX6X6.x.x.x.x.p.p.x.x.x.x.x.x.x.x.x.x.x.x.x.x.x.x.x.x.x.x.x.p.p.p.p.p.p.p.p.p.p.p.p.p.p.u.5.o.F.XXl w f   X                        ",
"                             X vXt.9.B.W.Z.I.B.z.J.B.7.K.7.7.7.7.7.7.K.K.K.K.7.K.K.K.K.K.K.7.K.7.7.7.7.7.7.I.B.z.I.B.7.K.K.7.K.K.K.K.K.K.L.JX9X8.L.LXq R i % 9 = 4 = 4 = = = = = 4 4 = = 4 4 = = 4 = 4 = = = 4 = 4 = : 4 2 2 2 , 0 a 2 # @ O f j m p q u v v v v v v u q q m k i + O X X , 7 a 4 4 4 9 0 0 0 4 4 4 4 4 = 4 = 4 4 4 4 4 = 4 4 = = = = = = = - < 0 X tXtXaX9.vX5X5.xX6.x.x.x.x.xX6.xX6.x.x.x.x.x.x.x.x.x.x.x.x.x.x.x.x.x.x.x.x.x.x.x.x.x.x.p.p.x.p.x.p.x.p.p.p.p.p.p.p.p.p.5.4.NXc.& p   X                        ",
"                         o   m LXi.9.G.W.G.B.B.J.A.K.K.K.K.7.7.K.7.K.K.K.7.7.7.K.K.K.7.K.7.K.7.7.7.7.K.K.7.7.7.7.7.7.7.a.K.K.K.K.K.K.K.J.JX9.J.J.G.vXC t $ b < : = 4 = 4 = = = = 4 = 4 4 = = = = = = = = = 4 = 4 4 4 = 3 * 2 3 0 % O f m q w C S W.3.QXaXkXkXkXpXkXkXb.F.3.* U L C v q k f O # 0 0 0 4 4 4 4 4 4 = 4 = = = 4 4 4 = 4 4 b 4 4 = = = = = = = = = < = i.@Xp.F.xX5.vX5.x.x.x.x.x.x.x.x.x.x.x.x.x.x.x.x.x.x.x.x.x.x.x.x.x.x.x.x.x.p.x.x.x.x.x.x.p.p.x.p.p.p.p.e.p.p.p.p.p.p.p.5.7.X.XXu w i   X                      ",
"                           + uXtX8.GX XO.H.I.J.J.J.I.K.K.K.K.7.K.K.K.K.7.K.K.K.K.K.K.K.K.K.K.7.I.K.7.K.K.K.K.K.7.7.7.K.K.K.K.K.K.K.K.L.JX9X9X9X9.JXu.@ i - 4 7 : , = = = = = = = = 4 4 4 4 = 4 = = = = = 4 4 4 4 4 2 2 3 3 a $   k u K.&XsXvXqXqXpXpXkXa.MXaXaXaXaXaXaXkXkXpXpXqXvXzXs.$ J u k + $ 7 c b 0 0 4 4 4 4 4 = 4 4 4 4 4 4 b 4 4 = = # # = = = 4 = = : 4 X qX2Xl.v.vX9X5.xX-.x.x.x.x.x.x.x.x.x.x.x.x.x.x.x.x.x.x.xX;X;X;.D.x.x.x.x.x.x.x.x.x.x.x.x.x.x.x.D.B.7.w.s.x.p.s.p.u.u.7.B.T.zX9.* q                          ",
"                       o   r NXO.Q.H.bXX.I.J.B.7.7.7.7.K.K.K.K.K.K.K.7.7.7.7.7.KX:.K.K.KX:.g.g.7.7.7.K.7.7.K.K.7.7.K.7.K.7.K.K.K.K.K.IX8.JX9XO.J.JX2 t @ 3 4 = = = = = = = = = = = = = = = = = = = = 4 4 = 4 = 4 : 3 : 0 0 @ j v.$XsX0.w.=.=.3.o.e.e.f.w.p.r.s.k.k.k.k.k.3.3.3.3.3.3.uX9XlXs R v m X 8 e 0 a 4 4 = 4 4 4 = 4 = 4 4 4 = 4 4 = = # # = = = = = = 4 4 3 f JXv.zX5X9.E.E.E.x.x.x.xX-.x.x.xX6.x.x.x.x.x.x.x.x.x.x.w.x.x.x.x.x.x.x.x.x.x.x.x.x.p.x.p.x.x.x.p.p.p.x.x.p.p.x.u.7.7.B.y.z.XX1 C i                        ",
"                         X vXt.8.TX#X$X#.K.g.K.K.7.7.K.K.K.K.K.K.K.K.K.K.7.7.K.K.K.K.K.KX:.K.K.7.K.K.K.K.7.K.7.7.7.7.K.7.K.K.K.K.K.K.LX9X9X9XeX9Xu R i % < = = = = = = = = 4 4 = 4 = = = 4 = = = = = = = = = 4 4 3 - 9 - > q.$XtXt.e.o.o.o.e.3.p.p.p.x.x.x.x.x.x.x.p.p.x.p.r.w.w.r.x.p.r.3X4XCXC.$ v i $ b 0 4 4 = 4 4 4 4 4 4 4 4 4 4 4 4 4 = # # = = = = = = = < c $ pX2X8X9.DX>.K.K.K.E.D.D.EX-.x.x.x.x.x.x.x.x.x.x.x.x.x.w.x.x.x.x.x.x.x.x.x.x.x.x.x.x.x.x.x.x.p.p.p.p.p.x.x.x.x.u.D.K.B.z.z.9X+X* q                        ",
"                         m LX7.P.TX#X$X$.K.7.7.K.7.7.7.7.K.K.K.K.7.7.K.7.7.K.K.KX:.K.K.K.K.K.K.7.7.7.7.K.7.K.7.K.7.7.7.K.7.K.K.K.KX,.K.J.JX9XfX9XC v O < : , = = = = = = = = = = = = = = = = = = 4 = = 4 = 4 : : , 4 - f v.dXk.....o.5.e.e.e.r.p.p.x.p.x.x.x.x.x.p.x.p.w.q.w.eX=.r.p.p.k.k.5.X...NX4.@ p + 7 0 4 4 4 4 4 4 4 4 4 4 4 = 4 = = # # # = = = = = = = = 7 - f JXu.BX#.K.K.K.K.KX,.KX&.x.x.x.x.x.x.p.x.x.x.p.x.xX-.w.x.x.x.x.x.x.x.p.x.x.x.p.x.x.x.p.x.p.x.p.w.u.x.p.x.p.s.p.7.7.I.z.z.9.XXl w i                      ",
"                       + uXt.W.PX X+X#X#.7.7.7.K.K.7.7.K.K.K.K.K.K.7.K.7.g.g.KX:.g.g.g.g.K.K.K.K.K.7.K.7.7.7.7.7.7.7.K.7.K.K.K.K.K.JX&.KX&X1XbXi.i m @ 3 : = = = = = = = = = 4 = 4 = = = = = = = = = 4 = 4 4 4 , 4 , + vXCXk.M.6.9.o.p.p.p.r.p.p.x.x.x.x.x.x.x.w.w.s.e.rX=.r.l.l.l.l.k.l.w.u.B.F.QX8Xv.& u > - < - : 4 4 4 4 4 4 4 = 4 4 = = = # = = = = = = = = 4 4 7 @ pX2X9.WX#.K.K.K.K.K.E.x.x.D.EX-.x.x.xX=.x.rX=.wX=.r.D.7.B.u.x.x.x.x.x.x.x.x.p.u.7.7.u.p.p.u.I.7.D.K.x.x.x.x.w.K.7.7.7.a.O.XXa.* q     X                ",
"                 X     p NXO.9.WX+X$.aX#.K.7.7.K.7.K.7.K.K.K.K.K.K.7.7.7.7X:.gX:.g.K.K.K.K.K.K.K.K.K.K.K.7.7.7.7.7.K.7.K.7.K.K.K.KX&.JX9.JXg.MXq.# f $ : = = = = = = = = = = = = = = = = = = = = = = = = = 4 = : 3 O t.i.r.o.5.7.5.e.p.p.p.x.p.x.x.x.x.x.x.x.xX=X=.rX=X=X=.r.l.l.l.l.l.m.p.p.p.e.u.l.=X0.* u 8 2 0 4 < 4 = 4 4 4 4 4 4 4 4 4 4 = = = = = = = = 4 = : < - f.+Xv.MX#X#.K.K.K.K.DX6.x.E.E.x.x.x.xX=.pX-X=X=.eX=.r.x.p.p.x.x.p.x.p.p.p.x.p.u.7.7.p.s.p.D.7.K.7.K.x.x.h.K.7.K.7.K.7.7.a.o.8Xl w f   X                ",
"                 X # X vXu.8XXXXX$X$X#X#.K.K.K.K.K.7.7.K.K.K.K.K.K.K.7.7.gX:.g.g.g.K.7.K.K.7.K.K.7.K.7.7.7.7.7.7.7.7.7.7.K.K.K.K.K.LX9.J.JX@XaXv B @ - : * = = = = = = 4 = = = = = = = = = = = = = = = = 4 3 - < $ m.$Xg.5.r.5.7.e.e.p.p.x.p.p.x.x.x.x.xX=X=X=X=X=.r.rX=X=.r.l.l.l.l.m.m.r.w.e.p.u.n.l.qXiX2 t % 3 4 4 , 4 4 4 4 4 4 4 4 4 = = = = = = = = = = = = : < 5   tXC.RX$.K.K.7.KX#.DX6.xX>.D.x.x.x.xX=.xX-X=X=X=X=.w.v.x.x.p.p.p.x.p.x.p.p.s.u.7.7.u.p.q.B.a.K.a.K.x.x.D.E.u.7.K.7.7.7.7.O.8X  Y p     X              ",
"                 X   k CXl.9XXXo.bX$X$.K.K.K.K.K.K.K.7.K.K.K.7.K.K.K.7.g.g.g.g.g.g.g.7.7.K.K.7.7.7.K.7.7.o.7.7.7.7.7.7.K.7.K.K.L.J.J.JX9.CXeXkXt t @ < & = = = = = = 4 = = = = = = = = = = = = = = = 4 = = : < : > BXv.3.f.w.e.p.p.p.p.x.x.x.x.x.x.x.x.x.wX=X=X=X=X=.l.l.l.l.l.l.l.l.l.l.m.s.x.p.p.p.3.H.MXi.& p $ 4 4 < 4 4 4 4 4 4 4 4 5 4 4 = = 4 = = = = = 4 = - = 9 $ l.$Xf.H.K.7.K.B.x.E.xX6.x.x.x.p.x.x.x.x.x.w.x.w.x.rX=.r.w.p.x.p.p.p.p.5.p.5.w.u.u.5.B.B.E.x.x.u.w.x.x.B.D.B.K.K.7.7.7.7.7.X.8Xt v +   X              ",
"                     u.=Xj.a.bXXX#.bX1X<X<.K.K.K.K.K.7.K.K.K.K.K.K.K.K.K.7.g.7.7.K.K.K.K.K.K.7.7.7.K.7.7.7.7.7.7.K.7.K.K.K.K.K.L.J.JX9.J.C.JXp Z m $ < = = = = = = 4 = = = = = = = = = = = = = = = = = = = : < $ k.*Xq.f.D.wX=.r.x.p.p.x.x.x.x.p.x.x.x.x.wX=X=X=X=X=.l.l.l.l.l.l.l.l.l.l.m.s.x.x.x.q.k.CXc.LXz M j % 0 : 4 4 4 4 4 4 4 4 5 0 4 = 4 = = = = = 4 = 4 : < < 6 6 BXl.J.K.K.K.K.x.xX6X6.E.x.EX>.x.x.x.x.x.s.x.x.x.x.x.x.w.x.x.x.p.p.u.B.q.D.7.D.7.7.7.K.w.x.x.x.x.x.x.K.K.K.K.K.K.K.K.h.7.W.9Xg N m                  ",
"               X   i wX1.8.b.b.b.K.7.K.K.K.KX<.K.K.K.K.7.K.K.K.K.K.K.7.7.7.K.7.7.K.K.K.K.K.7.7.7.7.7.7.7.7.7.7.7.7.7.7.K.h.K.KX&.J.J.J.J.C.YXq L i $ = * = = = = = 4 4 = = = = = = = = = = = = = = = = 4 : < 4   tXl.M.z.5.p.p.p.p.p.p.p.x.x.p.x.x.x.x.p.rX=X=X=X=X=.r.l.l.m.3.m.l.r.r.r.3.s.p.q.x.pX=X=.u.l.=Xt w + 1 4 = 4 4 4 4 = = 4 5 4 4 = = = = = = 4 = 4 = 3 - 4 7 8 q.lXg.5.K.K.K.x.xX6.x.E.K.K.K.x.x.x.u.D.w.u.p.p.p.p.v.x.p.x.p.p.p.p.5.p.5.5.u.5.7.h.a.u.p.x.x.x.x.x.h.7.7.K.7.7.7.7.7.7.z.G.XX= v O   X            ",
"                   q Y.0.S.b.a.K.a.K.K.K.K.K.K.K.K.7.K.K.K.K.7.K.K.7.7.7.7.K.K.K.K.7.K.K.K.7.K.7.K.7.g.g.7.7.7.7.7.K.K.h.B.B.B.C.C.C.J.J.E.YXq B + - * * = = = 4 = = = = = = = = = = = = = = = = = = = * - * * ; BXq.M.a.D.p.x.s.m.k.s.k.s.s.k.s.s.x.x.x.r.r.w.r.r.r.m.m.m.m.3.3.m.r.s.l.l.l.l.r.e.r.p.x.p.p.nX7.* p $ 9 : 4 4 4 4 4 4 4 < 4 4 4 , * , * - < , = , : 4 4 c 8 i NXl.5.K.K.D.x.x.x.x.w.E.E.D.L.D.x.E.E.E.w.q.x.x.x.x.x.x.p.p.p.p.p.u.p.w.u.x.p.u.w.D.x.x.p.x.x.x.x.D.u.D.w.w.E.B.7.7.6.z.z.oX@ C j   #            ",
"             X   + vXC.8.Z.b.7.7.7.K.7.K.K.K.K.K.K.K.7.K.K.K.7.7.7.7.7.7.7.7.7.7.7.7.7.K.K.K.K.7.7.7.7.g.7.7.7.7.7.K.K.K.C.v.n.v.v.v.C.L.B.TXq v $ 1 # 2 3 4 4 4 = = = 4 = = = = = = = = = = = 4 4 4 4 3 3 , # g.@Xq.M.7.5.x.p.3.3.m.m.m.m.m.3.m.k.x.p.p.p.p.p.l.l.l.m.m.k.m.3.m.m.m.m.mX*.l.=.e.e.e.w.s.p.u.p.tXp B f 2 < 4 = 4 = 4 < 4 9 < < 0 = 4 < < < 3 , 0 3 - @   O f j CXl.5.7.K.x.x.xX6.x.x.x.x.u.K.E.x.p.x.p.x.x.x.p.x.p.p.p.p.p.p.p.p.p.p.p.p.p.p.p.x.p.x.x.x.x.p.u.x.p.x.p.s.p.p.7.7.7.z.z.t.o.SX* q   # o          ",
"             X   m LXt.8XXX$.a.7.K.K.K.K.K.K.K.7.K.K.K.K.7.K.7.7.7.7.7.7.7.7.7.7.7.7.7.7.K.K.7.K.7.7.7.g.7.7.7.7.7.7.7.7.u.v.v.v.v.v.C.I.CX Xl q $ 2 * * 3 4 4 4 4 4 = = = = = = = = = = = 4 = = 4 = 4 = 4 : # h.#Xp.M.7.B.x.x.3.m.3.k.m.m.3.m.m.m.x.x.x.x.x.p.m.m.m.m.m.m.m.m.3.m.m.m.m.l.l.lX=.e.e.w.x.x.u.l.FXp.* p $ 0 = = 4 4 4 4 4 9 0 < < , 9 0 9 , $ @ @ + i k q u.+ R.*Xg.7.K.K.w.x.x.x.x.x.x.s.x.a.u.x.x.x.x.x.x.p.x.p.x.p.p.p.p.p.p.p.p.p.p.p.p.p.p.x.x.p.x.x.x.x.x.x.x.x.x.x.x.x.B.7.7.z.z.y.4.XXq w f   X          ",
"           o     uX2.f.9.bX#.a.7.K.K.B.K.K.I.K.K.K.K.K.7.7.7.7.7.7.7.7.7.7.7.K.7.7.B.B.I.B.K.7.7.7.7.7.g.7.7.7.7.7.K.K.K.B.C.C.v.v.v.C.I.uXfX5 q @ 3 * 2 3 4 4 4 4 = = = = = = = = = = 3 3 3 4 4 4 4 4 < , < @ h.#Xk.M.9.u.v.p.m.3.m.3.m.m.m.s.m.p.x.x.p.s.s.s.m.m.s.m.m.m.3.3.m.m.m.m.m.l.l.l.r.l.l.k.k.s.m.w.W.NXu v X , < = 4 : 4 4 7 7 b a a 8 8 % @ + i m q w.@.$.*X7X0X1XX.D.K.7.D.w.x.x.E.D.E.D.D.D.K.D.p.p.x.x.x.x.x.x.x.p.x.p.x.p.p.p.p.r.e.e.p.p.p.p.x.x.x.p.x.x.D.E.D.u.x.p.x.p.x.B.D.5.t.z.z.t.X.R U p   X          ",
"           #   i CX<.7.a.b.a.K.K.K.7.K.J.J.J.K.K.K.K.K.7.7.7.7.7.7.7.7.7.7.7.7.7.h.K.B.I.B.7.K.7.7.7.7.7.7.7.7.7.7.K.K.g.I.J.J.C.v.v.C.I.vXj.m p $ 0 * 3 3 4 4 4 = = 4 = = = = = 4 = = 2 2 2 4 4 4 = = , & : @ h.@Xp.M.z.n.n.v.k.3.3.m.m.m.s.x.x.p.x.x.s.m.m.m.m.m.m.m.m.m.m.m.m.s.s.s.s.l.l.l.m.m.m.3.3.m.s.f.W.NXu.# h $ 3 , 9 c 0 0 a 6 % $ @ g j p u B.#.iXCXvXuX0.a.o.o.5.5.K.K.K.x.q.x.D.KX#.K.K.K.7.K.u.p.u.x.x.p.x.x.x.x.x.p.x.r.e.p.p.p.p.p.p.p.p.p.p.x.x.x.x.p.w.K.K.K.x.p.x.x.x.x.x.q.s.n.z.z.z.6.MX9 u              ",
"               q W.h.9.W.b.a.7.K.K.K.K.J.J.J.I.K.K.K.K.7.7.7.7.7.7.7.7.7.7.7.7.7.7.K.7.K.K.7.7.7.o.7.7.7.7.7.7.7.7.7.7.7.7.K.a.C.v.v.u.B.nXl.3 m $ 0 * = 3 4 4 = = 4 = = = = = = 4 4 = 2 3 : = 3 3 3 = = = = # > BXp.M.e.n.n.n.m.3.k.3.m.3.m.p.x.p.x.p.x.3.m.m.m.m.m.m.m.m.m.3.m.sX=X=.r.l.l.=.k.3.m.m.l.m.3.e.F.NXi.i m X b 0 7 % @   O f j p u C N.*X0XpXp.R.R.8.o.6.5.7.7.K.7.h.K.K.w.q.x.E.K.K.K.K.K.K.u.p.p.p.x.x.x.p.x.p.p.p.p.p.p.e.p.p.p.p.p.p.p.p.p.p.p.p.p.p.p.w.h.h.D.p.x.p.x.p.x.p.p.p.n.z.z.4.5.NXf C i   X        ",
"             O vXt.O.b.W.b.a.D.K.7.K.K.J.J.J.K.K.K.K.7.K.7.7.7.7.7.7.7.7.7.7.K.K.7.7.K.K.K.K.7.7.7.7.7.7.7.7.7.7.7.K.K.K.K.K.K.B.u.v.B.I.uXl.j m $ 0 * = = 4 = = = = = = = = = = 4 4 4 3 4 4 4 3 * 3 = = = = , @ uXk.M.u.v.v.v.k.m.3.k.k.m.s.p.x.p.p.s.s.s.s.s.m.s.m.m.m.m.m.m.m.rX=X=.r.l.l.=.l.m.l.m.l.l.l.l.G.PX8Xt t @ % O + i m q v K.$X7XqXqXp.M.M.M.N.M.N.W.7.a.B.a.K.K.K.K.D.D.D.E.x.D.K.K.K.D.D.B.u.w.u.x.x.x.x.x.x.x.u.u.u.u.u.e.p.p.p.p.p.p.p.p.p.x.x.u.x.p.x.w.D.B.B.x.x.x.p.p.x.x.x.r.p.t.z.z.5.P.F U p   #        ",
"         X   j CXl.o.O.b.7.K.K.7.7.K.7.7.K.K.K.K.K.K.7.K.7.7.7.7.7.7.7.7.7.7.7.7.7.K.K.7.K.K.7.7.7.7.7.7.7.7.7.7.7.7.7.K.7.K.7.K.7.I.A.C.5Xj.j m $ , * = = = = = = = = 4 = = = = = = = = = = = = = 4 = = = = = @ m.*Xp.e.t.v.n.k.l.k.p.x.p.x.p.p.k.m.3.m.s.s.p.m.m.m.m.m.3.s.x.x.x.p.v.s.k.m.m.lX*.l.3.k.p.k.p.D.u.uX0 J k m t w.@.$X2XtXlX0.v.B.a.7.I.I.I.I.I.D.g.g.7.K.K.K.K.K.E.w.E.K.K.K.K.K.K.x.p.x.u.D.D.D.p.x.p.p.x.x.5.a.7.7.7.7.5.p.p.p.p.p.p.p.p.p.p.x.p.x.p.p.p.p.s.w.5.s.x.p.p.x.p.p.p.p.p.p.5.7.9.FXt u X   X      ",
"             q WX5.o.O.b.7.K.7.7.K.K.K.K.K.K.K.K.7.K.7.7.7.7.7.7.7.7.7.K.7.K.K.K.K.K.K.K.7.7.K.7.7.K.7.7.K.K.K.K.K.7.K.7.K.7.K.7.K.I.C.C.BXj.3 p $ 4 = = 4 = = = = = = = = = = = = 4 4 4 = 4 : 4 = = = = = = : % + CXq.k.v.v.v.x.x.x.x.p.p.p.x.x.s.3.m.m.m.m.m.m.m.m.m.m.m.s.x.x.x.x.x.s.m.m.m.m.m.l.3.k.p.p.p.p.q.eX,.*.$.iXsXtX0X&.6.3.3.3.5.g.5.p.w.w.w.x.D.7.KX:.K.K.K.K.K.K.K.K.K.K.K.K.K.K.B.x.x.x.p.x.x.s.D.D.D.w.x.p.D.K.D.7.7.7.5.p.p.p.x.x.x.x.x.p.u.D.B.u.q.p.p.p.p.u.D.p.p.p.x.q.p.v.v.p.p.p.5.7.4.XXl C j   o      ",
"       X   O vXg.o.a.b.b.7.7.7.7.7.7.K.K.K.K.K.K.K.K.K.7.7.7.7.7.7.7.7.7.7.K.K.K.K.K.K.K.7.K.K.7.7.K.7.7.7.7.7.K.7.7.7.K.7.K.K.K.K.J.z.B.5Xj.q p $ 4 = = = = = = = = = = = = = = = = = = = = = = = = = 4 = , - 4 @ pXsX5.k.v.v.x.p.q.p.x.p.r.p.u.p.m.3.s.p.s.p.m.3.m.3.3.3.s.x.x.p.p.p.p.3.3.3.3.k.m.3.k.p.p.p.r.u.u.gX#XlX%.9.6.5.e.e.k.e.K.g.7.u.B.B.D.D.D.D.7X:X;.K.g.K.K.K.K.K.K.K.K.K.K.K.K.K.u.x.p.p.u.x.u.K.K.K.x.w.w.D.K.K.K.7.7.7.p.p.p.p.p.x.u.p.u.7.h.a.u.p.u.p.p.p.u.5.p.p.p.p.p.p.p.p.p.p.p.5.7.4.6.A W q          ",
"       X X l CXk.7.a.b.K.7.7.K.K.K.K.K.K.K.K.K.7.K.K.K.7.7.7.7.7.7.7.K.K.K.K.K.K.K.K.7.K.7.K.K.K.K.K.K.K.K.K.K.K.K.K.K.7.K.K.K.K.K.K.K.I.uXfXi q $ a = = = = 4 = = = 4 = = = = 4 4 4 4 4 4 = = = = = = = = = , 3 3 O vX7.C.E.J.D.E.w.p.q.w.w.x.x.s.m.m.m.m.m.s.x.u.s.x.p.p.p.x.p.p.p.p.s.m.3.3.3.m.m.p.p.p.x.p.e.r.p.p.u.9.0.8.W.w.r.x.p.p.w.r.w.p.w.r.wX=X=X=.x.x.x.p.K.K.E.K.K.K.K.K.K.K.K.K.K.K.D.p.x.p.q.D.K.K.K.K.K.K.K.K.K.K.K.7.7.K.u.q.w.x.q.x.D.g.K.K.7.K.7.7.7.7.D.7.7.u.s.x.x.x.D.x.u.a.7.7.7.7.7.4.6.oX7 v O   X    ",
"           s N.R.O.bX$.K.7.7.K.K.K.K.K.K.K.K.K.K.K.7.K.7.7.7.7.7.7.7.7.7.K.K.K.K.K.K.K.K.K.K.7.K.7.K.K.K.7.K.K.K.K.K.K.K.K.K.7.K.K.K.7.J.t.TXp u % a = = = = = = = 4 = 4 4 4 = 4 4 4 4 = = = = = = = = = = 4 = = : % f wXvXp.MXdXe.J.I.E.x.x.x.x.p.x.x.x.k.k.p.x.p.x.p.x.p.x.p.p.p.p.p.p.m.m.3.k.k.s.p.p.p.p.p.e.r.x.p.wX=.D.u.s.p.B.r.r.wX=.eX=X=X=.eX=.e.e.w.x.x.x.x.D.K.E.K.K.K.K.K.K.K.K.K.K.a.D.x.x.x.x.D.K.K.K.K.K.K.K.7.K.7.K.7.7.7.p.p.D.p.x.p.B.7.7.7.7.7.7.7.7.7.K.7.7.u.p.p.p.p.D.u.w.7.7.7.7.7.7.6.4.oX@ C i   X    ",
"           zX2.8.8.bX#.a.7.K.K.K.K.K.7.7.7.K.7.K.7.7.7.7.7.7.K.7.7.7.7.7.K.K.K.K.7.K.K.K.K.K.7.7.7.K.K.7.7.7.7.7.7.K.7.g.K.K.K.K.K.K.h.I.C.TXq w ; 1 : = = = = = = = = = = = = 4 = = = = = = = = = = = = = = = = = : # + u.*XqXcX8XeXO.B.x.x.x.x.x.x.x.x.E.x.r.w.e.e.r.p.p.p.p.p.p.p.x.s.m.m.m.u.x.x.p.p.p.p.p.e.r.p.p.w.x.p.x.D.p.D.eX=.e.e.e.e.r.e.eX=.eX=.r.x.x.x.x.DX<.E.K.K.K.K.K.K.K.K.K.K.a.D.x.x.x.x.D.KX:.K.K.K.K.g.g.7.K.K.7.K.K.p.x.w.u.q.p.g.g.g.7.7.7.7.7.7.7.7.7.7.5.p.p.w.q.D.x.u.7.7.7.7.7.7.7.4.o.9 T p   #    ",
"     X   f wXt.8.O.h.b.bX#.K.K.K.K.7.K.7.a.K.D.K.K.7.7.K.7.7.7.K.7.7.7.K.7X:.K.K.K.7.7.K.7.K.7.7.7.K.K.7.7.7.o.7.7.g.gX:.K.K.7.7.K.K.K.I.z.SXq C g $ ; = = = = = = = = 4 = = = = = = = = = = = = = = = = = 4 = < = : , 6 ; q RXzXv.B.7.v.K.m.x.x.u.E.x.x.p.x.p.w.w.w.p.x.p.p.p.p.p.x.x.x.p.s.p.p.p.p.p.p.p.p.p.p.r.s.p.p.q.x.p.x.p.w.p.e.e.eX=X=.eX=X=.eX=X=.r.x.x.E.E.K.K.K.KX:.K.KX:.K.K.K.K.K.K.K.K.K.K.K.K.K.K.gX:.K.7.K.K.K.7.K.K.K.K.K.K.K.D.I.g.g.5.7.7.7.7.7.o.7.7.7.7.7.7.7.7.u.p.x.D.D.7.D.u.u.5.7.6.6.X.X.G u        ",
"     o   k LX0.8.9.a.bX$.b.D.K.K.K.D.7.D.b.K.K.K.K.K.K.K.7.7.7.K.K.K.K.K.KX:.K.K.I.K.7.7.K.K.K.7.K.K.K.7.K.7.7.7.K.K.K.7.K.K.K.K.K.K.K.I.J.WXp.$ j $ 4 = , 4 4 = 4 = = = = = = = = = = = = = = = 4 = = = = = = = = = , 7 8 @ i u.$XtXg.x.r.v.v.CX5.v.C.w.x.x.p.x.x.x.x.p.p.x.p.x.x.x.x.x.x.x.x.x.x.p.x.p.p.p.p.p.w.w.x.x.p.p.p.x.p.e.p.r.e.eX=X=.e.eX=.wX=X=.r.x.x.DX>.KX<X<.K.KX<.KX:.KX&.KX:.K.K.K.K.K.7.K.K.K.K.KX:.K.K.K.K.K.K.7.K.K.7.a.K.K.K.7.h.7.K.7.K.7.7.7.7.7.7.7.7.7.7.7.a.K.K.7.K.K.7.K.K.7.7.7.z.4.o.XXq w +   X  ",
"         q.*X=.8.9.b.bX$.bX#X#X#X#X#.a.7.b.a.K.K.K.K.K.K.7.7.7.K.7.7.7.K.7.K.K.K.7.K.7.K.7.K.K.K.7.7.7.7.7.7.7.7.7.K.7.K.7.K.7.K.7.K.K.LXO.YXkX2 p $ < = = = = = = = = = = = = = = = = = = = = 4 = = = = = = = = = = = = < , @ O k v.$XCXqXqXaXa.MXaXa.L.E.D.E.x.x.x.u.x.x.x.x.x.x.x.u.x.x.x.x.x.x.x.p.p.p.p.p.p.r.w.p.x.x.x.p.p.w.e.p.r.=.w.w.r.r.r.p.x.p.x.x.x.xX:.EX<.K.K.KX:.K.KX:.K.K.KX:X:.K.K.K.K.K.K.K.K.K.K.g.K.K.K.7.K.K.K.K.K.K.7.K.K.K.K.g.7.7.7.7.7.7.7.7.7.7.7.7.7.7.7.K.K.K.K.7.7.7.K.7.7.7.7.z.z.o.XXk L k   o  ",
"   X   O vX=.6.O.b.b.b.bX$X$X#X#X#.KX#.K.K.K.K.K.K.K.K.K.K.7.K.K.K.7.KX#.K.K.K.K.K.K.K.7.K.7.K.7.7.7.a.7.K.7.K.K.K.K.K.K.K.K.K.K.J.J.L.K.JX .MXu v @ 7 : 3 = 4 = 4 = 4 = 4 = = = 4 = 4 = 4 4 4 = = = = 4 = = = = = = = = = = < 5 X > j q B YXlXpXk.R.N.B.I.L.D.x.x.x.s.s.EX-.s.m.s.x.x.x.x.x.x.x.x.xX-X=X=.r.p.x.l.s.x.p.x.p.x.p.w.p.x.w.rX=X=.w.w.w.w.w.x.x.x.x.x.EX<X,.KX<X&X:X<X<X:X<.KX&.K.KX<X<.K.K.K.K.K.K.K.K.KX:X:X:.D.w.E.E.K.K.K.K.K.K.K.K.K.K.K.K.K.7.K.7.K.7.7.7.7.7.7.K.K.K.K.K.K.K.K.K.K.7.I.J.z.z.6.X.M T p      ",
"   o   i wX<.O.b.b.bX$X$X$X$.K.K.K.7.K.7.7.K.K.K.K.K.K.K.K.K.K.K.b.b.b.b.7.7.7.7.7.7.7.7.7.7.7.7.7.7.a.7.7.7.7.7.7.K.7.K.7.K.KX&.J.J.I.K.BX .MXp.@ f - 4 = = = 4 = 4 4 4 = 4 = = = = = = = = = = 4 4 = = = = = = = = = = & = = = = 3 $ @ + k t B.>XCXzXvXlXg.5.u.u.r.r.l.m.m.s.m.s.m.m.s.v.x.x.x.x.x.r.p.p.p.p.x.k.3.p.x.p.x.p.x.p.p.p.p.p.p.p.p.p.r.p.x.x.x.x.x.x.x.K.K.K.K.KX:.K.K.K.K.KX<.K.K.K.K.K.K.K.K.K.K.K.K.7.K.K.x.x.x.x.E.K.K.K.K.K.K.K.K.7.7.7.K.7.7.7.7.7.7.7.7.7.7.7.7.7.7.7.7.7.K.7.K.7.K.z.J.z.z.4.O.M.z u      ",
"   o   m LX,.6.9.b.bX$X$X1X$X#.K.K.K.K.K.K.K.K.K.K.K.K.K.K.K.KX#X#X#X#.a.7.7.7.K.7.7.7.7.7.7.7.7.7.7.a.7.7.D.K.7.K.K.K.K.K.K.K.L.J.J.J.K.JX+.RXj.* m $ 7 4 < 3 = : = 4 4 4 = 4 = = = = 4 : 4 4 < 4 = = # = = = # = = = = = = = 2 - 3 3 0 1 $   > j p v.@.*XtXvXlX9.v.e.p.r.rX6.E.x.x.v.v.x.x.x.x.x.x.x.x.x.x.x.x.m.m.x.x.x.x.x.p.x.x.p.x.p.p.p.p.p.p.x.x.x.x.x.x.x.x.D.D.DX<.KX:X<X<.K.K.K.K.K.K.K.K.K.K.K.K.K.K.K.K.K.K.E.x.x.x.x.x.x.x.E.K.K.K.K.K.K.K.K.K.K.K.K.K.h.a.7.7.7.7.K.7.K.K.K.K.K.K.K.K.7.B.z.z.z.z.t.9.MXd w f   X",
"       t.*.c.6.b.a.a.bX$X$X$X#.bX#.K.K.K.K.K.K.K.K.K.K.KX#.K.K.b.7.K.K.a.7.7.7.7.7.7.7.7.7.7.7.7.7.7.a.a.7.a.K.K.K.K.K.K.K.K.K.L.J.J.I.K.aXXXb.HXu u O 7 , 3 = = * 2 3 = = = = = = = = 4 3 3 - 3 = 4 2 = = = = # = = = = # = = = : : : < 4 4 0 3 @     f m t B RX2XvXvXqXqXpXa.MXaXbXbX8.E.E.DX-.x.x.xX6.x.x.x.x.q.s.x.x.p.x.p.p.p.p.p.p.p.p.p.p.p.p.p.x.x.x.p.p.x.p.s.x.x.K.KX<X#X<X#X>.E.E.D.K.K.K.K.K.KX:X:X:.E.E.E.w.x.x.x.x.x.x.x.x.u.D.u.D.K.7.7.K.K.K.7.7.7.B.u.w.5.7.7.7.7.K.K.K.K.K.w.D.E.D.D.I.z.z.z.G.F.9.8.V C j   o",
"       vX0.X.a.b.a.7.bX$X$X$X$X$X#.K.K.K.K.K.K.K.K.K.DX#X#.K.K.b.K.K.K.D.7.7.7.7.7.7.7.7.7.7.7.7.7.7.a.a.7.7.7.K.K.K.K.K.K.K.K.L.J.J.J.K.K.IXO.BXl M i % 2 2 4 = 3 = 3 4 4 = = = = = = = * * * * = 4 * * 4 = = # = = = = # = = 4 4 = = 3 4 = 4 4 0 0 a * @ X + i m q v K U.=XpXpXkXa.M.FX8XO.L.x.xX-X6X>.x.xX6.x.E.x.x.x.x.x.x.x.p.p.p.p.p.p.x.p.p.x.p.p.x.x.p.p.p.x.x.x.x.K.K.K.K.K.KX>X-.x.EX<.K.K.K.K.K.K.K.K.x.x.x.x.x.x.x.x.x.x.x.x.x.x.x.x.K.K.K.K.K.K.K.K.7.D.D.D.B.7.K.7.7.K.7.K.K.x.s.x.x.x.D.7.I.H.z.G.I.G.N.Q.$ p   o",
" X   f wXl.o.9.b.a.DX#X$X$X1X$X$X$.K.K.K.K.K.K.K.KX<.KX#X#.K.KX$.K.K.7.7.7.K.7.7.7.7.7.7.7.7.7.7.7.7.a.a.7.7.B.I.I.K.7.K.K.K.K.L.J.J.C.K.7.K.B.CXOX4 q X 2 3 = 4 = 4 = 4 4 4 = = = 4 = = * 2 , & : : * * 4 4 = = = = = = = 4 4 = 4 4 = 4 4 3 = 4 = 4 = 4 < 4 , = @ @ O f j p v K.iXCXzXvXvX0.q.q.r.x.xX5X5.v.v.v.v.x.q.x.x.x.p.x.x.x.p.p.p.p.p.p.p.x.x.x.p.p.p.p.p.p.p.x.x.x.x.x.x.xX>.x.x.x.E.K.K.K.K.K.K.K.K.K.x.x.x.x.x.x.x.x.x.x.x.x.x.x.q.x.K.K.K.K.7.K.K.K.7.K.7.h.7.K.7.7.7.7.7.K.x.x.u.x.v.x.D.h.B.z.t.6.4.9.P.F.* u    ",
" X   j CXl.o.b.b.a.7X$X$X$X1X$X1X#.K.K.KX<.K.K.KX<X<.KX#X#.K.KX#.K.K.K.K.K.K.K.7.7.7.7.7.7.7.7.7.7.7.7.a.K.B.B.I.I.K.K.K.K.K.K.K.I.I.B.p.B.B.I.z.6Xl.@ i - 3 = = 4 = 4 4 4 4 4 = 4 = 4 4 3 3 , 9 < 4 , & < 4 4 = = = 3 = 4 4 4 , 4 4 = 4 4 4 4 = 4 = 4 4 4 4 0 4 d a a 1 - @ @ g l s v.@.$X2XuXuX9.p.p.p.s.v.A.v.C.E.E.u.p.x.x.x.x.x.p.x.p.v.x.x.x.x.x.x.x.p.p.p.x.p.p.p.x.p.x.x.xX6.x.EX>.E.K.K.K.K.K.K.K.K.K.K.x.x.x.x.E.x.x.E.E.EX>.E.x.E.E.D.K.K.K.I.I.I.I.I.K.I.7.7.K.7.7.7.K.7.K.D.x.x.p.v.C.E.K.K.I.z.z.z.7.9.W.XXt v O  ",
" o   p NX1.O.a.b.aX#.bX$X1X$X$X$.K.K.K.K.KX<.K.K.K.K.KX<.K.K.K.K.K.K.K.K.7.K.K.K.7.7.7.7.7.7.7.7.7.7.7.D.7.I.7.7.7.K.K.K.7.K.K.K.K.K.5.x.x.v.K.z.zXcX4 q @ a , 3 < 4 4 4 4 4 = 4 4 4 = 4 4 4 4 4 : 4 9 < 0 4 4 4 4 4 3 2 4 4 4 9 4 = = = 4 4 = = = 4 = 4 = 4 2 2 2 2 = 4 4 0 4 - @     f k q v.@.iXCXvXqXpXkXa.NXdXO.J.E.x.x.x.x.x.x.x.x.x.v.p.x.p.x.p.x.p.x.p.x.p.x.p.x.p.x.x.x.x.xX-.L.K.K.KX<.KX<X<.KX<.K.K.K.x.x.x.v.x.x.DX#.K.K.K.L.w.K.K.K.K.K.K.J.A.J.B.I.B.I.7.K.7.7.7.K.7.K.7.x.x.x.x.x.I.w.B.7.B.z.4.4.7.z.W.XX0 w i  ",
"     q.*Xf.o.b.b.b.KX$X$X1X1X$X1X1X1X1X<X<.K.KX<X<.KX<.K.KX<.K.K.K.K.K.K.K.K.K.K.K.K.K.7.7.7.7.7.7.7.7.K.K.J.I.7.K.K.K.K.K.K.K.K.K.h.D.x.s.v.I.H.J.AXq M i 8 9 = = - , = 4 4 = = = 4 4 4 9 4 4 4 , = , 4 : = = 4 4 4 3 2 2 4 4 d 4 = = = 4 = = = = = 4 = 4 = 2 3 4 = 4 4 4 4 4 < 4 < < * $ @ > i m t w L.*X6XqXk.N.P.Q.H.s.x.x.x.x.xX6.x.x.vX6.x.x.x.p.x.x.p.p.p.p.p.x.x.x.x.x.x.x.x.x.L.KX<.K.K.K.K.KX<.K.K.K.K.x.x.x.xX6X-.E.K.K.K.K.K.E.K.K.K.K.K.K.K.K.K.K.K.g.g.7.7.7.7.7.7.K.K.K.x.x.x.x.E.h.u.D.K.B.z.4.4.g.z.W.9X5 L m  ",
"     uX,.V.9.O.b.b.aX$X$X$X1X$X1X$X1X%X1X$X$.K.K.KX<.K.K.K.K.K.K.K.K.K.K.K.K.K.K.KX#.b.b.a.7.7.7.7.7.7.7.7.I.7.7.7.K.7.K.7.K.K.K.K.K.D.w.u.u.K.J.B.FXkXu v O 3 : = = = 4 4 4 4 : 4 4 4 4 , , = , 2 2 , 4 = = 4 4 4 4 3 2 2 2 3 0 4 = = = = = = = = = = = = 4 * = = 4 = = = = = = = = - 4 4 9 3 * @   O f m t J.$XCXzXvXl.v.n.k.x.r.v.C.C.A.v.x.x.w.p.x.p.p.x.p.p.p.p.p.p.p.x.x.x.x.x.xX>.K.L.K.K.K.K.K.K.K.K.K.K.u.E.x.E.E.x.D.K.K.K.K.K.D.K.K.K.K.K.K.K.K.K.7.K.7.K.7.7.7.7.7.7.7.K.B.D.7.B.p.w.a.w.7.7.B.z.z.6.o.z.6.aX5 W q  ",
"   + vXp.0.O.b.bX$X#X#X$X1X1X$X1X1X1X1X1X1X1X1X1.KX<X<.KX<.KX<.KX<.K.K.K.KX<.K.K.K.K.K.K.K.7.K.7.K.K.K.K.K.K.K.K.K.K.K.K.K.K.KX<.K.K.K.K.K.L.K.LX9X8.MXpXr p @ 0 = , * 4 = 4 4 b b 3 4 3 2 2 3 3 3 2 = : = = = 4 9 5 4 3 0 3 a b 4 4 4 = = = = = = = = 4 4 4 4 4 4 4 = 4 = = 4 = 3 = 4 = 2 2 0 2 0 0 a 1 %   + j s B R.*XtXt.p.3.e.u.EX>.L.C.E.x.D.x.x.u.x.x.p.x.x.x.x.x.x.x.x.x.x.x.x.DX<.K.K.K.K.K.K.K.K.KX<.K.K.KX#.KX#X,.K.K.K.K.K.K.K.K.K.KX<X<.K.K.K.K.J.K.K.K.K.7.7.7.7.K.K.I.x.x.x.x.x.w.K.K.7.7.K.7.7.7.y.z.z.4.9.= u  ",
"   i wXp.8.9.b.b.bX#X#X1X$X$X$X1X1X1X1X1X1X1X$X1X$X<.K.K.K.K.KX<.K.K.K.K.K.K.K.K.K.K.K.K.7.7.7.7.K.K.K.K.7.K.7.K.K.K.7.K.K.K.K.K.K.K.K.K.K.J.K.L.J.K.NXcXv M j # : 7 3 = = 4 2 2 2 1 * * 1 & 9 , = = & : = = 4 < 9 9 4 b 9 4 4 4 4 4 = = = = = = = = = 4 = = = 4 = = = = = 4 = 4 = = = = * 2 2 2 * 2 3 4 < 9 * $   X i p v RXsXvXqXpXaXa.FX&X#.K.K.x.x.x.x.x.p.x.p.p.p.x.x.x.x.x.x.x.D.KX<.K.K.K.K.K.K.K.K.K.K.K.K.K.KX<.K.K.K.K.K.K.K.K.K.K.K.K.K.K.K.K.K.K.7.K.7.D.7.7.7.7.7.7.7.h.u.x.x.v.x.x.K.K.7.7.7.7.5.4.y.z.y.o.oX7 u +",
"   m CXp.0.b.b.bX$X#X#X1X1X1X1X$X1X1X1X1X1X1X1X1X1X1.K.KX<.KX<X<X<X<X#X$X$X$X1X#X$.K.K.K.K.K.K.K.K.K.K.K.K.K.K.K.K.K.K.K.K.K.K.K.KX<.K.K.K.L.K.L.H.C.J.W.XXl J f 6 8 - 4 4 3 * 3 = * 2 * * = 4 = % = < = = = 4 4 < 9 4 4 9 4 4 4 = = = = = = = = = = = 4 = 4 4 = = = = = = = = = = = = = 2 2 2 2 2 2 4 4 3 - 4 5 0 < %   O i p v MX*XqXk.N.TXeX8.K.E.x.x.x.x.x.x.x.x.p.p.x.x.x.x.x.B.K.K.K.K.K.K.KX<.K.K.KX<X<.K.K.LX<.KX<.K.K.KX<.KX<.K.K.K.K.K.KX<.K.K.K.K.K.K.K.h.I.7.K.7.7.7.K.K.x.x.p.x.x.D.K.K.7.7.7.7.7.6.z.z.z.4.oX7 w i",
"   p N.U.O.b.a.K.K.KX<X1X1X$X1X1X1X1X$X1X1X1X1X1X$X<.KX<.KX<.K.LX&X&X&X<.KX<.K.K.K.K.K.K.K.K.K.K.K.K.K.K.K.K.K.K.7.K.7.K.K.K.K.K.KX<.K.K.K.K.K.K.I.J.BXX.z.TXl w + 6 < = : & , 2 * = 4 4 4 4 = = = = = = = = = = = 4 = , < 9 < 4 4 = = = = = = = = 4 4 = = 4 4 = = = = = = = = = = = = 4 = 4 = 2 * 2 = 4 = = = = = < < 4 * @   X f p B.$XCXvX0X&.LX-.E.C.x.x.x.E.x.xX6.x.x.x.x.x.p.x.K.K.K.K.K.K.KX<.K.K.K.K.KX<.K.K.K.K.K.K.K.K.K.K.K.K.K.K.K.K.K.K.K.K.K.K.K.K.7X#.b.b.a.7.7.7.7.K.D.p.x.B.K.B.7.K.7.7.7.7.7.7.7.7.4.6.oX, C k",
"   t U.U.0.b.a.7.K.K.KX$X1X1X$X1X1X1X1X1X1X1X1X$X1X1X<.KX<X<X<X<X<X:X<X<X<.KX<X<X>.K.K.K.K.K.K.K.K.K.KX<.K.K.K.K.K.K.K.K.K.K.K.K.K.K.K.K.KX<.K.K.K.K.KX#XX.WXaX1 v > * , : < , = = * * 2 = = = = = = = = = = = 4 = = = = 4 4 4 4 4 4 = = = = = = 4 = 4 = = = = = = = = = = = = = 4 = 4 = 4 : 3 2 2 2 4 4 4 = 4 4 4 - 4 4 6 3 8 7 - @ + l z.@XsXl.L.e.rX-X6.EX5X-.xX-.xX6.x.x.x.x.E.D.K.K.K.K.K.K.K.K.K.K.K.K.K.KX&.KX<.KX<.KX<.K.K.KX<X<X<.K.K.K.K.K.K.K.K.K.K.K.K.K.7.K.K.7.K.7.K.K.K.x.D.h.K.K.K.K.K.g.g.K.7.7.7.7.7.4.o.h.$ p",
"   z.*.U.9X$.a.D.K.K.KX$X$X1X$X$X$X1X$X1X$X$X$X$X$X<.KX<.KX<.KX<.K.KX<X>.K.K.K.K.K.K.K.K.K.K.K.K.K.K.K.K.K.K.h.h.hX:.K.K.K.K.7.KX<X<.K.K.K.K.K.K.K.a.7.a.KXX.FXcX* u O $ 4 6 % - < = = = = = = % = = = = = = = 4 = = = = = = = = = = = = = = = = = = = 4 = = = = = = = = = = = = = = = 4 = 4 = 2 * * - 7 % - = = = 4 = = = 3 = , : 7 *     i q.@XCXvXpXdX@XO.DX6X6X6X6X6.xX>.DX;.K.K.K.7.K.K.K.K.K.K.K.K.K.K.K.K.KX:X:X<.K.K.K.K.K.K.KX<.K.K.K.K.K.K.KX:.gX:.g.7.7.7.7.K.7.K.7.K.7.K.7.E.K.7.g.g.g.g.g.f.g.7.7.7.7.7.4.6.o.7.* t",
" X vXs.UXo.bX#X$.K.K.7X#X1X$X$X$X1X1X1X1X$X1X<X#.KX#X1X$X#.K.KX<X<.KX<X1X1X1X<X<X#X<X<.KX<.K.K.K.K.K.K.K.K.K.K.hX:X#X#.b.a.7.K.K.K.KX<.K.K.K.K.K.7.K.7.K.BXX.Z.tX6X2 v f $ 8 7 - , : = = = 4 = * * * * = = = = = = * * * = = = = = = = = = = = = = 4 = = = = = = = = = = 4 = 4 = = = 4 = 4 = 4 = 3 4 4 4 - - : 4 4 4 4 = = * = = = & : < 4 %   i q.@X*XqXb.FXOX9.EX9X6.x.xX,.K.K.KX<.K.K.K.K.K.KX<.K.K.K.K.K.K.KX:X:X<.KX&.K.K.KX<.K.KX<X<.K.K.K.K.K.K.KX<.K.K.7.K.K.K.7.7.7.7.7.K.K.K.K.K.K.g.gX:.g.7.K.7.7.7.7.7.7.7.o.o.6X2 u",
" i BXt.8XX.b.bX$.K.K.K.KX1X$X$X1X$X$X$X1X$X$.KX>.K.K.K.K.KX<.KX<.KX<.KX$X#X1X1X$X$X#.K.KX<X<.KX<.K.K.K.K.7.K.7.I.K.K.I.K.K.K.K.K.K.K.K.K.K.K.K.7.7.7.7.K.7.KXXXX.vXjXt B i @ 3 : & = = = = = = : : : = = = = = = = = = = = = = = = = = = = = = = = 4 4 = = = = = = = = = = 4 = 4 4 4 = 4 = 4 = : = 4 = 4 = - = 4 = 4 = = = = = = = = = = # < : $   f p KXCXvX9X8X5.L.KX:X:.K.K.KX:.g.g.K.K.K.LX<.K.KX<X<.K.K.KX<.K.K.K.K.K.K.K.K.K.K.KX<.K.K.K.K.7.K.K.K.K.K.7.7.7.K.7.7.7.7.7.7.7.K.7.7.7.K.7.g.g.g.7.7.K.K.7.K.7.7.7.7.o.6Xs w",
" m.@Xt.8XXX$X$X#.K.K.KX#X#X<X#X1X1X$X$X1X#X#.K.K.K.K.K.KX<.KX<.KX<X<X<.KX>X<X1X1X1X<X#X<X<X<X<.K.K.K.K.K.K.K.K.KX:.K.K.K.K.K.K.KX<.K.K.K.K.K.K.K.K.K.K.K.K.K.h.J.K.yXaXp L m X : 5 : : 4 : = = : 4 4 : = = = = = = 3 = = = 4 4 4 4 4 = = 4 4 = = = = = = = = = = = = 4 = 4 3 3 2 3 4 4 = 4 = 4 = 4 4 4 4 4 : : 4 4 4 4 = = 4 4 = = = = = = , : 4 7 8 @ f t.>Xv.S.BX>.LX<X&.K.K.K.KX:.K.K.K.KX<X<.K.KX<.K.KX<.K.K.K.KX<X<.KX<.K.KX<.KX<.K.KX<.K.K.K.K.K.K.K.K.K.K.K.K.7.7.7.7.7.7.7.7.7.7.7.7.7.7.7.K.K.K.K.7.7.K.7.7.7.7.o.4X7 C",
" q RX0.8.bX$.bX#.K.K.KX<X$X#X#X#X$X$X$X$X#.K.K.K.K.K.K.K.K.K.K.K.K.K.KX1X1X1X#.K.K.K.KX<X<X<.K.K.K.K.K.K.K.K.7.K.g.K.K.K.K.K.KX<.K.K.K.K.K.K.K.K.7.KX:X:.K.I.K.K.D.CXkXkXz.$ q + $ 4 4 < 3 , = = = 4 4 4 4 = = = = 3 = * = = = = = = = = = = = = = 4 = = = = = = = = 2 3 * 2 2 2 * 4 = - - d d 0 < , - = 4 4 - 4 4 b 4 4 4 4 = = = = = = = : = = , 4 , &   k BXCXv.AX@XfXOX<.K.K.K.K.K.E.E.E.EX6.EX>.KX<.K.K.K.K.K.K.K.K.KX<.K.K.KX<.K.K.K.K.K.K.K.K.7.7.K.K.K.K.7.7.7.7.7.7.7.7.7.7.7.7.7.K.g.g.g.g.K.K.7.7.7.7.7.7.7.7.5.7X7 L",
" u.$X1.0.b.b.a.K.K.K.KX<X$X$X$X$X$X$X1X$X$.K.K.K.K.K.K.K.K.K.K.K.K.KX<X#X<X<X<X<X<X<X<X<X<X<.K.K.K.K.K.K.K.K.K.K.K.K.K.K.K.K.K.K.K.K.K.K.K.K.K.K.K.K.K.K.x.x.x.D.a.J.K.C.nXgX2 B j X % 7 8 - 7 4 4 4 4 4 4 4 4 4 4 4 4 4 4 4 4 4 4 = = = 4 = 4 = 4 = = = = = 4 = = = 2 2 * 2 2 2 3 4 4 < a       0 - 4 , 4 4 4 4 4 b b b b 4 4 = = = = = 3 = < = 4 = * , 9 # f z.iXlXkXaXjX<X:.K.K.K.K.E.xX6X6X6X6.EX<X<X<.K.K.KX<X<.K.K.KX<X<.K.K.K.KX<.K.K.K.K.K.K.K.K.K.K.K.K.7.7.7.7.7.7.7.7.7.7.7.K.K.K.K.KX:.K.K.K.K.7.K.7.7.7.7.o.7.7X0 N",
" w.*X1.0.b.b.a.K.a.K.KX<X$X$X$X$X$X$X$X$X#.K.K.K.K.K.K.K.K.K.K.K.K.KX:.K.KX<X<X<.KX<.KX<.KX<.K.K.K.K.K.K.7.K.K.K.K.K.K.K.K.K.KX<.K.K.K.K.K.K.KX<.K.x.x.x.w.D.w.E.K.KX#.E.v.tXuXz.$ u i @ 6 7 - 3 4 : 9 9 4 4 4 4 4 4 4 4 4 4 4 4 4 4 4 4 4 = = 4 = = = = = = : 4 = 4 * 2 * 2 2 2 * 4 c -   F.2 r   4 : 4 : 4 4 4 4 4 b b 4 b 4 4 = = = = = 4 = 4 = 4 = - , 0 & X m.@XvXkX<X&X&X&.KX#.K.K.K.K.EX6X-X>.K.L.KX<.K.K.K.K.KX<.KX<.K.K.K.K.K.K.K.K.K.K.K.K.7.K.K.K.K.K.K.K.7.7.7.7.7.7.7.7.7.7.7.K.K.K.K.K.K.K.K.7.7.7.7.7.7.7.7.7X< U",
" L.*X@.c.c.bX#.a.7.K.K.KX1X1X$X$.aX#X#XO.J.J.K.K.K.K.K.K.K.KX&X<X:X:X<X<X<X<X<X<X<.K.K.K.K.KX<.K.K.K.K.K.K.K.K.K.K.D.E.E.K.K.K.K.K.K.K.K.K.K.K.7.K.x.x.x.E.D.D.x.E.E.EX:X#XO.QXaXqX< L q f X = 0 4 : < 9 < 4 , < 4 4 4 4 4 4 4 < < 0 4 4 4 = 4 = = = = = = = 3 = 4 4 3 3 3 , 3 2 3 c # X.2o2o3o- x   c , 3 : 4 4 4 b 4 b b 4 4 4 4 = 4 = 3 = 4 = 3 3 2 * 3 = : 0 X j.+XvX9.JX9X&.L.K.L.L.K.K.E.E.E.L.KX<.K.K.K.K.K.K.K.KX<.KX&.K.K.K.KX<.K.K.K.K.K.K.K.w.D.E.D.K.K.K.7.7.7.7.7.7.7.7.7.7.7.7.7.B.K.D.K.a.7.7.7.7.7.K.7.7.7.7X& T",
" N.=Xo.b.b.b.b.b.7.K.K.KX#X%X$X$.D.7.DXO.J.J.K.7.K.K.K.K.K.K.K.K.KX<X&X<X<X<X<X<.K.K.K.K.K.K.K.K.K.K.K.K.7.K.K.K.K.u.x.x.D.K.7.K.K.K.K.K.K.K.K.K.K.E.x.x.x.s.x.x.x.x.E.K.KX>X8XbXdXjXqXs.@ q f   % 0 7 < , 2 3 4 4 4 = 4 4 4 4 9 9 9 0 4 = 4 = = = 4 = = = 4 2 4 4 4 4 4 4 7 < d d   hooo3o,o=o3o% n # b & 3 : 4 4 4 4 b b 4 = 4 4 = = 4 2 3 4 4 * 2 * 3 : 4 = * : @ f BXCX6X9X@X+X&.JX&.K.D.s.LX#.K.KX<.K.K.K.K.K.K.K.K.K.K.K.K.K.K.K.K.K.K.K.K.K.K.K.x.x.q.7.K.7.7.7.7.7.7.7.7.7.7.7.7.7.K.K.K.K.u.D.7.7.7.7.7.7.7.7.7.7.7X9 T",
" W.=X$.b.b.bX$.b.o.7.KX<X<X$X$X#.K.K.KXO.J.J.K.K.K.K.K.K.K.K.K.KX<.KX<X<X<.KX<X<X<.KX<X<.K.K.K.K.K.K.K.7.7.7.w.x.x.x.q.x.B.K.K.K.K.K.7.7.K.K.x.x.x.x.x.x.x.E.x.x.x.x.D.K.KX#X#.L.v.A.n.JXuX2 K q i   $ 1 8 8 8 4 0 = : 4 4 4 b 0 9 d 0 4 4 4 4 = = 4 4 = = 4 3 4 4 4 b 4 c e a     xo%o,o=o#o+o$o,oo : 4 9 4 4 4 4 4 b b 4 4 4 = 4 = 4 4 2 4 4 4 2 1 2 = 4 4 = * = 4 # f BXCXpXaXkXgX9.L.K.L.x.LX<.K.K.K.K.K.K.K.K.KX<.KX<X&.K.K.K.K.K.K.K.K.K.K.K.K.K.x.x.p.B.K.K.K.K.K.K.7.K.7.7.K.K.K.7.K.E.x.x.x.D.K.K.7.K.7.7.7.7.7.7.7X&. ",
" T.o.b.O.b.b.a.a.7.K.KX>X#X1X#.b.7.K.KXO.J.z.I.7.K.K.K.K.K.K.K.K.K.K.KX<.KX<.KX<.K.K.K.K.K.K.K.K.K.K.K.K.7.7.u.p.x.u.D.u.u.B.D.K.K.K.7.7.D.D.x.x.x.x.x.p.x.x.x.x.x.x.E.LX>X>.D.D.x.JX5.p.sXiXvXC M u k + @ * 7 c 4 4 4 4 4 4 4 0 d d 0 4 < 4 = 4 : = = : = 4 4 c d e d 3       xooo<o,o=o+XWXLoXo=o2 A   d < = 4 = 4 4 b 4 4 4 4 4 4 = 3 * 4 : 4 3 2 * 3 = 4 = : = 4 9 # f BXuXkXkX+X&.L.I.K.E.K.K.K.K.K.KX6.x.x.K.K.K.L.J.J.I.K.I.K.K.K.K.K.K.K.K.K.7.w.u.u.5.K.7.7.7.7.7.K.7.7.K.K.B.D.B.D.w.x.x.E.D.K.7.7.7.7.7.7.7.7.7.7.I. ",
".=.b.b.b.b.a.7.7.7.7.KX<X>X<.K.K.K.K.KXO.J.B.K.K.K.K.K.K.K.K.K.KX<.KX<X<X<X<X<X<X<X<.K.K.K.K.K.K.K.K.K.K.K.K.x.p.x.K.a.h.u.s.x.D.7.7.K.K.u.p.x.p.xX6.x.x.x.x.x.x.x.x.xX6.x.x.x.x.x.x.v.v.v.A.FXaXp.I U B q j > ; > 5 5 0 9 9 9 c 5 5 d 0 0 4 b 3 a d e e d 3 #         + n Fooo-o,o;o#oXXxXxXMXSo#o3o% d 3 4 4 = 4 4 4 4 4 4 4 4 4 4 2 2 2 4 4 4 4 4 4 4 4 = 4 = = = 4 4 # h.@XvX8X8X<.L.L.K.KX<.K.KX<.K.K.x.x.x.L.K.K.K.K.K.L.J.J.J.K.K.K.K.K.K.K.K.K.h.K.K.K.K.7.K.K.7.7.7.7.K.7.K.x.x.x.x.x.x.x.K.K.K.7.7.7.7.7.7.7.7.7.oXo..",
"...bXX.b.b.a.7.7.7.K.KX#X<.K.K.K.7.g.KXO.J.J.K.K.K.K.K.K.K.K.KX<.K.K.KX<.KX<.K.K.K.K.K.K.K.K.K.K.7.K.K.K.7.K.x.p.p.7.a.7.u.s.p.u.7.7.K.K.u.p.p.p.p.x.p.x.p.x.x.x.x.x.x.x.E.x.x.x.x.x.x.v.x.A.NXaXa.MXpXqXs R v m f X @ - 7 7 4 4 < 9 9 9 e e *               h n x Iooo%o:o3o3o;o$o+XP.d.d.jXnXMoXo;o< x   c = 4 = 4 = 4 4 4 4 4 = 4 * 2 2 4 4 4 4 4 = 4 = 4 = 4 = = = , 4 @ k.$Xv.C.J.C.K.K.K.K.K.K.KX#.K.x.x.x.K.K.K.K.K.K.K.K.K.K.K.K.7.K.7.7.7.K.K.K.7.7.7.7.7.7.7.7.7.7.7.7.7.7.x.x.x.x.x.x.x.D.K.K.7.7.7.7.7.7.7.7.7.7.b.X",
".X.b.W.b.b.a.7.7.K.K.K.K.KX#.K.K.K.7.KXO.J.I.K.K.K.K.K.K.K.K.K.K.K.K.K.KX<.K.K.K.K.K.K.KX<.K.K.K.K.K.K.7.7.K.E.p.p.7.7.7.u.p.p.u.7.5.7.7.u.u.p.p.x.x.x.x.x.x.x.x.x.x.xX6.x.x.p.xX6.xX-.v.x.v.J.C.n.v.n.pX9X0Xt.& J t j g   $ 8 a 7 b e *     d l r A I.2.2ooo%o-o<o2o2o,o;o$o#oXXZXwX2XwXwXnXnXxXYo$o,.2   b 4 = 4 4 4 = 4 = 4 = 4 = 2 2 2 4 4 4 4 = 4 = 4 = 4 = = = * 2 , 0   qXC.LXeXO.K.K.K.K.K.K.K.KX>.x.x.xX>.K.K.K.K.K.K.K.K.K.K.K.K.7.K.K.w.E.w.B.K.K.K.7.7.K.7.7.K.K.K.K.K.K.E.x.x.x.x.E.x.K.K.K.7.7.7.7.7.7.7.7.7.7.a.O",
".X.0.9.b.O.a.7.7.7.K.K.KX#X%.K.K.K.K.K.K.7.g.K.K.K.K.K.K.K.K.K.K.KX<.KX<.KX<.K.K.KX<X<.K.K.K.K.K.K.K.7.K.7.7.7.7.7.7.7.7.7.7.7.5.p.p.p.f.f.f.p.p.x.x.x.x.v.v.p.x.x.x.x.x.x.x.x.xX6X6.x.x.x.x.K.w.x.x.x.s.p.k.xXiXuXC.> J u k f @ 6 $   g Aooo%o<o2o3o3o3o3o3o,o>o=o$o#o+oXXVXr Y.&.&XrXrXrXrXwXnXLoXo-o% h # 4 4 = = = 4 = = = 4 4 4 = 4 4 4 = 4 = 4 = = = 4 = = = 3 * 2 * < - + wXtXjXe.I.K.I.K.a.K.K.K.K.x.xX6.K.K.I.K.K.K.K.K.K.K.7.K.7.K.K.K.K.K.K.K.7.K.K.K.7.7.7.7.7.K.7.K.K.K.D.x.x.x.K.K.K.K.K.K.K.7.7.7.7.7.7.7.7.7.a.o",
".8.0.W.bX$.a.7.7.7.7.K.K.KX$.K.K.7.K.7.7.7.K.K.K.K.K.K.K.K.K.K.K.K.K.KX<.KX<.K.K.K.KX<.K.K.K.K.K.K.K.7.7.7.7.7.7.7.7.7.7.7.7.7.5.x.x.p.p.p.p.p.p.x.D.D.B.w.r.w.x.x.x.xX6X6.x.x.x.xX6X6X5.x.x.xX5.C.C.x.x.x.q.A.QXcXcXkXpX6 Y C v m l.<o%o:o,o,o>o;o=o=o$o$o#o+o+oXo XZXPXw.&.%.%.%.>.>.>.i.&XrX2Xxo o&o2 x   d = = = 4 = 4 = 4 = 4 = 4 = 4 = = 4 4 = = = = = = = : = * * - , 9 % j RXv.RX+XXXX.K.K.K.K.K.L.x.x.x.KX#.K.K.K.K.K.K.K.K.K.K.K.K.K.K.7.a.K.7.K.7.K.K.K.K.7.7.7.7.K.K.K.h.K.x.x.x.KX#.K.K.K.K.K.K.7.7.7.7.7.7.7.7.b.b",
".X.0.9.b.bX#.7.7.7.7.7.KX#X$.K.K.K.7.7.7.B.D.K.7.7.K.K.K.K.K.K.K.K.K.K.K.KX<.K.K.KX:X:X:.K.K.K.K.K.K.7.K.7.7.7.7.7.7.7.7.7.7.7.5.p.p.p.p.p.p.x.s.xX:.K.hX=.eX=.w.D.B.w.x.xX6X6.xX6X6.xX6X6.x.m.s.s.s.s.x.xX5X8XcXcXbXaXaXaXqXqXvo.o&o3o,o*o#o+oXoXoXo o XYXLXyXxXnXnX2X2Xr.&.%.#.; B.;.%.%.&.&X2XnXZo#o3.<   d = = = = = = = = 4 = 4 4 4 = 4 = 4 = = = = = = = = = 3 * 2 * , - 0 X tXC.R.ZX+XX.K.B.K.K.K.K.x.x.x.K.K.K.K.g.K.KX:.g.K.7.K.D.x.x.w.D.B.K.K.7.7.7.7.7.K.7.K.7.K.7.K.K.K.K.x.E.x.KX<.K.K.K.K.K.7.7.7.7.7.7.7.7.7.a.b",
".O.ZXX.b.bX#.a.b.7.7.7.K.KX#.K.a.7X#X$.a.K.K.K.K.K.K.K.K.K.K.K.KX<.K.KX<X<X<X<.K.KX<X<.K.K.KX<.K.K.K.K.K.K.K.K.K.7.g.g.g.7.7.7.5.p.p.w.a.x.s.x.x.xX:X:X:X:X:X:X;X=X>.EX6.x.xX6X6.xX6.xX6.x.xX6X-X-.x.xX6X6X5X8.F.yX8X8X8.Q.t.jo+o,o>o$o+o o o XYXUXLXAXxXnXnXnXnXnXwXwXr.i.%.#.; D i z.:.#.%.&XrX2XZo#o3.2   e 4 4 = = = 4 = 4 = 4 = 4 = = = = = = = 4 = = = = = = = 4 = = = = < $ h.#Xp.N.KX#.K.K.K.K.KX>.KX>.K.LX:X,.K.K.K.K.KX<.E.x.x.x.x.x.x.7.B.D.D.7.K.K.7.K.K.K.K.7.7.K.7.K.K.K.K.LX<X<.K.K.K.K.K.K.K.7.7.K.7.7.7.7.7.b.W",
".O.8.9.b.b.a.a.b.7.7.7.K.K.K.K.K.KX#X$.b.b.b.7.D.7.K.7.K.K.K.KX<.K.K.KX<X:X:.KX:.gX:.K.K.KX<X<X<.K.K.K.K.7.K.7.7.g.g.g.g.7.7.7.5.xX6.x.u.D.D.x.p.x.D.D.D.w.D.DX=X=.xX6.x.x.x.xX6.xX6.x.xX-X>X>X-.x.x.x.x.x.EX9.E.JX9.JX9.Y.3o+o,o>o#XZXQXUXUXKXnXnXnXnXxXxXyXyXyXwXwXr.i.%.#.;.- n   n.-.;.#.%XrXrXVo#o3.2   d 4 = = = = = 4 4 = 4 4 = = = = = = = = = = = = = = = 4 = = = = = = - $ uXaXk.7.W.K.7.K.K.K.K.K.K.K.K.K.K.K.g.K.g.K.K.D.s.x.x.x.x.x.D.h.g.7.7.7.7.7.7.7.7.7.7.7.K.K.K.K.K.K.KX<X<.K.K.K.K.K.K.K.7.7.7.K.7.7.7.7.b.W",
".0.Z.b.b.b.a.a.b.7.7.7.7.K.K.K.K.KX#X$.b.b.b.7.D.K.K.7.7.K.K.K.K.KX<.K.KX:X<X<X:X:.KX<.KX<X<X<X<.K.K.K.K.K.7.K.g.gX:.g.g.7.7.7.5.s.p.p.p.7.K.p.p.p.p.q.q.x.x.qX=X=.xX6.x.xX6.x.x.xX6X6.xX6X-X6X6.x.x.E.x.x.x.v.vX5X9X9X9. XVo,o>o#XZXUXYXLXnXnXnXnXxXxXxXnXwXyXyXw.i.i.>.#.;.- x c e > s.-.#.%.iXrXHo@o3.2   e : 4 = 4 = 4 4 = = = = = = = = = = = = = = = = = = = = = = = = = = 4 % j.$Xq.6Xo.K.D.K.K.K.K.K.K.K.K.KX:X:X:X:.K.KX#.D.x.x.x.x.x.x.7.5.D.g.g.g.K.K.K.7.7.7.7.7.K.K.K.K.K.K.KX<.K.K.K.K.K.K.K.K.K.K.K.K.7.7.K.7.b.W",
".O.0.W.b.b.a.7.a.7.7.7.7.K.K.K.K.K.K.7.a.7.a.a.b.b.a.7.7.7.K.7.K.K.K.K.K.g.K.K.K.K.K.KX<X<X<X<.K.K.KX<.K.7.K.K.K.K.g.g.g.g.g.7.5.p.p.u.5.f.K.p.p.p.r.f.B.D.D.D.DX:X;X=X-.E.E.x.x.xX6.x.x.x.x.E.s.s.s.s.s.s.x.E.x.EXiX9X9.jo$o,o#XNXRXRXxXnXxXxXxXnXxXxXxXyXwXrXwXw.i.>.%.#.; D h e e 8 h z.;.#.%XrXGo@o2.2   d : = = = = = 4 4 4 = = = = = = = = = = = = = = = = = = = = = = = & - 8 O wXv.o.IX#.K.7.K.K.K.K.K.K.K.KX:.K.7.K.D.x.u.x.x.x.s.E.D.B.7.D.B.g.7.g.7.7.7.g.g.g.g.7.K.K.K.K.7.K.K.KX:.K.K.K.K.KX<.K.K.K.K.K.7.7.7.aXX.Z",
".b.c.W.b.b.a.7.7.7.K.K.K.7.7.7.7.K.K.7.7.D.7.7.a.7.7.7.7.7.7.7.7.K.K.K.K.K.K.K.K.KX<X<X<X<X<.K.KX<.K.K.K.K.K.K.K.K.K.g.gX=.w.p.p.p.x.u.u.D.g.p.p.p.fX;.K.x.x.s.D.KX>.w.x.E.K.x.x.xX6.x.x.xX6X6X-.m.s.m.s.xX5X6.x.EX0.L. o.o,o=oXXLXRXnXnXxXxXxXxXxXxXxXxXxXwXwXrXrXr.>.%.;.- r % c c c   r.1.#.%.iXGo@o3.2   e 4 = = 4 < 4 = 4 = 4 = = = = = = = = = = = = = = = = = = = = = = & - 8 @ qXs.u.GX+.g.D.K.K.K.K.K.K.K.KX:.K.K.K.E.x.x.x.x.x.x.D.K.K.K.K.K.K.K.7.I.7.K.7.7.7.7.K.K.K.K.K.K.K.K.KX:.K.K.K.K.K.K.K.K.K.K.K.K.7.7X#X+.W",
".O.O.8.b.b.a.7.7.K.K.K.K.7.7.7.7.7.K.K.7.7.7.7.7.7.7.7.7.7.7.7.7.7.K.K.K.K.K.K.K.KX<X<X<.KX<.KX<.K.KX:X:.K.K.K.K.7.7.a.a.w.q.x.x.x.p.p.DX:.D.q.p.pX:X;.x.E.D.D.K.u.x.w.x.x.L.x.x.x.s.x.x.x.xX5X-.m.sX4X-X5.vX5X9.LX9.D. o#o2o#XZXRXAXnXxXxXxXxXxXxXxXxXnXxXxXwXrXrXr.>.%.; z h l s r s r j z.;.%.&XIo$o2 I o c 4 * 2 * = = 4 = 4 = = = 4 = = = = = = = = = = = = = = = = # = = = % - $ j RXg.9X+XX.D.I.K.7.K.K.K.7.KX:.K.7.K.w.x.x.x.x.x.s.E.a.K.D.K.7.7.7.7.7.7.7.7.7.7.7.7.7.K.7.K.K.K.K.KX:.K.K.K.K.K.K.K.K.K.K.K.7.7.7.bX+.W",
".o.O.b.b.b.b.7.7.K.K.K.K.7.7.7.7.g.7.7.a.b.a.7.7.7.7.7.7.7.7.7.7.K.7.K.K.K.KX:X:X:X,X<X<X>X>X<.K.LX<.K.KX:X:.K.K.K.D.u.w.w.p.x.x.p.w.D.K.D.p.D.u.p.K.E.B.E.E.EX>.D.D.DX-.E.L.x.x.x.D.x.x.x.x.xX-.xX-X-X5X5X5X5X9.JXi..X*o-o,o+XSXMXnXxXxXxXxXxXxXnXxXxXxXxXxXnXwXwXr.i.%.+ s s A D t D.- y p.-.%.%o.o*o< x   d < 2 2 3 = 3 4 4 4 4 = 4 = 4 4 = = = = : 3 3 4 = 4 = = = = = = = = = - ; + BXl.5X@X$X$.K.7.K.K.K.K.K.K.K.K.K.K.E.x.x.x.x.x.E.K.K.K.K.7.K.K.K.7.7.7.7.K.7.7.7.7.K.K.7.K.D.D.E.w.K.K.K.K.K.K.K.K.K.K.K.K.K.7.K.bXo.X",
".=.a.b.b.b.a.7.7.K.K.K.7.K.7.7.7.g.7.7.a.a.a.7.7.7.7.7.7.7.7.7.7.7.7.7.K.K.K.KX<.KX>X<X<X>X6X>X<X<X<.K.K.L.K.KX<.K.K.x.x.x.x.p.x.x.w.K.K.w.p.K.D.p.K.x.K.E.x.x.x.E.E.xX6.E.K.xX6.E.K.x.x.xX6X6X6X6X6X5X5X5X5X5.E.JX9..XCo,o-oXXQXnXxXxXxXxXxXxXxXxXxXxXxXxXxXnXnXwXr.i.%.+ y x t z s D D z s E.#.%oOo;o:.- m + $ 4 4 < 3 = 4 = 4 4 4 4 4 4 4 = 3 = = : 3 3 4 = = = = = = = = = = = 7 : @ tX4.C.VXoX$X#.7.K.K.K.K.K.K.K.x.x.x.x.x.p.v.x.x.w.K.K.K.K.K.7.K.K.K.7.K.K.7.7.7.7.7.7.7.7.K.KX=.xX6.KX#X#.K.K.K.K.K.K.K.7.K.7.K.K.bX@.X",
".*.e.0.b.b.a.K.K.K.K.K.K.K.K.7.7.g.7.7.7.7.7.7.7.7.7.7.7.7.7.7.7.7.7.K.K.K.KX<X#X<X0.x.x.xX6.KX<X<.KX&.K.K.K.LX>.K.K.E.x.x.x.x.x.x.x.D.u.p.w.p.u.g.K.r.D.E.x.E.x.xX-.x.x.x.D.x.x.x.D.x.x.x.x.x.x.xX5X5X5X5X5X5.vX9X0. XVo2o=o.XLXnXxXxXxXxXxXxXxXxXxXxXxXxXxXxXwXwXr.i.%.; t s x t p y z s m E.#.>o@o,o$Xm.$ v k O , a 4 4 4 4 = 4 4 4 : 4 2 2 * 2 * 2 1 3 : = = = = = = = = = = = * < @ m.&Xt.NX.X#XoXX.7.K.K.K.KX:X#.w.x.x.x.x.x.p.v.x.w.K.K.7.K.7.K.7.K.K.K.K.h.h.7.7.7.7.K.7.7.K.KX=.x.x.EX>.DX>.K.K.K.K.K.K.7.K.K.7.bXoX@..",
" U.3.9.9.O.a.a.a.7.K.K.K.KX#X#.a.g.7.7.7.7.7.7.7.7.7.7.7.7.7.7.7.7.g.K.K.K.K.D.D.D.E.x.x.E.EX>.KX<X<X<X<X>X>.xX6.x.E.x.x.x.x.x.x.p.x.w.s.p.x.w.K.K.D.q.x.x.x.x.x.x.x.x.x.x.E.x.x.x.D.E.C.CX9.E.L.J.L.vX5X5X5X5X0X9Xi. XVo,o;o.XLXnXxXxXxXxXxXxXxXxXxXxXxXxXxXxXxXwXr.i.%.: E k r A y A s j z.;.#XIo$o>o+..XuXu R t f 6 a < 3 : 4 4 4 * 3 3 2 3 3 3 3 3 2 * 3 = = = 4 = = = = = 4 = 3 5 $ h.@Xv.M.VXXX+Xo.h.K.K.K.K.E.D.x.p.x.p.x.u.u.u.D.5.K.7.K.7.K.K.K.K.K.B.E.w.B.7.7.7.7.7.g.7.K.DX-.x.xX-.x.D.D.K.K.K.7.K.7.7.K.7.K.b.bX%..",
" N.j.W.8.b.aX#.a.KX<.K.KX#X#.a.7.7.K.K.K.7.7.7.7.7.7.7.7.7.7.7.7.7.g.K.K.K.K.x.x.xX6X6.xX>X<.KX<X<X<X<X<X>X6.xX6X6X6X6.x.xX-.x.x.x.x.x.D.D.D.E.E.E.L.v.DX>X6.xX6.xX6.x.x.x.x.x.x.x.x.vX5.x.x.x.EX5X9X5X9X9X5X<X9XiXt..XCo,o>oXXLXnXxXxXxXAXxXxXxXxXxXxXxXxXxXxXxXwXr.i.%.#.; z f n x n O x.1.#.%o.o=o=XT.NXiX8XlX2 w i % < , 2 4 4 4 2 2 2 2 b b 4 4 4 3 1 2 2 = 4 = 4 = = = = = 2 4 4 : > BXvXa.VXOX XoX#.K.K.K.K.x.x.x.x.x.x.w.K.K.K.K.a.7.7.K.K.K.K.D.u.x.E.D.E.D.K.K.K.7.K.g.g.I.x.x.xX6.xX>X#.K.K.K.K.K.7.7.7.7.K.7.a.bXg. ",
" C.*.Z.9.b.a.b.a.7.K.K.K.K.K.7.7.7.K.7.K.7.7.7.7.7.7.7.7.7.7.7.7.7.7.7.7.K.K.x.x.x.x.x.xX0.KX<X<.KX<.KX<.E.x.x.xX6.x.x.x.E.x.x.x.x.x.w.K.K.K.x.x.x.K.v.B.E.xX-.x.x.x.x.x.x.x.x.x.x.v.vX5X5.J.A.JX5.JX5XiX5X6X0X9X8.Y...*o*o>o#XYXnXxXxXxXxXxXxXxXxXxXxXAXAXAXxXxXwXw.i.%.#.#.+ x O > O n.-.;.%XIo#o;o#. X8.Q.Q.QXbXv J i - 9 : 4 : 4 * 2 2 2 4 4 4 4 4 3 1 2 * = = 4 = 4 4 4 3 = 3 2 * 9   zXzXa.NXX.WX$.b.K.K.K.K.x.x.x.x.x.x.u.7.K.7.K.K.7.K.K.D.K.D.x.p.x.D.K.K.h.7.7.7.7.7.K.g.K.u.x.x.x.x.w.a.K.K.K.K.7.K.7.7.7.7.7.a.bXj T",
" w.*X&.8.bX#.b.K.K.K.K.K.K.K.K.7.7.7.K.K.7.7.7.7.7.7.7.7.7.7.7.7.K.K.K.K.K.K.E.EX>X6X6X6X0X<X<X<X<X<X<X>X6X6.x.x.x.x.xX-.E.D.D.D.x.x.x.x.w.E.K.K.K.K.E.K.E.E.E.E.x.xX5.xX5X5X5X5.v.JX8XjXjXcXcXdXbXdXbXjXj... .jX*XCXCXNo$o;o*o XnXxXAXAXxXxXAXAXAXAXxXAXAXAXAXxXxXwXr.i.%.#.;.- r   n E.;.#XFo@o-o;XV T.j. . .  T. .A v f b 0 3 4 < 3 3 3 3 b 4 b 4 4 3 3 * * 4 4 = 3 3 3 3 4 4 4 4 3 0   tXCXaXa.WX+XoX#.K.K.K.D.xX6.x.x.x.x.w.B.K.K.K.K.7.K.K.E.x.x.J.I.I.B.K.K.K.7.7.7.7.K.K.K.K.E.x.x.x.x.w.D.K.K.K.K.K.7.7.7.7.7.7.a.bXl W",
" u.$Xg.X.WX$.b.7.K.K.K.K.K.K.K.7.7.7.K.K.7.K.7.7.7.7.7.7.7.7.7.7.7.7.7.K.K.K.KX,.KX>.E.E.LX<.K.K.K.K.LX6.xX6.x.x.x.x.x.x.E.E.E.x.x.K.D.D.K.K.K.J.K.I.K.L.J.J.J.E.x.x.xX5X5.xX8X8.E.JX8X8.A.TXbXcXkXpXk.N.tXTo+o$o=o;o;o=o=o=o*oXXnXxXAXAXAXAXxXAXAXAXAXAXAXAXAXAXAXyXwXrXB.%.#.; E n D.1.:.%XIo&o:o>o*o$o*o*o$o$o#o+oXXH p   a d < 3 4 4 4 4 4 4 4 4 4 4 4 4 = 4 = 3 2 2 2 2 4 = 4 4 = 0   sXCXa.MX .WX$.7.K.K.K.x.x.x.xX-.x.D.K.q.x.K.K.7.K.K.K.K.E.x.K.K.K.7.7.7.K.7.7.7.K.K.K.K.K.K.x.x.x.x.p.s.D.K.K.K.K.7.7.7.7.z.z.7.7Xl N",
" p RXt.8.W.bX$.K.KX<.K.KX<.K.7.7.K.K.K.K.K.K.7.7.7.7.7.7.7.7.7.7.K.7.K.K.K.K.K.K.LX<X#X#X<.K.K.K.KX<.KX>.LX>.x.x.x.x.x.x.LX<X,.L.x.K.E.E.K.KX&.J.JX9.J.J.JX9.L.L.JX9.C.v.v.xX5.C.s.AX9XuXzXzXCXG.$ N.*XVo#o;o,o,o>o=o$o#o#o+o+XQXnXAXAXAXAXAXAXAXAXAXAXAXAXAXAXAXAXyXyXwXrXB.%.#.:.+.;.#.>.%o.o*o>o>o,o,o,o,o,o,o3o2o>o*oo x     d , 4 4 4 4 4 4 4 4 4 4 4 4 4 = 4 4 2 2 2 2 4 4 4 3 = <   sXCXk.M.TXOX$.K.K.K.K.K.L.LX>.D.D.K.K.D.D.K.K.K.K.KX<.K.E.s.K.K.K.K.K.7.K.7.K.K.K.K.K.K.K.K.x.x.x.p.p.p.B.K.K.K.K.7.7.7.7.z.4.7.aXl C",
" k.@Xt.XXXX$.b.K.KX<.K.K.K.K.K.7.K.K.K.7.7.7.7.7.7.7.7.7.7.7.7.7.7.K.7.7.K.K.K.K.K.K.K.K.K.K.K.KX<.K.K.K.KX>.x.E.EX6.x.x.D.K.K.E.x.K.D.C.L.L.LX8.JX8X8X9X9X9.J.J.J.I.u.3.n.xX5XiXuXm.*.% J v t r i Do@o:o,o;o$o+oXo o XYXYXYXAXnXAXAXAXAXAXAXAXAXAXAXAXAXAXAXMXMXAXAXKXyXwXrXB.>.%.%.%.>XBXrXNoXo+o+o+o+o+o+o+o#o#o$o=o>o,o:oo r   3 4 3 4 3 3 a 4 4 4 4 4 b = = = 4 2 2 2 9 < 0 4 4 = 9   rXCXk.M.SXOX$.K.K.KX<.K.K.KX#.K.K.K.K.K.K.K.K.K.K.KX<.K.E.w.K.K.K.K.K.7.7.7.7.7.K.7.K.7.K.D.x.x.x.w.x.v.D.K.K.7.7.7.7.7.7.z.z.7.7Xt w",
" f wXt.8XXX@X$X$.K.K.K.K.K.K.7.K.K.K.7.K.K.7.7.7.7.7.7.7.7.7.7.7.7.K.K.K.K.K.K.K.K.K.K.K.K.K.K.7.K.K.J.K.K.E.K.K.K.EX>.K.D.E.w.x.DX#.KX&.IX&.JX8XeX8XcXdXbXb.N.NXbXkXqXqXvXm.i R J v p k f O     yo%o2o>o$o+oXo o XYXUXRXMXxXnXAXAXAXAXAXAXAXAXAXAXAXAXAXAXMXMXMXMXMXAXKXyXwXrXrXB.iXrXrXDXwXwXKXYo o o o o o o o o oXo+o$o>o3o:.<   # 4 3 4 4 4 4 4 4 4 b 4 = = 4 = 4 = 4 : = 4 2 = = 9   rXCXk.M.ZX+X$.K.K.K.K.K.KX<.K.K.K.K.K.K.K.K.K.K.K.K.K.K.K.K.K.K.K.K.K.K.K.K.K.7.K.K.K.7.K.K.7.K.7.7.7.K.K.7.K.7.7.7.K.7.7.I.z.7.BXs v",
"   uX*.U.WX$X#X$.K.K.K.K.K.K.K.K.K.7.K.K.K.K.K.K.7.7.7.7.7.K.K.7.K.K.K.K.K.K.K.K.K.K.K.K.K.K.K.K.7.g.I.K.K.E.D.K.K.E.K.K.7.K.K.K.KX$X#X@X@XeX8X8XiXeXc.QXcXkXpXlX6.* N C v q m l f O   @ # c  .<o:o;o#oOo.XZXZXPXyXyXAXAXAXAXAXAXAXAXAXAXAXAXAXAXAXAXAXMXAXMXMXAXKXLXKXAXyXyXDXwXwXwXDXwXyXyXKXLXLXQXMXMXMXMXLXLXKXKXPXZo o+o$o>o3oo c : 5 4 4 4 4 4 4 b 4 4 4 = = 4 = 4 = 4 4 = = = = <   pXCXk.MX+X+X$.K.K.K.K.K.K.K.K.K.K.K.K.K.K.KX<.K.K.K.K.K.K.K.K.K.K.K.K.K.K.K.K.K.K.K.K.K.K.K.K.7.7.7.7.7.7.K.7.7.7.7.K.K.h.7.I.5.IX2 q",
"   t W.UXXX$X#X$.K.K.K.K.K.K.K.K.K.K.K.K.7.K.K.h.7.7.7.7.7.K.K.7.7.K.K.K.KX<X:X:X:.K.K.K.K.K.K.7.7.7.J.K.K.E.K.K.KX>.KX<.K.K.K.KX#X$X#XO.J.H.H.JX0XvXzXzXC.i.# B u p j f O     X : , 3 < 9   Io<o;o@o.o.XVXHXrXwXDXyXKXLXLXMXEXMXMXMXMXMXMXMXMXMXMXMXMXMXAXEXKXyXyXKXKXKXEXKXKXEXyXyXyXKXKXKXLXMXKXAXMXMXMXMXKXyXyXwXrXrXDXVo.o#o,o3oo   c 4 4 4 4 4 b 4 4 4 4 4 4 = 4 3 = 4 4 = 4 * = c   sXCXk.RX+X+Xo.a.K.K.K.K.KX#.K.K.K.K.K.K.KX<.K.KX<.K.K.K.K.K.K.K.K.KX<X<.K.K.K.K.K.K.K.K.K.K.K.K.K.7.7.7.7.7.7.7.7.K.K.K.g.I.z.5Xg.$ p",
"   p NXf.9.hX$.K.K.KX<.K.KX<.K.K.K.KX#.a.7.7.h.h.h.a.7.7.7.K.K.K.7.K.7.KX:X:X:X:.KX:.K.7.K.K.7.7.7.B.I.K.K.K.K.K.KX:X<.K.K.K.7.DX#X$X&X&XgXlXtXs.*.$ J v t m i 5 $ % 8 8 8 a a a - = = b   Ao1o-o+XVXVXIX3X3XBXGXHXNXKXLXLXLXMXMXMXMXMXMXMXMXMXMXMXMXMXMXKXKXyXDXDXDXDXNXyXyXyXwXyXKXAXMXMXMXMXMXLXLXRXRXMXQXKXKXDXGXBXF.>.iXrXVo+o-o3.<   b : 4 = 4 4 4 4 4 3 3 4 = * 2 3 4 = % = 4 = 9   sXCXkXaX+X$X$.K.K.K.KX<X%X#.K.KX:.KX<.K.K.K.KX<.K.K.K.K.K.K.K.gX:.KX<.K.K.K.K.K.K.K.K.K.K.K.K.7.K.g.g.g.g.7.7.7.7.K.K.B.K.G.B.7X1 N m",
"   k LXk.G.hX#.K.KX<.KX<X<X<.K.K.K.7X#X#.K.K.K.7.7.7.7.K.K.K.K.K.K.K.K.K.KX<X:X:.K.K.K.K.K.K.7.7.7.h.7.K.K.K.K.K.KX:.K.K.K.K.K.K.KX+X..E.i.@ B u p j +     @ $ - 8 8 8 7 2 7 4 4 , 4 4 & ho%o3o#o.XI.>.:.;.:X3XFXIXHXNXKXLXLXMXMXMXMXMXMXMXMXMXMXMXMXMXMXKXDXDXGXGXHXHXDXDXDXDXrXyXLXMXMXMXRXRXRXRXMXMXRXMXPXKXNXGXBX3.:.;.:.#.%XVo#o1o< x   c 4 4 4 4 3 a b 5 5 4 3 4 4 4 = = : : , = 4 @ tXCXkXbX+X$X$.K.K.K.KX#X$X1X#X<X<X<.K.K.K.K.K.K.K.K.K.K.K.K.K.KX:X:X<X<X<.KX<.K.K.K.K.K.K.K.K.K.KX:X:X:X:.K.K.K.K.K.7.K.K.J.B.6Xt C j",
"   i wXp.9.7.aX#.K.K.KX<.KX<.K.K.7.KX#.K.7.K.K.K.7.K.7.7.7.K.K.K.K.K.K.K.KX:X:.K.K.K.K.K.7.7.7.K.7.7.K.7.7.K.7.K.KX:X>.K.K.K.K.K.7.YXaX2 t h + X   @ 3 5 5 5 7 4 4 4 < 3 4 4 : = = = 0  .2o3o=oOXVX3.;.1 r y.:.:X3XIXHXNXKXPXQXMXMXMXMXMXMXMXMXMXMXMXMXKXDXGXIXFX3.>X3XBXBXGXDXNXKXLXMXMXMXRXRXRXRXMXRXSXLXPXNXHXB.>.: z r.1.#.%.&XZo#o,o% g = 0 4 4 4 4 4 4 4 4 4 4 4 = = = : > = , = 4 @ zXCXaXbXOXoX$.K.K.K.KX#.DX#X,.K.K.K.K.K.K.K.K.K.K.K.K.7.K.K.K.KX:.K.K.K.K.K.K.KX<.K.K.K.K.K.7.7.7.gX:X:X:.K.7.K.K.K.7.K.K.J.7.7Xt w f",
"   + wXp.9.7.K.K.KX<.K.KX1X1X$X#.K.K.K.K.K.K.K.7.7.7.7.7.7.K.K.K.K.K.K.K.K.KX:.K.K.K.K.K.K.K.K.K.K.7.7.7.K.7.7.K.KX>.K.D.L.K.KX#.I.H.MXt u   , 4 4 4 < = 3 = 4 4 4 3 0 4 4 = = = * 4   lo%o>o@o.X3.+.- y   l E.;.:XFXGXHXNXPXQXQXQXPXMXMXMXSXMXRXSXQXLXNXGXFX3.:.1 t.-X3.>XFXGXDXKXLXMXSXQXRXRXRXRXRXRXSXPXNXHXI.>.:.- l 6 y.;.#.%.ioXo=o2 A   c : = 4 4 4 b 4 3 a 4 = 4 4 4 : : 4 : < < @ vXzXaXbX#.I.K.K.K.K.KX$X#X#X$X<.KX<.KX<.K.K.K.K.K.K.K.K.7.K.7.K.K.K.K.KX<.K.K.K.K.K.K.K.K.K.7.K.7.g.7X:.K.K.K.7.K.D.D.K.K.I.g.GXt v O",
"   X vX@.S.5.7.K.K.K.K.KX$X1X$X$.K.K.K.K.K.K.7.K.7.7.7.7.7.K.K.K.K.K.K.K.K.KX:.K.K.K.K.K.K.K.7.K.K.K.K.7.K.K.K.K.K.KX<.E.DX#.K.K.g.F.NXu.@ f - 4 = 4 = 4 = 4 4 4 4 4 4 4 4 = = = = c   Io3o$oXXI.;.- E l 0 = s.-.;.>XBXHXNXPXSXSXTXSXSXSXSXSXSXSXSXPXNXHXBX3.:.1 A + s.1.:.>XBXGXNXLXQXSXRXSXQXSXSXSXSXTXPXHXIX3.:.1 x % 8 l E.;.#.%Xro#o3oo   4 3 4 4 3 4 4 b 4 4 4 4 4 4 4 3 = 4 4 : : + BXv.NXbXX.D.K.K.7.K.K.K.K.KX$X<X<X<.K.K.K.K.K.K.K.K.K.K.K.K.K.K.K.KX<X<.K.K.K.K.K.K.K.K.K.K.K.7.7.g.K.K.K.K.K.7.7.7.w.h.K.I.f.J.d u  ",
"     u.3Xg.7.K.7.K.K.K.KX$X$X$X$.K.K.K.K.K.K.7.7.7.7.7.7.7.K.K.K.K.K.K.K.K.KX:.K.K.K.K.K.K.K.K.K.K.7.7.K.K.K.K.K.K.K.K.D.EX#.K.C.JX .PX7.i m @ < : 4 = = = 4 4 4 4 4 4 4 = = = = = c  ooo3o+XV.%.;.- x 7 b 8 h D.1.:XFXIXHXPXTXTXUXUXUXUXUXUXUXTXTXPXHXGX3.:.1., l - g D.;.:X3XBXHXKXQXRXRXSXLXQXRXTXTXWXVXHXF.:.1 E h 8 e 8 x.1.;.#.%o.o=o% n   b 4 4 3 2 4 4 a 3 3 4 4 4 = = = = 4 < $ i.@Xu.N.TXX.K.K.7.K.7.K.K.K.KX#.K.K.K.K.K.K.K.K.K.K.K.K.K.K.K.K.K.K.K.K.K.K.K.KX<.K.K.K.K.K.K.7.K.7.K.7.7.K.7.K.K.K.D.x.h.B.J.9.K U p  ",
" o   p WX1.4.B.K.7.K.KX#X%X1X$X$.K.K.K.K.K.K.K.K.7.7.7.7.7.7.7.K.K.K.KX<.K.K.KX<X<.K.K.K.K.K.K.K.K.K.7.K.K.K.K.K.K.E.E.x.LX&X:.J.J.I.YX5XC u O 4 = 3 = 4 4 4 4 4 4 4 4 = = = # = 4 & 0o%o,oXXB.#.; E h @ % 7 @ r.1.:X3XIXHXPXTXUXYXYXYXYXUXUXUXTXWXNXHXI.>.1.1 x > g = n.-.;.:X3XGXNXLXQXSXSXUXUXUXYXWXWXVXGXF.:.1 r 8 8 e 7 h D.;.:.%XHo#o, I   d 3 2 2 3 4 4 3 3 3 7 7 7 : 4 : : 9 < $ m.&X0.QX .K.K.K.7.K.K.K.7.K.KX#.K.K.K.K.K.K.K.K.K.K.K.K.K.K.K.K.K.K.K.K.K.K.K.K.K.K.K.K.K.K.K.K.K.K.7.K.K.K.K.B.KX,.K.D.7.7.F.XXt C j  ",
" o   k LXl.o.7.K.K.K.KX$X1X$X1X$.7.K.K.K.K.7.K.K.K.K.7.K.K.K.7.K.K.K.K.K.KX<.K.K.K.K.K.K.K.K.K.K.K.K.K.K.K.K.K.K.K.x.x.x.LX&X:X&.J.JXOXOXv.@ i % 7 * = 4 4 4 4 4 b 4 4 = = = = = 4   lo%o>o..>.#.- r X l n r l + x.1.>XIXHXPXTXYXYXYXYXYXYXYXTXTXVXHXIX3.:.1 D h 0 d e > A.1.;.:XFXHXNXPXSXUXUXUXUXTXWXWXVXIX3.1 A g h n n n f n.-.:.%XGo+o,.2   e 2 2 2 3 4 a 4 4 4 2 2 2 3 3 3 4 4 0 @ qX2X&.TX .K.K.K.K.K.7.7.7.K.K.7.7.K.K.K.K.K.7.K.K.K.K.K.K.K.K.K.K.KX<.K.K.K.KX<.K.K.K.K.K.K.K.7.K.7.7.K.K.K.K.K.J.K.K.K.I.a.Q.QXt w f  ",
" X   f wXl.o.K.K.K.K.KX$X1X$X$X$.K.7.K.K.7.K.K.7.7.7.7.7.7.7.7.7.K.K.K.K.K.K.K.K.K.K.K.K.K.K.K.K.K.K.K.K.7.7.K.D.x.x.x.x.C.K.K.K.K.J.z.I.TX2 q $ 8 2 4 4 4 4 b 4 4 4 4 = = = = = 0   ro:o;o..%.: z l x D y z., x n EX3XFXHXWXYXWXYXYXYXYXYXYXWXWXVXIXF.:.1., n . d e e - l E.;.:X3XIXNXPXTXUXUXUXTXTXWXWXVXIX3.1 r r D H y E A r t.;.%Xro+o,oo   a 2 1 2 3 b 4 4 4 4 4 = 3 3 3 = 3 7 - > wXt.nX XO.K.7.K.K.K.7.K.K.K.7.7.7.K.7.K.7.7.7.7.K.K.K.K.K.K.K.K.K.K.K.K.K.K.K.K.K.K.K.K.7.7.7.K.7.7.7.a.K.K.KX&.I.K.K.K.LXX.P.NXs v    ",
" X   X vXt.4.K.B.K.K.KX#X#X#X#X#.K.K.K.K.I.L.K.K.K.K.K.K.7.K.7.7.K.K.K.K.K.KX<.K.K.K.K.KX<.K.K.K.K.K.K.K.K.D.E.xX6.x.x.x.L.K.K.K.K.I.z.L.tXu C + 6 7 0 4 4 4 4 4 4 4 4 = = = = = b   xo<o;XZ.%.: y x D., y A., D x EX3XFXHXWXTXTXYXYXYXYXYXYXWXVXHXIX3.:.1 y > e c b e e $ s.-.;.:XFXHXNXPXTXUXUXUXYXWXWXHXIX3.- x A.,., x E., y s.-.>Xro+o,o%   3 3 2 2 3 4 4 4 4 4 4 4 4 = 4 < 7 8 $ i MX9.7X+.I.D.7X#.K.7.K.K.7.K.I.7.7.7.7.K.K.7.7.7.7.K.K.K.K.K.K.K.K.K.K.K.K.K.K.K.K.K.K.K.K.7.7.K.K.K.u.D.K.KX<.K.K.K.K.K.B.b.M.P.& t    ",
"       u.*.q.hX#X#X#.K.K.K.K.K.K.K.g.J.J.J.H.K.K.7.K.K.7.7.K.7.K.K.K.KX<.K.K.K.K.K.K.K.K.KX<.K.K.K.K.K.K.K.K.s.x.x.x.x.E.KX<.K.K.K.K.K.J.zXi.* m % 8 , 4 4 4 4 4 4 4 = = = = = = b   xo1o;o..%.: y r y y s y A y s EX3XBXNXPXQXYXYXYXYXYXYXZXWXVXHXF.:.1., l c e 1 % 8 8 e h D.1.:XFXHXNXPXTXUXUXUXYXWXWXVXIX3.1 t x A y s D A s s.1X3XDo+o2o% o - 4 = 4 4 4 4 = 4 4 = = = 4 4 4 8 8 $ pX2.Q.9XO.K.DX#.c.a.7.K.K.7.7.B.7.7.7.7.7.7.7.7.K.7.K.K.K.K.K.K.K.K.K.K.K.7.K.K.K.K.7.K.K.7.7.7.7.7.7.p.w.K.K.K.K.K.K.7.D.7.G.M.N N m   o",
"   o   p SXe.9.cX$X#X>.K.K.K.K.KX#X#Xo.J.z.J.I.h.h.K.K.K.7.K.K.K.K.K.K.K.K.K.K.K.K.K.KX<.KX<.K.K.K.K.K.K.K.K.x.p.p.x.x.E.K.K.K.D.x.K.K.I.C.YXq w > 2 - 4 < 4 4 < < 4 4 = = = = = 0   ro<o>o..%.:.- n r A x y y l x.1XFXGXNXWXWXYXYXYXYXYXYXZXWXVXIXF.:.1 s ; > + l n l h 5 ; r.-.:X3XGXDXPXTXUXYXUXYXYXWXVXGXF.:.- n x A x A x i D.:XBXDo#o2oo   4 4 4 4 4 4 4 4 4 4 4 = = 4 - 4 8 8 O wXv.6.G.W.I.K.KX#.7.D.7.7.7.g.z.7.7.7.o.7.7.7.7.K.K.K.K.K.K.K.K.K.K.7.7.K.K.K.K.K.K.7.K.K.K.7.7.K.7.K.B.D.x.D.a.K.7.K.K.I.b.W.MXf C i   X",
"   o   j CX0.7X$.bX#.K.K.KX#.K.KX$X$X+.J.I.J.I.K.I.K.K.K.K.K.K.K.K.K.K.K.K.K.K.K.K.K.7.K.K.K.K.K.K.K.K.K.D.B.x.p.x.x.x.E.K.K.K.E.s.D.K.B.CXbXk.$ k $ 4 4 < 4 4 9 , 4 4 = = = = = 4   lo-o,o..%.%.: E f n y x h n.1.:XFXHXNXWXYXYXYXYXYXYXYXZXVXVXIX3.1 E f 5 n x F y A A r l f y.1X3XIXHXNXPXTXUXUXUXYXWXVXHXIX3.: D + r A r f A.1X3XBXDo#o2oo   d 4 = 4 = 4 = 4 4 4 4 4 4 4 4 4 8 8 i RXp.o.WX+.a.D.7.7.D.v.p.n.7.K.I.7.7.7.7.7.7.7.7.7.7.K.K.7.K.K.K.K.K.7.K.K.K.K.K.7.7.K.7.7.7.K.K.K.7.K.D.E.x.D.K.K.7.K.K.I.9.W.MXl v >   X",
"   X   + vXtXXX.X&X%X$X$X$X$X$X$.J.K.K.K.K.K.J.J.J.K.7.K.K.K.K.K.K.K.K.K.K.K.K.K.K.K.K.KX<.K.K.K.K.K.K.x.x.q.x.x.p.x.x.s.L.K.D.x.x.x.w.I.CXcXaXu w > , < < 4 , 9 4 4 = = = = = = = # 4o%o3oXXr.>.:.; y X 5 O h.,.:X3XIXHXPXWXYXYXYXYXYXYXYXWXVXVXIX3.1 r n A.,.,., t D.1.- E x l.,X3XBXHXNXPXTXUXUXUXUXSXPXNXGXFX3.: s X g   s.1.:XFXrXVo#o2.<   e = 4 = 4 4 4 4 = 4 4 4 4 4 4 3 4 6 qX*Xj.WX+Xo.K.7.a.D.7.7.p.7.7.7.7.7.7.7.7.7.7.7.7.7.K.7.7.7.K.7.K.K.7.7.7.K.K.K.K.K.K.K.7.K.7.K.7.K.7.7.D.E.E.D.7.7.I.A.J.IXX.WXa.3 t      ",
"         u.dXi.UX X$X$X$X$X$X%X$.J.K.K.K.K.K.K.K.7.7.K.K.K.K.K.K.K.KX<.K.K.K.K.K.K.K.K.K.K.K.K.K.K.K.K.D.D.D.x.x.x.x.x.x.DX#.D.x.x.x.E.K.JXO.NXi.i m @ 0 4 4 , 9 4 = # = = = = = = b  ooo3o#XNXr.>.;.1 x $ h D.1.>XBXHXNXWXYXYXYXYXYXYXYXYXZXVXVXIXJ E n D.2.,.,., t E.-.-.1., n yX3XBXHXNXPXTXUXUXUXUXTXSXPXHXIXFX3.1 n $ n.,.;.>XBXroXo=o- x   b 3 = : = 4 = 4 = 4 4 4 = 4 b a 3 g JXl.N.IXO.I.7.7.K.7.7.5.p.5.7.7.7.7.7.7.7.7.7.7.7.7.7.K.7.7.K.K.7.K.K.K.7.K.7.7.7.7.7.7.7.7.7.7.7.7.7.K.a.K.K.K.7.K.B.H.A.J.W.8Xa W p      ",
"     o   m NXl.RX X&X%X,X$X&XoX+.I.K.K.K.K.K.7.7.K.K.K.K.K.K.K.K.K.K.K.K.K.K.K.K.K.K.K.K.K.K.K.K.K.K.K.K.K.K.p.w.w.x.w.x.DX#.D.x.x.s.w.K.LXO.R.JXz B + , 4 = < 9 = = = = = = = = 3 c : Io2o*oXXrXB.>.:.1 r y.1.:X3XBXGXDXNXPXMXRXUXYXYXYXYXWXVXVXI.:., A y y E.,., t E.1.- D x x D.:XBXHXNXPXQXRXRXQXLXKXyXDXGXGXBXFXF E n E.:.:X3XGXDo+o,o% g 4 c 4 , = - : < = 4 4 , = < < 4 0 $ p.iXaXa.K.I.7.K.K.K.7.7.7.p.5.7.7.7.a.a.a.a.7.7.7.7.K.7.7.7.7.K.7.7.7.7.K.K.7.7.K.7.7.7.7.7.7.7.K.7.7.7.7.K.K.K.K.7.K.I.B.J.IXX.9Xp C j   o  ",
"     X   f wXv.MX$XOXoX$.K.KX#X$X$X$X$.K.K.K.7.a.7X#.K.K.K.K.K.K.K.K.7.K.K.K.K.K.K.K.K.K.K.K.K.K.K.K.K.K.7.7.7.K.K.K.K.K.K.K.a.D.x.x.x.D.I.JXcXdXb.d q X 4 , = & , = = = : 4 d 0       no&o;o+XDXrXB.>.>.;.;.>X3XFXIo.oOo+o+o+oXXTXUXYXYXYXWXVXVXIX3 E x G y r y., y., E t y F x y.:XBXGXDXKXQXSXTXLXVoXoXo+oXo.XIX3X3.:.+.:.>XFXGXwXZo$o3.2         4 d 4 = = = = 4 , : 4 < > > g BXt.M.NX$.b.K.7.7.7.7.7.7.7.7.7.7.7.7.7.7.a.b.b.a.7.7.7.7.K.7.7.K.7.7.K.7.7.K.7.7.7.7.7.7.7.7.7.7.7.7.7.7.K.K.K.K.7.7.7.K.g.7.b.9Xl v +   X  ",
"           vX4.MX@X+X$X$.K.DX#X$X$X$X$.K.K.K.K.K.7X#X#.K.K.K.K.K.K.K.K.K.K.K.K.K.K.K.K.K.K.K.K.K.7.7.K.K.7.K.K.K.K.K.K.K.K.K.K.D.x.x.x.x.CXOXcXc.QXl R i % 2 - = = - = 4 b       h r x Fo%o>o$XWXwXDXGXrXBXBXB.iXHo+o=o>o>o>o>o;o#o XRXUXTXWXVXVXGX3.1 x n F A s s s x y D., x r.-.>XBXGXwXEXLXLXWo+o$o=o;o;o;o;o#XVXBXFXIXIXGXDXDXKoXo=o,oo.< F x l     @ b 4 = = = 4 = 8 3 7 @ qX2X0XaXb.I.b.a.7.7.7.7.7.7.7.7.7.7.7.7.7.7.7.a.a.a.7.7.7.K.7.K.K.7.7.7.D.7.7.7.7.7.7.7.7.7.7.7.7.7.7.7.7.7.K.K.K.K.7.K.K.K.D.a.aXX.j q        ",
"           s W.M.U.YXoX$.K.7X#X$X$X$X$.K.7.K.7.7.7X#.K.K.K.K.K.K.7.K.K.K.K.KX:X:.K.K.K.7.K.K.K.K.K.7.7.K.K.7.K.7.7.K.K.K.K.K.K.E.x.x.x.x.v.JX&.HXOX9Xt u > 7 - - % 6 e     n Iooo%o%o-o-o=o=o#XWXyXKXDXDXDXG.iXVo#o*o%oOooooooo@o=o$oXXTXYXWXNXDXGX3.:.1 n h y.< A n y.< A n j D.1.>XBXrXwXyXKXyo+o;o=o@ooooooo@o&o$oXXIXGXGXDXDXwXNoXo$o$o=o;o,o:o%oo A h   4 4 * 4 = 2 8 8 $ j RXi.aXX.I.gXXX#.7.7.7.7.5.7.7.7.7.7.7.7.7.7.7.g.g.7.7.7.7.7.7.7.7.7.7.h.a.h.h.K.7.7.7.7.7.7.7.7.7.7.7.7.7.7.7.K.7.7.7.7.7.a.D.a.6X& N m   #    ",
"       #   n LXk.PX#X$X$.BXOX+X&X$X$X#X$.a.D.K.K.K.K.K.K.K.K.K.K.K.K.K.K.KX:X:X:X:X:.K.K.K.K.K.K.7.K.7.K.7.K.7.KX:.K.K.K.K.K.K.E.x.x.x.x.x.x.K.KX#X@Xp.* p $ 7 * 7 4   nooo<o3o3o,o;o*o$o+oXXYXAXMXLXKXKXyXDoXo$o*oo., F D E E.-o@o>o*oXXKXPXEXDXGXF.:.1 E h > r A G F r f + y.-.;.>.iXrXwXwXro+o=o*XJ., D D D E.2o&o=oOXHXGXDXwXwXwXYo oXoXo+o#o*o>o3o3o% I     7 = , = 6 8 + BXv.6XX.h.K.7.7.K.K.z.7.7.a.7.7.b.b.b.b.a.b.7.7.7.7.7.7.K.K.K.7.7.7.7.7.7.h.7.7.7.7.g.g.I.7.7.7.7.7.7.7.7.7.7.K.K.K.K.7.B.J.B.h.b.yX1 w i   X    ",
"       X   h wXp.P.b.cX$.KX#X$X$X$X$.aX$X#.K.K.K.K.K.K.K.K.K.K.K.K.K.K.K.KX<X:X:X:X:.K.K.K.K.K.K.K.K.7.K.7.K.7.gX:.K.K.K.K.K.K.E.x.x.x.x.x.x.K.KX#X..MXp.$ k $ 5 .   Fo%o3o>o=o$o+oXoXXYXRXAXAXMXMXMXMXMXwXZo=o-oo G F I G H H H.2o%o>o$XVXyXyXwXrXB.>.:.1 y g > h r l O > r.-.+.#.%.iXrXw ZXZo=o%.2 H I I I G G Hooo&o=oXXrXwXwXwX2XwXWXYo o oXoXo+o#o=o,o,oo g X 7 = 3 7 ; t.jXa.WXXX#.K.7.7.7.K.z.7.7.O.a.a.a.b.b.b.b.b.7.7.7.7.7.K.K.7.7.7.7.a.a.a.K.7.7.K.7.7.g.7.7.7.7.7.7.7.7.7.7.7.7.7.K.K.K.7.I.B.IXX.h.FXs u O   X    ",
"             uX9X..hX$X1.KX#X$X$X$X$.KX$X#.7.K.7.K.K.K.K.K.K.K.K.K.K.7.K.KX:.K.K.7X:.K.K.K.K.K.K.K.7.7.7.K.K.7.g.g.K.K.K.K.K.KX>.x.x.xX-.x.x.K.KX$.TXaXkXv J i # hooo3o,o$o+o XKXxXxXxXAXAXMXMXEXAXMXAXEXNo#o>oO H G F F F H.2.2.1XJo&o;o+XwXxXwXr.i.>.:.;.- s > 7 @ 6 7 l D.+.+.#.%.i.& ZXHo$o&.2 A I G G F.<.2.2.,ooo;o$XHXwXwX2X2 Z Z ZXwXwXNXWo o oXo#o*o3oo h & 4 9 $ m YXk.M.I.KXX.g.D.D.7.K.B.7.7.a.b.b.7.b.9.b.b.b.7.7.7.7.7.7.K.7.7.7.K.b.b.b.7.7.7.7.7.7.g.g.7.7.7.7.7.K.7.7.7.7.7.7.K.K.K.K.I.IXXX+X+X@ U p   o      ",
"             p UXl.aX$X$X#X+X$X#.K.a.K.K.K.K.K.K.K.K.7.K.K.K.K.K.K.K.7.K.K.K.K.K.K.K.K.K.K.K.K.K.K.K.K.7.7.7.KX:.g.K.K.K.K.K.K.D.x.x.x.C.C.L.K.D.I.JXfXf.LXt v hooo2o;o#oXXKXwXEXEXEXEXKXPXEXEXEXEXEXAXxoXo;o%.2 G I F F.<ooo&o&o%XJoOo=o$XNX2X2Xr.i.>.#.;.- E l 8 e e g y E.+.;.#.%.& Z.&o+o;oo H G I F Iooo%o%o%ooXJo%o;oXXwX2 Z.&.&.i.&.&.&.&.&XrXNo o o+o$o,oo c a $ i.@Xu.FXfX&X,.K.K.K.J.I.J.z.7.a.b.b.b.b.7.a.7.a.a.7.7.7.7.7.7.7.K.7.7.7.7.a.a.a.a.7.7.7.7.7.7.7.7.7.7.7.7.7.7.7.7.7.7.7.7.K.K.K.B.h.T.RXt w i   X      ",
"         X   f wXl.9X+X+X+X&.b.K.7.7.D.K.K.7.7.7.K.K.K.K.K.K.K.K.K.K.7.K.7.K.K.K.7.K.K.K.K.K.7.K.K.K.7.7.7.7.g.7.7.K.K.K.K.K.K.E.x.x.x.D.K.KX#.K.K.IX$X&X%X6.*ooo2o=o+XVXwXwXDXEXEXDXNXyXyXEXEXEXCXCXsXwo#o-XJ F G I G.2o%o-o:o:o>o-o@o@o=oX ZXr.i.i.>.%.#.+.- y g e > s E.+.+.#.%.%.& VXHo=o-.2 F F F Fooo<o,o:o:o,o%ooo=o$XD Y.&.&.&.&.&.&.%.% R.# M RXGo oXo$o3.2   i JXvX0XOX .J.K.K.D.x.C.J.J.z.7.a.O.b.a.a.5.7.4.7.7.7.7.7.K.7.7.K.7.7.7.7.7.7.7.D.7.7.7.7.K.7.7.7.7.7.7.7.7.7.7.7.7.7.7.7.7.K.K.K.K.b.RXdX2 q   X X      ",
"               uX-.YXXX+X+Xo.c.a.7.K.K.K.K.7.K.7.K.K.7.K.K.K.K.K.K.K.K.K.7.K.K.K.K.K.K.K.K.K.7.K.K.7.K.K.K.K.7.7.K.K.K.7.K.K.K.E.x.x.x.D.K.KX#.K.K.IX+X&Xi..oXo,o>o#XWXrXGXGXGXGXGXGXGXGXDXDXwXCXwXwX2XVo=o%., I G G.2o%o:o-o:o:o:o>o&o@o=o$Xr Z.&.&.%.%.#.+.+.- s + r E B.+ K.# R.%.& Vo+o,o@ G G F F.2o-o:o:o:o:o:o:o@o@o=o. V.&.&.&.&.$.% R.#.#.;.#.@.#XBXZoXo=o< F BXvXkXfX.XeXO.K.K.K.E.A.I.z.B.7.b.b.7.7.7.7.7.7.7.7.7.7.7.7.K.7.7.7.K.a.7.7.7.7.K.7.K.7.7.7.7.7.7.7.7.7.7.7.7.7.7.7.7.7.7.7.K.g.K.D.a.NXl L m   #        ",
"               m NX9XXX XoXoX#.7.a.K.K.K.K.K.K.7.K.K.7.K.K.7.K.K.K.K.K.K.K.K.K.K.K.K.K.K.K.K.K.K.7.K.K.K.K.7.7.K.K.K.K.7.K.K.K.K.E.D.E.x.E.LX$.K.KX#X..L.oXEo=o,o$o XDXGXGXBX3X3X3XB.iXrXrXrXwXwX2X2 YoXo;oo F I G.<o%o:o:o:o:o,o,o>o-o-o-o;o. Y.&.&.%.%.#.@.+.+ E s D.-.+ J.@.# R V VXro$o,XJ D I F.<o%o:o:o<o<o<o<o,o-o&o=o+ V.&.&.&.$.%.#.# K.+ E B.@ K K.%XZo+o,o-Xz.UXfXbXbX+X#X#.K.K.I.A.z.z.u.7.a.a.7.7.7.7.7.7.7.7.K.7.7.K.7.7.K.K.a.a.a.a.b.a.K.K.K.7.7.7.7.7.7.7.7.7.7.7.7.7.7.7.7.7.7.K.I.L.L.I.F.MXu w +   X        ",
"           X   f wXuX.Xb.ZX+XX.b.cX#.7.K.K.K.K.K.7.K.K.7.K.7.7.K.K.K.K.K.K.K.K.K.K.K.K.K.K.K.K.K.K.K.K.K.K.K.K.7.K.K.K.K.K.K.K.K.K.K.K.L.D.KX$X#.KXXXd.B To#o,o*o+XNXGXGX3.>.>.:.#.%.>.i.iXrXrXrXrX2.&o#o*.2 F.< F.2o:o:o<o<o<o<o,o,o>o>o;o;o+ Z Y.&.%.% R.# K J.+.+.+.+ K.@ M R Q V SXVo=o-.2 F I Fooo<o:o<o<o<o<o<o,o>o*o$o$Xr Y.&.$.% R.@ K.+ E k s.+ J K KXBoXo&o3o+ TXgX+XcX+X&.J.K.7.J.z.JX#.7.7.D.7.K.7.7.7.7.7.7.7.K.K.7.7.7.7.K.K.7.7.7.a.a.a.7.K.K.K.7.7.7.7.7.7.7.7.7.7.7.7.7.7.7.7.K.K.J.J.J.a.aXkX* u              ",
"                 q.*XlXaX X+X+Xo.b.a.K.I.z.J.I.K.K.K.7.K.7.7.K.K.K.K.K.K.7.K.g.h.K.K.7.7.K.K.K.K.K.K.7.7.K.K.7.K.K.K.K.K.K.K.K.K.K.K.K.K.K.KX$X&X+.WXb.XXCo-o,o#XV.iXB.>.>.;.; t E.#.#.%.>.&.&.iXr ZXVo*o@., F I Gooo<o:o<o<o1o1o1o,o,o:o>o>o$Xr S V V Q R R.#.#.#.#.#.#.# M R Q V V PoXo;o@.< G I.<o%o<o<o<o1o1o1o1o,o,o*o$o=o. V.$ Q R.@ J.+ E s X h z.+.+ J MXVo#o1o=X2.zX&XeX+X+XO.I.a.J.Y.H.aXX.7.7.7.7.7.7.7.7.7.K.7.7.K.7.7.7.7.K.K.K.7.7.7.7.7.7.7.K.K.K.7.7.7.7.7.7.7.7.7.7.7.7.7.7.K.K.K.J.J.z.z.9Xk L m   X          ",
"             X   k LXv.N.T.0Xo.W.W.I.B.J.B.J.I.g.K.K.K.K.K.K.7.K.K.K.K.7.7.K.I.I.B.B.7.7.K.K.7.K.7.7.K.K.K.K.7.7.7.K.K.K.K.7.7.K.K.K.K.K.K.KX#XO.H.WXk. o.o,o:o+Xr.i.>.%.;.- D g r.-.+.#.%.%.&.&.& ZoXo*oo G G G.<o%o<o<o<o1o1o1o1o1o,o,o:o>o=XH S V V P Q R R R R R R R R Q V V V V Qo+o=oo G I G.2o-o<o<o<o1o1o1o1o<o,o:o-o;oO Q.$ R.# K B.- y h e X r E.+ J.@.%oXo*o>o...Xj.F.HXOXOXOX#XX.G.I.IX#.7.7.7.7.7.7.7.7.7.7.7.7.7.7.7.K.7.7.7.K.7.7.7.7.7.z.z.B.K.g.7.7.7.7.7.7.7.7.7.7.7.u.5.B.B.I.B.J.z.z.t.9Xu v +   X          ",
"             X o O vXz.R.RX..ZXO.ZXX.D.J.z.z.I.h.K.K.K.K.7.7.7.K.K.K.7.7.7.K.I.L.6.7.7.K.K.K.K.K.7.K.7.7.7.7.K.7.7.K.K.7.K.K.K.K.K.K.K.K.K.J.K.K.A.ZXk. o+o,o&XZ.%.>.#.;.+ E n % + y.-.+.#.%.%.$.&.&o+o&.2 F I F.2o&o:o<o<o1o2o2o2o1o1o<o,o>o;o. P V V V V V Q Q Q Q P V V V S S S N.io$o&.2 G I Gooo<o<o<o1o1o2o1o1o1o<o,o-o>o@ V R M K J B D n 8 e 0 g y.+ J K MXVo#o-o+. Xb.F.F.H.IX+.G.7.aX#X#.a.7.a.7.7.7.7.7.7.7.7.7.7.7.7.7.7.7.7.K.7.K.7.7.7.7.7.7.B.B.h.7.7.7.7.7.7.7.7.7.7.7.p.p.v.C.z.z.G.J.z.aX# W q     .          ",
"               o   s UXk.R.ZXoX+X+X+XO.J.z.J.J.J.J.K.K.7.7.7.7.K.K.K.K.K.K.K.h.K.K.7.7.K.K.K.7.K.K.7.7.K.K.K.7.K.K.K.K.K.K.K.K.K.K.K.K.K.K.J.K.K.A.YXa.oo#o>o+Xr.%.#.@.+.- x > e : l z.+ J.# R.% VXro$o&., G I Fooo-o-o:o<o1o2o2o2o2o2o1o<o>o>oX N V V V S V V V S V V V V U U S S NXGo=o@., G I Hooo<o<o<o1o1o2o2o2o1o1o,o:o>o$XB M.# J B E x 5 e e c : l E.+ K L.ioOo&o$X4.XXbXcX XoX+.J.7.7.D.7.7.7.7.7.7.7.7.7.7.7.7.7.7.7.7.7.7.7.7.7.7.7.7.7.7.7.7.h.B.B.7.7.7.7.7.7.7.7.7.7.7.7.p.p.v.z.J.z.J.J.J.4Xt w i   X            ",
"               X # h wXpXa.ZX.X X+X+X+XOXOXX.J.J.J.B.7.I.7.7.K.K.K.K.K.K.7.7.7.7.7.7.7.K.K.7.K.K.7.K.K.7.7.7.K.7.7.K.7.K.7.K.K.K.K.K.K.K.K.J.K.a.F.H.NX7o$o=oX.&.#.@.+.+ D h 8 e e O r E J.@ M R RXGo=o%., I G Fooo-o-o:o<o<o1o2o2o2o2o2o<o:o>oX N P V V S V S P V V P S S S U S S NXVo;o@ H I G.<o%o<o<o<o<o1o2o2o2o2o1o<o:o>o*XI L.@ J B z l $ < 5 5 > > x.+ J K Ro.o$o=XE..XbX8X XOXX.I.7.7.K.7.7.7.7.7.K.7.7.7.7.7.7.7.7.7.7.7.a.7.7.7.K.7.7.K.K.7.7.7.B.7.7.7.7.7.7.7.7.7.7.7.7.7.u.v.v.J.J.J.G.I.J.C.* q                  ",
"               #     q.dXp.TX.X.XeX+X+.J.J.KX#.a.K.K.7.7.7.K.K.K.K.K.K.K.7.7.7.K.7.7.K.7.7.K.K.7.K.K.K.K.7.K.K.7.7.K.K.K.K.7.K.K.K.K.K.K.K.JXOX+X+.Y.8Xzo=o*o. R.# J.+ E r # e e c 5 h z.+ J K.# LXIo;o@., I I Gooo:o:o:o:o<o1o2o2o2o2o2o<o:o;o+ N P V V S P Q Q Q Q Q Q P V S S S Lo.o;oO H I G Iooo%o<o<o<o1o2o2o2o2o1o<o:o>o*XI L K J.- s O g l n r n h i z J K MXIo#o;XW. XkXcX+.WXo.h.7.K.K.7.7.7.7.7.7.7.7.7.7.7.7.7.7.7.7.7.a.a.D.7.7.7.K.K.K.K.7.7.7.K.K.7.7.7.7.7.7.7.7.7.K.7.J.z.J.J.J.J.JX#.GXu C k   X              ",
"                     i CXv.WX@X@X.X+X+XeXOX,X$.K.K.K.7.7.K.K.K.K.K.K.K.K.K.K.7.7.K.K.7.7.K.7.7.7.K.K.K.K.K.K.7.K.K.K.K.K.K.K.K.K.K.K.K.K.K.JXOX+.W.T..XPo;o&XZ M K.+.- y + $ g h i h O r E J J.@ KXIo>o@ E H I G.2XJooo-o:o<o1o2o2o2o2o2o<o:o>o# P Q Q Q Q R R R R M R R R R P P V Lo.o>oo F I G I G.2o%o<o<o<o1o2o2o2o2o<o:o;o=XV L K.+ z j r y D s t D y r m B K MXIo#o;o.. XkXcX+XXX+XX.7.B.7.7.7.7.7.7.7.7.7.7.7.7.7.7.7.7.7.7.a.a.7.7.K.K.K.K.K.K.K.7.K.7.K.K.7.7.7.7.7.7.7.7.7.K.J.J.J.J.J.J.BX .TXs u O X                ",
"                 X     uX2XiXdXb.UXoXOX+X+X$X$.K.K.K.7.K.K.7.K.K.7.K.7.K.K.7.7.7.7.K.7.7.K.7.K.K.7.K.7.7.7.7.7.K.K.a.K.7.7.K.K.7.7.7.K.K.K.J.G.W.W.T. XYo;o&XV M K.+ D l g n x r x y n f y.+ J.@ CXIo>o@., H H H G G Hooo<o<o1o2o2o2o2o2o<o:o>o# Q N Q Q R R M M M M M M M R R Q V Lo.o,oo H I I H.< H.2o%o1o<o1o2o2o2o1o<o:o;o=o. L K.+ t m D E E s t E E z r z K MXFo@o;oX. XkXcX .W.WX+X#.7.7.7.7.7.7.7.7.7.7.7.7.7.a.b.b.7.7.7.a.a.7.7.7.7.K.K.K.7.K.7.7.7.7.7.7.7.7.7.7.7.7.7.7.7.J.z.J.z.z.z.G.NXg N m                    ",
"                   o   k CXlXbXb.VX XoX+X+X$X$X$X$X#.D.K.7.K.7.7.K.K.K.K.7.K.7.7.7.7.7.7.K.K.7.7.7.7.7.K.7X#.a.K.a.7.7.7.7.7.7.7.K.7.K.K.K.I.W.W.W.Y..XYo;o&o. K J.+ s n y z D s t E E y m E J.@ CXIo>o@., H H H.<.< F.2o:o<o<o1o2o2o2o1o<o:o>o# V Q R R M M.@ K K J K K K M M N Q Lo.o,oo G G G H H.< Fooo1o<o1o2o2o2o1o<o:o;o=o. L K B t t t t D s y z t x s z K M.>o@o;oX. Xk.V.Z.W.S.WXX.b.a.7.7.7.7.7.7.7.7.7.7.7.a.b.b.b.b.b.a.7.K.7.K.7.K.K.K.7.7.7.K.K.7.7.7.7.7.7.7.7.7.7.K.7.7.K.K.J.J.G.W.NXv v +   X                ",
"                   X o X uXsXj.RX.X X+X+X+X$X$X$X$X#.K.K.K.K.7.K.7.7.7.K.7.7.7.7.7.7.7.7.K.K.7.7.7.7.7.7.K.b.b.b.b.7.7.7.7.7.7.7.K.K.7.K.g.KX+.WXo.Z..XWo-o*o. L J B y t z E D p t E D z t B K K CXIo;o@., I I H H.< F.2o:o<o<o1o2o2o2o1o,o:o>o# Q Q R M.@ K J.+ E p E J J K M M R Lo.o,oo G G G H H.< FXJo<o<o2o2o2o2o1o<o:o;o=o. L K.+ z m y t t p s t y s m z K MXFo@o;oX. Xp.V.Z.Z.W.W.b.b.a.7.7.7.7.7.7.5.7.a.a.a.a.b.b.b.a.b.K.K.K.K.7.7.7.K.7.7.7.7.K.7.7.7.7.7.7.7.7.7.7.7.7.7.K.K.K.C.JXX.WXk W q                      ",
"                         k CXv.N.VX.XoX+XoX$X$X$.bX#.7.7.K.K.K.7.K.7.K.K.7.7.7.7.7.7.7.K.7.K.K.7.7.7.7.a.b.b.b.b.b.a.7.7.7.7.7.7.7.7.7.K.K.KX+X+Xo.S.8Xzo-o-oO K J B t y y t z s t y s x t B K K KXFo=o@., G H H.<.<.<ooo<o<o1o1o2o1o1o1o,o>o>o@ N R M M K J B E s O r B B J K M R Lo.o,oO H G I H H H.<o%o<o<o1o2o2o2o1o<o:o;o=XV L K J.+ s j y A t y A s i t.+ K MXIo#o>oX. Xf.U.0.0.G.W.b.b.a.7.7.K.7.7.a.a.b.b.b.b.b.b.O.a.7.7.7.7.K.K.7.7.7.7.K.7.7.7.7.7.7.7.7.7.7.7.7.7.7.7.7.K.K.K.K.J.WXX.8Xl w f   X                  ",
"                           vX7XaXkX@X X+X+X+X$X$X#.K.K.K.7.K.K.K.7.7.b.b.bX$.7.K.K.7.K.7.K.7.7.7.7.b.b.a.a.a.b.b.b.7.7.7.a.a.7.7.7.bX#.7.K.IXo.Z.9.SXaXto*o,oO K J.+ z k y z t r s y x n m B K.@ L.>o$o&.2 F G G.<.2ooo-o<o<o1o2o2o1o1o<o,o>o>o+ N R M.@ J B E y h 8 f y B J K M M Lo.o,o@., G G H G.<ooo:o<o<o1o2o2o2o1o,o:o;o$XH L M K J E r f r A A n + s E J K MXVo&o>o . Xk.S.0.0.9Xo.bX#.K.7.7.7.7.7.7.7.7.b.b.b.b.b.b.b.a.7.K.K.K.7.7.7.7.7.7.K.7.7.7.7.7.7.7.7.7.7.7.7.7.7.7.7.KXXX+Xo.G.9X@.* q     X                  ",
"                       X   n LXk.M.YX.X@X+X+X+X$X#.K.K.K.K.K.K.K.K.7.b.b.bX#.7.7.7.K.7.7.K.K.7.7.7X#X$.b.b.b.b.b.b.7.7.7.b.b.7.7.7X#X$X$XXX+X+.Z.0.P.R..o#o,o@.# J J.+ s i x D z z y l i z.+ K.@ M.%o#o&.2 F F F.2o%o<o:o<o<o1o2o2o1o1o<o:o-o>oO N R M K J B z l 6 e ; l E B J K M LXIo;o#., F G G.2o%o:o:o<o1o1o2o2o2o1o,o:o;o$Xr N M M K.+ E l O h h + r E.+ J L Ro.o=o;XE...U.P.S.0.WX+XX.K.a.a.7.7.7.o.7.7.7.b.b.b.b.b.b.b.7.7.K.K.K.K.K.7.7.K.K.7.7.7.7.7.7.7.7.7.7.7.7.7.7.7.7.K.KXXX+X$.9.XXt w h                        ",
"                         X X uX9Xi.W.UXoX+X+X+X+X#.K.K.K.K.K.K.7.K.KX#.D.K.K.K.K.7.7.K.K.K.7.7.7.7X#.bX$.b.b.b.b.b.7.7.5.a.b.7.7.7.b.bXXX+X+X+Xo.S.QXf. o+o,o&X3 K K.+ E r > n y x h f y B J K M M Qo+o*XJ F F F.2o%o:o:o<o1o2o2o2o1o<o,o:o;o=o. L.#.@ J B E r ; e c e ; x.+ B J K KXBo*o$.2 F G Fooo:o:o<o<o1o2o2o2o1o,o,o-o;o# V N R M.@ J.+ t h > > l z B J K L.%o+o-o$.q.8.R.P.R.0.0.Z.ZXoX$X$.b.a.a.a.b.b.b.b.b.b.a.a.a.b.7.D.K.K.K.7.7.K.K.K.K.7.7.K.7.7.7.7.7.7.7.7.7.7.7.7.7.K.KXXX+.W.ZX0 U p   o                      ",
"                         X   j CXv.5X.XoXoXoX+X+X&.J.J.K.K.K.K.K.7.K.a.K.7.K.K.K.7.K.7.K.7.K.7.K.a.b.b.b.b.b.b.O.a.7.7.7.7.a.7.7.7XO.ZX+.YX+Xo.W.Q.V.R..XWo>o-o. K K J B z l > h g + s E B K M M R NXVo*oO H F G.<o%o:o:o<o1o1o1o1o1o,o:o-o;o$XI L M K J B z h 8 d e e 6 l D B J K K Mo+o*XJ F G Fooo-o:o<o1o1o1o1o1o<o,o:o-o;o+ P Q R R M K J.+ t f h z B B K M LXVo$o>o+...M.R.R.N.P.8.0.Z.WX+XoXX.9.b.O.b.b.b.b.b.b.a.a.a.a.g.B.B.I.7.7.7.7.7.7.7.7.7.K.7.7.7.7.7.7.7.K.7.K.7.B.B.I.I.IXo.Q.WXt v +                          ",
"                               uX*XO.U.S.ZXoX+X+.JX8.J.K.L.I.g.K.7.K.D.7.K.7.K.K.7.7.7.K.7.K.7.7.a.c.a.b.b.b.b.a.o.7.7.7.7.7.7.K.KX+X X+XoXo.S.P.R.NXk.U.*o&o:o@.% K K J B t f g > n D B J K M M R N.io$o@., F I Ho%o<o:o<o<o1o1o1o<o,o:o-o;o# R M.@ J.+ E n 6 e e 8 e e c s B B J K Lo.o=oo F G F.2o-o<o<o1o1o1o1o<o,o:o-o-o;o. P V Q R M M K J.- m s.-.+ J K M RoOo-o-XT. Xk.M.M.N.R.U.WX .TX XoX$.Z.b.b.b.b.bX#X#.b.a.a.a.7.7.7.J.B.7.7.7.7.7.7.7.K.7.7.7.7.7.7.7.7.7.7.7.7.B.z.z.IXO.z.Z.MXf U p   o                        ",
"                           X   j CXl.N.T.V.TX+X+X@XO.J.K.I.K.h.K.K.K.K.K.K.K.K.K.K.K.K.7.7.K.7.7.a.c.b.b.b.b.b.b.a.7.7.7.5.7.7.a.cX+X+X@X@.Z.P.RXfX..M.XXso#o:o&XV M K J B E s g i z B B K M M R Q Q No+o*.2 F I Fooo:o:o:o<o<o<o<o<o:o-o=o=o. L M K J.+ t g e 8 c g c e e h z.+ J K CXIo=o@ H F H.2o%o<o<o<o<o<o<o,o>o>o&o&o;XH P U V Q R M K K J B B.+ J K M MXIo#o:o*XZ... .MXkXbXb.V.U.T.Q.SX+XoXX.h.b.b.b.b.7.7.K.K.D.7.6.7.7.I.B.7.7.K.7.7.7.K.K.K.7.7.7.7.g.B.z.z.z.7.7.7.z.z.JX .W.Q.MXv v >   #                        ",
"                                 q.*Xl.R.V.T.TX+X+Xg.J.K.I.K.h.K.K.K.7.K.K.K.7.K.K.7.7.K.K.7.a.a.a.K.a.b.b.O.a.a.7.7.7.7.a.a.IXXXoX+XXXo.0.SXf.X T.3o o#o*o-o-o*o. M M K J J.- m t.+.+ J K M N Q P Q Lo.o;oo E I F.<o%o:o:o:o<o<o<o,o:o-o=o=XI L.@ K.+ E l > g l r r r n h X r E.+ K L Ro#o&.2 F.< Gooo1o<o<o<o<o,o,o>o=o#o*o$.i V V V Q R R M M.@.@.@ K M M M RXVo$o;o>o;o#o .j. ..Xd.R.R.R.T.U.Z.WXXXX.a.b.b.b.a.7.K.7.K.7.z.z.7.7.K.7.7.7.7.7.7.K.K.7.K.7.7.7.h.B.z.z.z.6.B.B.6.B.H.T.G.VXq N m   o                          ",
"                             o   i wXv.M.RX.XbXeX+X+XO.J.K.KX<.K.K.K.K.K.K.I.K.7.7.7.7.7.K.K.a.b.7.D.KX$.bX#.7.7.7.7.7.7.aXoX X+X+XoX@.ZXeXe...jo.o$o;o:o=o&o#o+XG N L M K K K B B J K K M R Q P P P LXBo=o&.2 H G FXJo-o-o-o:o:o:o:o-o@o=o$ R M K J.+ x f n x z z s z z y n f t.+ J M Lo.o>oo H.< G.<o%o:o:o:o:o:o:o;o@oOo=o+ N V V V V Q P Q R M M M M R R Q PXHo+o+o#o$o;o;o$o+Xu. XkXbXb.Q.V.V.0.0.ZXXX$.bX$.b.7.7.K.7.7.z.z.7.7.K.K.7.7.K.K.K.K.K.w.u.u.7.7.7.B.z.z.z.z.J.z.h.BX .I.IX+X7 u X o X                          ",
"                               X   q ZXkXa.TXcXeX+X+X+X9.K.K.K.K.7.K.7.K.B.J.L.K.I.K.K.K.K.D.K.a.7.7.7.7.7.a.7.7.7.7.7.7.I.W.WX+X+Xo.c.G... XZo$o,o,o&o@oOo.XG Y P N N M M M.@.@ K K M M R Q P P P P N Vo#o:oo H F F Fooo,o:o:o:o:o:o%o@o;o+ M M K J z k y D E D z s z E E D s j z K M LXFo=o&.2 H H F.2o-o<o:o:o:o,o*oOo#o$XH N V V U V V V P Q Q Q Q Q P P P P YXNo o oXo+o&o>o2o-oX. ..Xf.NXb.PXo.0.0.b.b.bXoXX.I.B.J.I.J.z.z.K.7.7.7.K.K.K.K.K.a.K.v.s.x.p.u.p.u.z.z.z.z.z.B.7.I.W.G.XXu C l   X                            ",
"                                   + vXpXa.TXdXcXOX+X+XO.K.K.K.K.7.K.K.K.J.J.J.B.B.I.K.K.K.7.a.a.7.K.7.K.7.7.7.7.7.7.7.7XX.W.W.W.ZX Xf.X.jo+o-o,o*o+XZXr V S P S S P Q N R R M M M M M R R P P P P P P NXVo=o%., F I F.<o%o-o-o-o&oOooo&o;XV N R.@ J z s y D E z z s z z z z t r z K L L Ro#o:oo., H H GXJo&o:o:o:o-oOoOo=o+ P P V S U S V S S P P P Q Q P S S S P P.&XrXWo oXo+o*o,o,o@Xs.NXp.R.R.H.Y.W.IXXXX.G.G.z.J.z.z.z.z.z.7.7.7.7.7.K.K.K.K.K.D.x.r.v.p.p.q.t.z.z.z.z.z.z.K.J.T.F.H.* q   X                              ",
"                                     m LXq.yXdX+XO.YXO.J.7.K.K.K.K.K.K.K.J.J.K.K.g.K.K.7.7.K.7.7.7.K.7.7.7.7.7.7.7.7.D.b.WX+X+.WX%.S...jo#o,o,o&oXXr S S S S S S V V V Q Q Q Q R R R R Q P P S P P P P P Vo@o;XJ D G G G.<XJoooo.2.2o@o>o# Q N R.@ J z y y p t D D t z D y s t t z K L N NXVo=o-.2 F.< H G.2ooooooXJooo*o=XG N P S S S S V S S S S S V V S U S S S S N N SXrXWo o+o$o>o2o&XC. Xk.U.Q.F.9.W.I.9.a.z.z.z.J.z.B.7.B.B.7.7.7.7.K.7.B.h.D.q.x.x.v.v.x.s.u.z.H.z.J.z.B.7XO.P.FXv w f   #                              ",
"                                       u.jXiXfX X@X+X+X+X#.K.K.K.K.K.K.K.B.J.7.h.K.K.7.7.7.7.7.K.7.K.7.7.7.7.7.7.7.D.a.b.W.W.W.TX8.y.do#o,o-o#o. Z S U V S S S S S V S S S S S P P P P P P P P S P S S V NXBo$o&XJ., H.<.< H.,.,.,ooo;o$XB N Q R M K z m x y r p y t y s s y y m z.@ M N P No.o;o@.2 H.<.<.<.,.,.,XJo#o;o+ Q P P P S S S S U S U S U U S S U S V S S V S S S YXwXYoXo+o&o,o&XC.XX@.Q.T.0.0.W.W.W.G.z.J.z.B.g.7.7.7.7.7.7.7.K.K.K.K.D.x.r.x.v.x.x.p.C.J.J.J.J.J.I.K.H.XXt N m   X                                ",
"                                   X   i wXvXiXk.RX+X+X+X#.g.B.B.K.K.K.K.K.I.7.7.K.K.7.7.7.K.7.7.K.7.7.K.7.7.7.7.7.a.c.b.9.W.Z.4...jo+o,o:o#XV P S U S U S P S S S V S S S S S V P P P P S S P S P S P S N Lo.o=o;oo.2 H E E E.2oOo=o$XV N V Q R M K.+ t f s A y s j s y A s i t.+ K R P P N Ro+o=o&XJ., H.,.,.,.2o%o;o#XB N V N N V S S V V U U U U U U U U S S S S S U U U S S WXyo oXo*o,o$X2..Xc.T.W.W.W.G.W.G.W.W.6.7.o.4.7.7.7.K.7.7.7.K.K.B.D.x.x.v.v.x.x.q.u.z.B.z.J.z.I.B.FXcX2 u     o                                ",
"                                         p NXvXaXkX@X+X+.I.g.7.u.K.K.K.K.K.K.7.K.7.K.K.7.7.7.7.7.K.K.K.7.7.7.a.bX#X#XoXX.0.0.U.6 ToXo>o;o#XD V U U S S P P P P P P P S S S S S S P V V V V P P P S S S S P Q No.o;o:o%ooXJXJooo@o=o$XV V V V V R M K.+ E r > n y D y A A n + r E J M N S V V S.%o+o;o&ooXJXJXJooo#o=o#XB V V V U V N P U V U U Y U U U U U U S V V P P S S S U W W U ZXYoXo$o,o@. Xf.R.S.W.W.G.z.9.z.7.7.7.7.7.7.7.7.7.7.5.p.s.p.xX-.x.x.xX-.x.D.E.D.7.7.7.7.I.B.H.yXl w j                                      ",
"                                     X   ; uXtXkXbX@XXX+.I.g.K.K.K.K.7.K.7.7.7.7.K.7.7.7.K.7.7.7.7.K.7.7.7.7.7.bX#.WX+.WX+.0.V. XWo,o:o#XD S S V V V Q R R R R N Q P P V S S S S P P Q P P P V S S V S P P P N No.o$o>o>o>o>o,o;o#XH N U U U V Q M.@ J.+ D n @ h r A x h X l E.+ K M P V V V S N VoXo=o;o;o>o>o;o$oX.& P Y Y Y Y Y P V U U Y Y U Y U U V U V V Q Q R Q R Q Q V S S U S ZXYo+o;o,oX. Xc.T.W.W.W.G.9.z.7.7.7.7.7.7.7.7.7.h.7.p.x.x.D.D.D.D.D.D.B.K.K.K.7.g.B.J.J.C.4Xl U p   o                                    ",
"                                       X   i wXp.QX&X+X+.Z.I.I.J.K.K.K.K.K.7.7.K.7.K.7.7.K.7.7.7.K.K.7.K.7.D.7X$.bX+X+.W.W.0.U.do$o3o&XV Y U V Q R R M M M M M R R R Q V V V V V V V V V V V V V V V S S S V V S P.io.o#o$o$o#oXXr S Y Y Y Y V V R.# K.+ B z h g g h c 7 h y.+ J.@ R V U U V U U U VXVo+o$o*o$o+XV Y Y Y Y Y Y Y Y Y Y Y Y Y Y Y Y Y U U V Q R R M M M M M R R Q P U U UX2o o#o>o*Xu.8Xc.T.W.W.W.G.4.7.7.7.7.7.7.7.7.7.a.D.x.x.x.K.K.a.K.K.K.K.K.K.K.J.J.J.K.K.B.pX* v >   X                                    ",
"                                         X   p NXqX8X+X+X+.Y.z.B.h.7.K.K.K.7.7.K.7.7.K.7.7.7.7.7.7.7.7.7.K.a.a.b.bXX.W.W.Z.G. o.o,o:oX Z U V P R M M.@.@.@.@ M M M R R Q V V V V V V V V V V V V U V V V V V U U V P P V.&.& Y S S Y Y Y Y Y Y V Q R.# J.+.- x g e 7 e g x E.+ K.# R V Y Y Y Y Y Z Y P Y.iXGXr.& Y Y Z Z Y Z Z Z Z Z Z Y Z Z Z Z Y Y Y V V R R M.#.@.#.#.@.@ M R Q V U Y WXnoXo$o,o+. X..T.W.W.b.a.o.7.7.7.7.7.7.7.K.7.7.7.p.p.u.B.K.K.E.x.x.D.K.7.K.K.J.B.L.W.qXv w i   X                                      ",
"                                             O qX*Xj.Q.T.Y.WXX.K.7.D.7.K.K.7.7.7.7.K.7.7.7.K.7.7.7.7.7.K.7.b.a.b.b.W.W.W.Z.X. o#o2o$XV S Y V Q M.@ K K.+ z.+ K K.@ M R R V V V Y V U U U U U U U Y U U U Y Y Y Y Y Y Y Y Y Y Y Z Z Z Y Z Z Y.&.&.%.%.#.# J.+ E r 8 e 8 n E.+ J.# R.% Y Z Z Z Z Z Z Z Z Z.& P Y ZXr Z Z Z Z Z.*.d.d Z Z Z Z Z Z Z Z Z.&.$ V R.# K J.+ v z.+ J K M R.$ Y Y Z ZXKo+o>o*.d.8.V.W.W.b.o.7.o.5.7.7.7.7.7.7.7.7.D.p.p.u.K.K.K.7.K.7.K.7.7.7.I.J.IX8.QXu Q p   #                                        ",
"                                           #   f vXvXjXb.WXOX+X#.7.7.K.K.K.K.K.K.7.7.7.7.7.7.7.K.7.7.7.K.7.b.a.b.bXX.W.WX+. XEo>o:oX Z U Y V R.@ J B.+ y i z.+ J K.#.# R V V Y.& Y Y Y Y Y Y Y.&.& Y.&.&.& Z Y.& Y Z Y Z.&.& Z Z Z Z Z.* Z Z Z.&.&.&.%.#.#.+.- D l 8 i A.-.+.@.#.%.&.&Xr Z Z.d.d.dX2X2X2X2 ZXrX2X2X2X2X2X2X2X2X2X2X2.dX2X2X2X2X2XrXr.&.$.%.#.@.+.+ E n l E.+ J.@.#.%.&.& Z Z.dXZo$o>o.. Xf.W.W.b.7.o.7.o.a.a.7.7.7.7.7.7.5.s.p.u.7.K.7.7.7.K.7.K.K.7.7.J.IX8Xi.* u                                              ",
"                                             #   k CXzXcX..0.ZX+.K.K.7.K.7.K.K.K.7.7.7.7.7.7.7.7.7.7.7.7.7.a.a.b.b.h.b.bX&. oXo3o$XH Y Y.$ R.# K.+ B D l > l E.+.+ K.# R.%.&.&.&.&.&.&.&.&.&.&.&.&.& Z Z Z Z Z Z Z Z Z Z.& ZXrX2X2X2X2X2X2X2XrXrXrXr.i.%.%.;.+.- z i y.-.+.;.#.%.i.iXrXrX2X2X2X2XsXsX2X2X2X2X2X2XsX2X2XsXnXnXnXnXsXwXnXsXsXwX2X2XrXr.i.>.%.#.+ B E x > 7 s E.+.+.#.%.%.&.&X2.*Xyo+o>o#. .T.z.W.b.b.O.5.a.b.a.a.7.7.7.7.7.7.7.7.7.7.K.7.7.K.7.K.K.K.K.K.u.uX-XC v g   o                                          ",
"                                             X o   p YXp.NX..WX+X$.a.7.7.K.K.7.K.7.K.7.K.K.7.7.7.7.K.7.7.7.7.7.b.bXX.9.WX+. o#o,o+ Z Z.&.% R.# J B E r ; e ; s E.+.+.#.#.%.&.iXrXrXrXrXrXrXrXrXrXrXrX2XrX2X2X2XrX2XrXrXrX2X2X2X2XsXwXwXwXwXwXwXwXwXrXrXBX3.>.;.;.; E.-.;.;.:.>.iXrXwXwXwXwXwXwXwXsXsXxXxXsXsXsXsXxXyXyXxXxXxXxXxXxXxXxXxXxXxXxXwXwXw.i.>.%.;.+ E y h - 8 g y E.+.;.#.>.iXrXr.dX2oXo=o=Xz. .I.F.9.b.a.5.O.a.7.7.7.7.7.7.K.K.7.7.7.7.K.7.K.7.K.K.K.K.K.z.J.5Xv C l   X                                            ",
"                                                   5 uX,XkXbX+X.X+XX.7.K.7.K.K.K.K.K.K.K.7.7.7.7.7.7.7.7.7.K.7.K.bXoXoXO.XXso*o>oX Z.&.&.%.#.@.+.- y g e c 7 g A.-.+.;.#.%.iXrXrXrXrXrXrXwX2XwXwXwXwXwXwXwXwXwXwXwXwXwXwXsXsXwXsXyXyXyXyXyXyXyXyXyXwXwXrXBX3.>.:.:.:.:.:.>X3XBXrXDXwXyXyXwXxXyXyXyXxXAXEXyXEXyXyXyXyXEXEXEXEXyXyXAXyXyXEXyXEXyXyXwXwXBX3.>.;.- E r = d c $ n E.+.;.:.>XBXrXrX2.jXZo$o,o.. .J.W.O.b.a.7.b.b.7.7.7.7.7.7.7.7.7.7.7.7.7.7.7.7.K.I.I.I.IXc.FXt R p   o o                                            ",
"                                                 X   f vXqXjX@X..Z.Z.a.a.7.7.7.7.7.7.g.K.B.z.z.B.z.z.z.7.7.7.7.7.a.b.WX&..XWo;o=XZ Z.&.&.%.# J.+ E n : b b c   n E.+.;.:.>XBXrXwXwXwXwXwXwXyXyXyXyXyXyXyXyXyXwXwXyXyXxXxXxXxXyXxXyXyXAXKXKXAXEXEXKXyXDXDXrXBXFX3X3X3X3X3XBXGXDXwXyXyXyXEXEXAXAXEXEXEXEXMXLXKXEXEXMXLXKXMXKXLXLXMXMXMXMXMXLXLXKXyXwXGXBX3.:.;.- y g 7 a d 7 g y.-.+.;.>XBXrXwXwXnXyo#o,o+. .G.z.9.O.4.5.O.7.7.7.7.o.7.7.7.5.u.7.7.7.7.7.7.7.7.z.I.B.H.PX0.* q O   o                                              ",
"                                                   o   k CXv.TX&.V.UXX.b.a.7.7.7.7.7.K.D.I.J.J.B.7.7.7.7.7.7.7.7.GXo.YXO. oXo,o*XW Z.i.>.:.;.+.- x g e b a e c g y.-.-.;.>XBXGXDXDXyXyXyXyXKXKXKXKXEXyXKXKXEXEXEXEXEXEXEXEXEXEXyXwXyXAXLXMXMXMXMXLXKXyXDXDXGXGXGXBXBXBXGXGXDXyXyXyXKXLXAXMXMXAXAXMXMXMXLXLXLXMXMXMXQXLXMXMXQXMXMXQXMXRXRXQXPXPXNXHXGXF.:.;.+ E l 3 e b e e e n E.-.;.:XFXGXDXyXyXno+o2o#. .G.t.a.a.7.7.a.7.7.7.7.7.7.7.7.5.7.7.7.7.7.7.K.7.K.7.a.A.F.tXs v f   o                                                ",
"                                                     o   m LXvXk.R.T.TXo.a.7.B.7.7.z.J.J.J.J.z.z.7.7.7.7.7.7.4.4.G.b.T.Y. o+o,o$XKX2Xr.>.:.;.- D l a e 7 - 4 g e n E.-.;.>XBXHXNXNXKXKXPXPXPXPXPXLXLXLXLXLXKXKXKXKXKXPXWXPXPXLXNXDXNXPXLXSXTXUXUXQXQXPXNXNXNXNXNXNXNXNXNXNXNXLXQXQXQXQXQXQXQXQXQXQXQXQXWXWXWXWXQXQXLXRXRXUXUXUXUXUXUXUXUXUXTXWXNXHXIX3.:.;.- s > e a $ - e e g x.-.-.:XFXGXHXNXKXno+o2o$. .9.7.O.O.7.7.h.7.7.7.7.7.7.7.7.7.7.7.a.7.7.7.7.7.H.B.I.A.tXt w i   o                                                  ",
"                                                           p YXq.MXdXOX+.Y.J.J.z.B.B.z.A.I.I.B.B.7.7.7.B.5.6.6.z.G.G.T.W. o+o1o#XwXwXGX3.:.;.- r : 0 g h h h 5 7 + x.-.;.:XIXHXNXPXPXWXWXQXPXLXLXLXLXLXLXLXLXLXKo o+o#o#o#o#o#o#o#o#o#o#o#o#o#o#o#o#o#o#o#o#o#o#o#o#o#o#o#o#o#o#o#o#o#o#o#o#o#o#o#o#o#o#o#o#o#o#o+o+XYXRXUXUXUXUXUXUXUXUXUXTXWXNXHXIX3.1.1 D h g > g h h h c 7 l D.-.:XFXGXNXNXPXnoXo,o&.d.X.7.a.a.7.6.a.7.7.7.7.7.7.7.7.7.7.7.a.7.7.7.a.6.z.F.H..Xv L k   o                                                    ",
"                                                           O q.*XqXcX X+X+XO.z.J.7.B.J.H.I.h.7.7.7.7.B.p.5.6.B.z.z.AX+Xo. o+o,o$XNXwXGX3.:.1 y + g n x x r A x n 5 h D.1.:XBXHXNXPXWXWXTXTXWXPXPXNXNXNXNXPXLXKXZo$o=o=o;o;o;o;o;o;o;o;o;o;o;o>o>o;o;o;o;o;o;o>o>o;o;o;o;o;o;o;o;o;o;o;o;o;o;o;o;o;o;o;o;o;o;o;o;o=o$o+XSXUXUXUXUXUXUXUXUXUXTXWXNXHXIX3.1.- n O h r y x s A s i O n.,.:XFXHXVXWXWXxoXo>o$.d.o.7.7.7.7.z.z.B.7.7.7.7.7.7.7.7.7.7.7.7.7.7.G.z.I.W.FXm.$ p                                                          ",
"                                                         X   + uXsXlX8X@X+.Y.z.J.B.B.z.z.z.I.z.B.7.a.7.7.B.7.J.z.z.zXO.Z. o+o,o&XWXnXGX3.: E n n x D E A n D., D y l r.,.:XBXNXWXWXYXWXWXWXNXNXHXHXGXGXHXHXNXyoXo=o#oooooooooooooooooooooooooooooooooooooooooooooooooooooooooooooooooooooooooooooooooooooooooOoOo@o*o#XWXTXUXUXUXUXRXUXUXUXYXWXVXHXIX3.1 y h r y D D y x.,., D s i y.:XFXHXVXWXWXAoXo>o$.d.XXO.G.7.B.z.z.z.b.a.7.7.7.7.7.7.7.7.7.7.7.7.z.z.y..Xm.i q O                                                          ",
"                                                           X   f uXtXjXcXdX8.A.H.B.z.z.B.B.B.z.6.7.7.7.7.z.4.z.z.y.zXO.W. oXo,o*XZXnXHXF.: D r A., E E D r D E E., A l AX3XGXNXWXWXYXYXWXVXHXHXIXFXFX3XFXIXHXDoXo=o@ E D D F F F F F F F F F F A A F F A A A A A A A A A A A F F F A F F F F F F F F F F F F F Eooo*o#XWXWXSXUXUXUXUXUXUXYXYXWXVXHXIX3.1 r r G., D E y y.,.-.-., x r.1XFXHXVXWXYXxoXo>o#. .8.W.W.7.z.z.z.G.W.7.7.7.7.7.7.7.7.7.7.z.B.z.t.P.Q.JXr q +   o                                                        ",
"                                                             o   i vXzXkXaXcXeX+XO.J.z.7.7.B.z.7.7.7.5.t.z.z.J.z.G.G.WX+. o o,o-oXXnXDXB.:.- A s y E E D r D.- E y r s F.:XGXNXWXWXYXWXWXVXGXBX3X3.- E.:X3XIXDo.o=o*.2 H I I I I I I I I I I G G G G G G G G G G G G G G G G G G G I I I I I I I I I I I.<.< H.2o@o=o+XNXPXQXQXQXRXUXUXUXKXQXTXWXNXGX3.1 D x r A E., y y.,.- D x s A.1XFXHXVXWXYXyo+o>o#. .Z.W.b.z.z.z.z.z.z.6.7.7.7.7.7.7.7.7.7.z.I.H.Y.PX8XC u h                                                              ",
"                                                               #   i wXqXaXeXc.Z.G.z.z.7.7.z.z.7.z.z.z.z.z.z.z.z.G.z.WXO..XEo;o>o+XnXDXB.: E s A x r y D s D A s s A r zX3XGXNXWXWXWXWXNXGXFX3.:.1 n n.1.:X3XBXHo#o;o@.2 H H H H H H G I I G G G G G G G G G G G G G G G I I I I I I I G I I H I H H.<.<.< H.,oOo*o$o.XHXHXNXNXPXLXQXRXSXKXQXTXWXNXGXF.1 y y A s x D z y., y s y y s.1XIXHXVXWXTXKo#o,o+. X+.W.b.z.z.z.z.z.A.I.7.7.7.7.7.7.7.7.7.z.A.F.F.nXs u i   o                                                            ",
"                                                                 X   k CXvX8XjX@XX.I.W.b.a.z.z.7.z.z.z.J.J.W.z.z.G.G.W.W.9X*o&o,o+XnXDXB.:.1 s l A F x r n x x A F r n.-X3XGXNXWXWXWXWXHXIX3.:.1 y g c A.1.:XFXrXZo#o;oO.2., H.<.< H H G G G G G G I I G G G G G G I G G I I I G I G G G G H H H H H.<.< H.-oOo*o$oXXIXBXIXIXGXHXNXPXQXUXUXYXTXWXNXHXF.:.- n x G y s r r x x D y i y.:XFXHXWXWXMXWo$o>o.. X&.YXo.I.B.z.z.z.I.I.7.o.o.o.7.4.z.z.z.H.Q.yX*XC w i   X                                                              ",
"                                                                   o   k CXv.AXc.S.0.WXX.b.7.7.b.W.z.z.J.z.z.z.G.W.W.W.WX@. o@o2o$XKXwXG.>.1.- n h y H A n y H A l i D.1XFXHXNXWXWXVXNXGX3.:.1 E l e 8 l.,.;.>XBXro.o$o=o%XJ.,.,.<., H H H I G G I I I I G H I I I I I H G H H H H H H H H H H H.,.,.,.,XJo@o*o$o.X3X3.:.1.:X3XIXHXNXLXQXUXUXSXQXNXHXIX3.: D f r F G s r F G x f s.1.:XFXHXNXTXAoXo*o=XE..XO.W.I.7.7.7.7.7.b.a.7.7.b.a.7.7.a.B.G.G.F.kXC w j     o                                                              ",
"                                                                     o   m LXqXaXa.P.W.W.W.G.G.W.W.z.z.z.z.z.z.G.8.W.W.WX$. o.o,o=o XnXGX3.:.; E i > r A H A r g + A.1.:XFXHXNXWXWXNXHXB.:.1.- x 7 e e 7 x.1.:X3XHXNoXo$o;o&oo.2 E H H.< H H H H I I I I I I I H H H H I I H H H H H H H H.<.< H H.,.2ooo$o=o$oXX3.:.: z s.1.:X3XFXHXNXQXSXUXSXTXPXHXIX3.:.1 x O i y H.< A n O n.-.1X3XIXNXWXLXyo+o-o#.n.RX+X+.I.K.7.7.7.7.a.7.7.7.b.a.7.GXo.W.S.QX5XC w k @ o                                                                  ",
"                                                                           m LXqXaXf.Z.WXo.J.zX+.W.z.z.z.z.z.4.z.9.G.W.W.W..Xso=o>o+XnXrXB.>.:.1 z g ; h n h O > x.1.1X3XIXNXPXWXWXNXHXF.:.1 D h 8 e 8 8 h E.:.>XGXNXKXZo#o=o>o&oo.2., H H H H H H.< H.< H H H.< H H H H H.<.< H.<.<.<.<.< H H.,.2ooo@o=o=o#o.XF.>.;., l > A.1.:X3XIXDXPXQXUXSXTXPXNXHXBX3.:.1 n ; 5 n r h O l.-.1.:XFXGXNXPXxXZo$o>oX. XfXO.W.G.B.7.7.7.7.7.z.z.z.9.a.I.zXOXc.F.lXs w k     o                                                                  ",
"                                                                             m CXvXO.IX X+X .YXO.z.7.7.z.z.z.9.W.W.W.9.9.9.G. o+o,o*XW ZXGXB.>.;.1 r > 5 O > O n.,.;.:XFXHXNXPXWXNXHXGX3.:.- n g n r l n O r.1.:XBXNXLXLXWo+o$o;o;o&ooXJ.2.,.,.,.,.,.<.<.<.<.< H H.<.<.< H.<.<.<.<.< H.,.,.,.1ooo@o=o;o*o+XZXIX3.:.1 s % c l.-.;.:X3XGXNXPXQXSXSXQXNXHXGXB.>.: E h > > ; c g A.1.:X3XIXHXLXEXxo+o;o=XC.MXcXo.W.B.7.7.7.a.a.b.7.7.b.b.a.7.G.H.tX4XC w j                                                                          ",
"                                                                         X   @ m CXv.QXe.RX@X+XO.G.I.I.z.z.z.9.8.9.W.W.9.9.A. XPo-o>o+XnXrXGXB.:.; E l c g c g D.1.:X3XIXHXPXPXPXNXHXG.>.1 y r D., A y E y r D.:XBXNXLXQXQXQo o+o$o=o;o=o&o@oo.2.,.,.,.,.,.,.,.,.,.,.,.,.,., H H H.,.2XJooo@o$o=o=o$o+o.XNXGXB.>.; D h e e > x.1.;X3XBXDXLXQXQXSXSXPXNXHXGX3.:.1 y g e g ; r.-.:X3XFXGXNXLXxo o$o,o@ TXd.VX+.H.B.7.7.7.7.7.g.7.7.9.b.W.G.B.W.uXs w j                                                                            ",
"                                                                           #   @ m CXzXjXaXd.HX X+.W.W.J.z.z.9.W.W.W.W.W.F.a.T. o@o2o*o  ZXrXBX3.:.1 D g g > x.1.;.>XFXGXNXPXQXNXDXHXB.>.1 D D D., A y., D A z.:XBXHXKXLXSXRXRXQo o+o$o=o;o;o=o&o@ooXJXJ.2.,.,.,.,.,.,.,.,.,.2.2XJooo@o&o=o;o=o$o+oXXTXKXNXGX3.:.- r $ e e 6 h D.1.:XBXDXKXPXQXSXRXSXPXNXHXBX3.:.- r 3 b l.,.1.:XFXIXDXKXxXWo#o;o=XE..XO.WX+.H.I.7.7.7.I.B.K.7.7.W.T.TX .tX9XC w j                                                                              ",
"                                                                             o     j wXvXkXcX XeXcX .WXO.G.W.9.9.9.W.W.W.F.SXc. XCo-o,o#XPX2XGXB.>.:.1 y + r.-.1.:XFXGXHXPXPXPXPXNXHXB.>.: z y y y y x y y y z.:XBXHXNXPXSXRXUXRXMXLXYo o+o#o$o=o;o;o=o&o#o@o@o@o@o@o@o@o%o@o#o&o=o=o=o$o$o+oXo XLXMXSXTXNXGX3.: A O h l l l ; n.-.:X3XDXNXPXSXSXSXSXPXPXNXHXF.>.:.- n g D.1.:X3XIXHXNXxXLo+o=o>oX. Xe.W.W.J.I.K.I.7.7.g.hXX.I.z.Y.Q.T.t.xX2 u i   #                                                                            ",
"                                                                               o     j wXvXuXcX@XgX+X+.ZX+X+.W.W.W.W.W.W.F.F.Q.T. oXo,o>o+XyXrXGXBX3X3.1 z.-.:.:XFXGXDXNXPXQXSXSXPXDXGXF.: E n x A y x D s m E.:XFXDXNXPXSXUXUXUXUXRXRXRXRXUo o+o#o$o$o=o=o=o;o;o;o;o;o;o;o=o=o$o$o#o+oXo XRXMXRXRXRXPXPXDXIX3.- k r A y r F A r y.:X3XGXNXPXLXSXRXUXSXPXKXNXGXBX3X3.- t.:X3X3XGXHXPXxXyo+o*o,o#..X@X+.ZXO.J.K.K.K.K.B.KX#X@XO.J.TX8.tXsXr u f   o                                                                              ",
"                                                                                   # @ f uX4Xl.FX X X .W.W.W.W.W.W.W.W.W.y.Q.Q.FXd. o+o2o=o+XyXrXDXGXBXFXFX3X3XBXGXNXNXwXKXSXQXQXPXNXDXB.:.1 A h r F F r f A.1.:XFXDXKXPXSXSXUXRXSXUXUXUXRXRXRXRXRXUXYo o oXoXoXoXoXoXoXoXo o XYXYXRXMXMXRXRXRXRXRXSXPXNXDXIX3 E y D., A r.,., A y.1X3XGXDXPXPXSXRXUXTXSXLXPXNXDXGXBXFXFXBXBXGXDXKXnXNo+o*o>o#X5...Y.ZX+XX.J.B.7.z.z.J.C.GX+XXX Xc.FX4.i q f   o                                                                                ",
"                                                                                     X   f uX2XqXaXbXeX .ZXO.W.WX+.W.W.W.W.T.T.P.S.X.3o#o2o;o+Xy.dXwXDXDXDXGXGXDXNXKXKXwXPXSXSXQXKXNXDXBX3.;.- x O l l O s.-.1X3XIXHXNXWXTXTXTXTXTXTXUXUXUXUXUXUXSXSXMXMXMXMXMXMXLXLXLXMXMXMXMXMXMXRXRXRXRXRXRXRXTXTXPXKXDXGX3 E x y y y r A x x x.1X3XGXHXPXTXTXUXTXUXSXQXPXNXNXrXrXDXDXDXDXKXxX2XZo#o=o,o$Xm.XX8.TXo.W.J.J.J.J.J.J.z.J.J.V.N.Q.QXv.$ q +   #                                                                                  ",
"                                                                                       X   + q UXqXbXcXc.T.J.WXX.W.W.W.W.T.T.T.T.P.T..X*o#o,o;o#XZXnXwXyXNXNXNXNXLXLXQXUXQXRXRXQXPXPXNXGX3.:.1.- r > O r.,.1.:X3XIXNXNXTXTXTXTXUXUXUXUXUXUXUXUXYXYXYXYXUXUXUXUXUXUXSXUXQXQXUXUXRXQXRXUXUXUXUXRXRXSXSXPXNXDXGX3.1 s n y s r y x l y.:X3XGXHXPXSXSXUXUXUXRXSXQXPXPXDXDXNXKXKXyXnXKoXo$o;o>o#Xm..XjXc.T.W.Y.z.z.J.HXO.J.J.J.Y.N.N.QXt.@ p +   o                                                                                    ",
"                                                                                         o   O m CXvX0X8XdX+.YX .W.Q.T.Q.Q.QXc.Q.T.P.V.X. o+o,o,o$oXXVXnXnXyXKXLXQXQXSXRXRXRXUXUXUXQXPXDXB.>.:.; E i h E.1.:X3XFXHXNXPXTXTXTXUXTXTXUXUXYXYXYXYXYXYXYXYXYXUXUXUXSXUXTXSXRXQXRXUXSXUXRXUXUXUXUXUXUXUXTXPXPXHXGX3.:.- l n A A x f r.-.:X3XGXNXWXSXSXUXYXUXUXRXSXQXPXPXPXyXyXwXNo.o#o*o>o;o+.t.8X8.Q.S.WX+.W.z.J.J.JXO.J.J.I.Y.tXmXC w k X   X                                                                                      ",
"                                                                                           X     k wXsXl.VX .TX8.T.Q.Q.Q.Q.Q.T.T.Q.P.R.Q.8. o.o*o,o>o*o+oXo XQXQXQXMXMXRXRXRXRXRXSXQXLXNXGXF.>.:.: y y.1.:X3XFXGXHXPXPXTXTXUXUXSXTXTXSXTXTXSXSXSXSXSXTXSXSXSXSXSXSXRXRXUXUXUXUXUXUXRXRXUXRXRXSXRXRXSXPXNXHXGX3.:.1 D f h n O n.,.1.:X3XGXNXPXQXQXSXQXQXQXQXQXMXQXLXWXZoXo+o#o=o>o>o$XZ...NXdXcXc.WX+.W.W.J.J.z.H.YXO.J.A.nX7.& u i     o                                                                                        ",
"                                                                                                   f u.*XqXjXdX .TXcXc.QXc.QXc.T.P.P.P.P.P.X. X*o+o;o3o2o>o*o$o#o+oXo.o.o o o o o XZXZXVXVXIXJXJXJ.2.2.1XJXJXIXVXVXZXZXZXZo XZo o o.o.o o.o o o o o o o o o o o o o o o o o o o o o o o o o o o o o.o.XVXVXIXJXJ.1.2 y     l I.2.2XJXJXIXVo.o.o.o.o.o.o.oXoXoXo+o+o#o&o-o,o,o,o*oXX5. XdXbXcXcXcX+X+.ZX+XO.J.J.F.F.NXa.AXu R q +     o                                                                                          ",
"                                                                                                     + q LXvXi.NXaXb.QXc.Q.Q.Q.T.P.P.P.V.P.P.V.X. XCo.o#o-o,o,o>o;o;o=o=o=o=o*o*o*o*o*o&o&o&o%o%o%o%ooooo%o%o%o&o&o&o*o&o*o*o*o*o*o=o=o=o*o=o=o*o*o*o*o*o*o*o*o*o*o*o*o*o*o*o*o*o*o*o*o*o*o*o*o=o*o*o*o&o&o%o%o%oooooo x >.<ooooooo%o%o&o&o*o*o=o=o=o-o-o-o-o-o>o>o,o,o>o*o@o.X*. .NXjXfXcX X XcX XOX+X+.W.J.J.yXc.MXbXs w p     o                                                                                              ",
"                                                                                                   X     k wXCXvXbXcXc.T.Q.R.N.Q.P.P.P.P.P.P.P.P.8... . XCXZo+o#o$o*o=o;o>o>o,o,o3o3o3o3o3o2o1o<o:o:o:o:o:o<o,o2o3o3o3o3o3o3o3o3o3o3o3o3o3o3o3o3o3o3o3o3o3o3o3o3o3o3o3o3o3o3o3o3o3o3o3o3o3o3o3o3o3o3o3o3o2o1o<o<o-o%o%oo.2o%o%o%o%o:o,o,o2o3o3o3o3o,o,o,o>o>o;o=o*o#o+XZXC. . ..XeXfXcXcXcXcXcXeX+X+.z.J.J.H.I.t.tXz.* u i     X                                                                                                ",
"                                                                                                     X     f u NXu.T.F.Q.Q.T.Q.Q.P.P.P.P.P.P.P.P.PXbXb.N.M. . . ...YX0XvXzXMXTo oXoXoXo+o+o+oXoXoXoXoXoXoXoXoXoXo+o+o+oXo+oXoXo+oXo+o+o+o+o+o+o+o+o+o+o+o+o+o+o+o+o+o+oXo+o+o+o+o+o+o+o+o+o+o+o+o+oXoXoXoXoXoXoXo.o.o.o.o.o.o.o.o.oXoXoXoXoXoXoXoXo XWXPXEXzXuX7.y... .M.MXkXdXbXcXcXcXcXcXcX X X X .T.Y.H.Y.G.AXt L q +     X                                                                                                  ",
"                                                                                                             O m CXuXqXbXa.N.R.P.U.P.P.P.V.V.V.V.P.S.S.S.Q.V.R.P.8.8... . . . . . . . . . . . . . . . . . . . . . . . . . . . . . . . . . . . . . . . . . . . . . . . . . . . . . . . . . . . . . . . . . . . . . . . . . . . . . . . . . . . . . . . . . . . ...X.PXfXjXj.VXdXcXcXcXcXcXcXcXcXcXcXcXcXcXbXcXlXs w m     X o                                                                                                    ",
"                                                                                                           o     i u NXqXk.M.N.N.N.R.P.P.P.P.P.P.P.P.P.P.P.S.P.T.TXeXeXeXeXiX8XiXiXiXiXiXeXeXeXiXeXeXeXeXeXiXeXiXeX8X8XiXeXjXeXiXeXiXiXiXiXjX@XjXiXiXiXjXiXiXeXiXeXjXiXiXiXjXeXjXiXeXiXjXiXjXjXjXiXiXiXiXiXeXeXjXeX&X8X+XOXeX8XiXeXgX8XiXjXiXiXjXjXjXiXjXiXiXiXeX8X8XcXe.YXdXcXcXcXcXcXc.TXfXcXcXcXb.N.PXbX0 N u f     X                                                                                                        ",
"                                                                                                             o     X m wX2Xv.F.PXcXbXb.S.V.V.V.P.V.P.V.8.T.Q.Q.SXo.YX+X X+X XcXcXcXOX+XOXXXXXX.WXXX+XO.WXXX X .TX XcXcXc.T.T.T.T.T.QXe.TX .T.T.S.T.TXcXcXc.TXc.QXc.Q.T.T.T.TX .T.Y.W.Y.YXcXcXcX+X+XXX X X .Y.YX+X+XoX+XO.C.J.J.J.J.JX8.AX8.J.J.J.J.J.J.J.J.J.YX+XeXeXfXcXcXcXcXcXcXcXeXcXeX Xd.JX8X X9XzX2 w m O                                                                                                                ",
"                                                                                                                 o     f q LXtXg.N.N.T.R.Q.R.P.V.V.V.PX..T.Q.Q.Y.WX+XXX+X+X .QXcXcX+X+X+X+X+X+X+X+X+X X+.WX+X+X+X+X+X+X+.JX+.WX+XoX+.WX+X+X+X+X+X XcXcXc.TXe.TXe.TX .YX+.WXoXXX+XoX+.WX+X XeXeX+X+X+X+X+X+X+X+X+.WX+X+XO.J.J.JX9.J.J.JX9.J.J.JX9.J.J.J.J.J.JX8X+XcXeX XcXcXcXcXcXcXcX8.V.TX8.H.z.QX9Xs C q h     o                                                                                                              ",
"                                                                                                                   X       k vX2XvXp.VXcXbXb.V.V.V.P.QX..TXcXcX X+XOXOX+X+X XcXcXeX+X+XgX+X+X+X+X+X+X+X+XgX+XgX+X+X+X@X+XOX+X+.YX+X+X+X+X+X+XgX+X X8X8X8X+X+X+X+X+X+X+X+X+X+XeX XeXOXOX&X9XOXOXOXOXOX+X+X+X+XgXeXgX+X@XOX9.J.JX9X9X9X9X9X9X9X9X9.JX9X9.JX9.JX8X+XeXeXeXcXjXjXcXcXfXcXcX .V.N.QXiXv.& u j       o                                                                                                                ",
"                                                                                                                       X     f q CXCXlXd.MXa.V.V.P.V.P.P.WX .WX+X+X+X+X+X+X+X X+X+X+X+X+X+X+X+X+X+X+XO.J.JXOXO.J.JXOXO.JX+X+.WX+X+X+XO.J.JX8.FX8.FXeXeXeX+X+X+X+X+X+X+X+X+X+X+X+X+X+X+XgX+XgX+X+X+X+X+X+X+X+X+X+X+X+X+XO.J.J.JX9.JX9.JX9.J.J.JX9.J.J.J.J.J.L.YXcXcXcXcXcXcXc.QXc.Q.TX8.RXaXaXv.* w p +     X                                                                                                                    ",
"                                                                                                                           #     i q CXsXvXjX .VX..V.V.RX+X+X+X+X+X+X+X+X+X+X+X+X+X+X+X+X+X+X+X+X+X+XO.J.J.JX9.JX9X9.J.JXgX+X+X+XgX+XO.J.J.J.J.JXOX+X+X+X+X+X+X+XgX+X+X+X+X+X+X@X+X+X+X@XgX@X+X+X+X@XgX+X+XgXgX+X+X+X@XO.J.JX9X9XOXOX9XOX9X9X9X9.JX9.J.JX9.JX8XcXcXcXjXcXcXcXdXcX8XcX8X6XvXs C q f     o                                                                                                                        ",
"                                                                                                                             X       i u LXCX7.9.9.S.V.V.WXXX+X+X+X+X+X+X+X+X+X+X+X+X+X+X+X+X+X+X+X+XO.J.JX9.JX9.JX9.J.JX+X+X+X+X+X+XO.J.J.J.J.JXOX+X+X+X+X+X+X+X+X+X+X+X+X+X+X+X+XgX+XgX+X+X+X+X+X+X+X+X+X+X+X+X+X+X+XO.J.JXOX@X+X+X+X+X+.J.J.J.J.J.J.J.J.JX8XcXcXcXcXc.QXeX8X8.W.tX4XC C u i                                                                                                                                  ",
"                                                                                                                               X X       j u.$XvXqXpX .YX.XeX+X.XeXeXeXeXfXeX+X+X+X+X+X+X+X+X+XOXOXOXOXOXOXOXgXgX+X+XgXgXOXOX9XgXgXgX9.JX9X9X9XOX9X+X+X+X+X+X+X+X+X+X+X+X+XgX+X+X+X+X+XgXgX+X+X+XgXgXgXgXgXgXgX+XgX+X+X+X+X+XOX+X+X+X+X+Xg.J.JX9.J.J.J.HX8X8X8XcXcXcXeXeXb.RXbXcXuXC L q j       o o                                                                                                                            ",
"                                                                                                                                   o #     + m w UXvXl.VXaXaXcXfXcXiXcXjXcXfX+X+X+X+X+X+.WX+X+XO.JX9XOX+X+X+X+X+X+X+X@X+X+X+X+X+X+XgXgXgX+XgX+X+X+XgX+X+X+X+X+X+X+X+X+X+X+X+XgXgX+XgX+X+XgXgX+X+X+X+X+X+X+XgX+XgX+X+X+X+X+X+X+X+X+X+.WX+X+.J.J.J.J.J.JX8.FX8X8XdXcXfX .Q.MXaXpXt L u m O     o o                                                                                                                                ",
"                                                                                                                                       o #     O m u CXCXvXlXgX XdXcXjXjXjXeXgX+XgX+X+X+X+X+X+XO.H.HXOX+X+X+X+X+X+X+X+X+X+X+XgX+X+XgX+XgX+X+X@XgX+X+X+X+.WX+X+X+X+X+X+X+X+X+X+X+X+X+X+X+X+XgX+X+X+X+X+X+X+X+X+XgX+X+XgX+X+X+X+X+X+X+X+X+X+.J.J.J.J.J.JX8X8.FX8XcXcX8X8XmXvXs C u k O                                                                                                                                            ",
"                                                                                                                                                   O j u CXrXtXl.Y.FXeXfXeXeX@X+X X+X+X+X+X+X+XcX8X8.YX+X+X+X+X+X+X+X+X+X+XgX+XgX+XgXgXgX+X+X+X+X+X+X+X+X+X+X+X+X+X+X+XgX+X+X+X+X+X+X+X+X+X+X+X+X+X+X+X+X+X+X+X+X+X+X+X+X+X+X+X+X+X+X+X+X XOXOX8.Y.J.JX8X8X8.H.t.FX5Xs.* C u j X                                                                                                                                                ",
"                                                                                                                                                         i q w ZXvXqXlX..V.VX.X X@X.XeXeX+X+X+XeXcXcXeX+X+X+X+X+X+X+X+X+X@X+X+XgX+X+XgXgXgX+X+X+X+X+X+X+X+X+X+X+X+X+X+X+X+X+X+X+X+X+X+X+X+X+X+X+X+X+X+X+XgX+X+X+X+X+X+X+X+X+X+X+X+X+X+X+XeXeX@Xe.YXeXcX8.H.QXfXiXv.& w q i       o                                                                                                                                              ",
"                                                                                                                                                     #       f q w UXuXlXqXk.RXbXb.V.RXcXcXcXcXcXcXcX X&X+X+X+X+X+X+X+X+XgXgX+X+X+X+X+X+X+X+X+X+X+X+X+X+.WX+X+X+X+X+X+XXX+X+X+X+X+X+X+X+X+X+X+X+.WX+X+X+X+X+X+X+X+X+X+X+X+X+X+X+X+X+X X+XeXeXeXcXbXa.MXaXkXlXs N w q i       o                                                                                                                                                  ",
"                                                                                                                                                         #       > m u w SXuXvXvXl.VX XcXcXfXfXeXjXjX@XeX@X@X@X+X@X X@X@XgXgXgXgXgX+XgXgXgX+X+X+.WX+X+X+X+X+X+X+X+X+XeX X XeXeX XeX&.WX+X+X+X+X+X+X+X+X+X+X+X@X+X@X+XgX+X+X+X+X+X+X+X+X+XcX .T.QXeXlXvXt Z C u m f       o                                                                                                                                                      ",
"                                                                                                                                                           X X         f p v C YXCXuXgX@X.Xo.TXOX+XjXeXjXcXjXeX&X+X+X+X+X+X+X+X+X+X+X+X+X+X+X+X+Xo.9Xo.ZXO.W.W.W.WX+.T.Q.QXd.T.V.TX .T.Z.ZXo.ZXoXoXo.0X+X+X+XoX+.WX+X+X+X+X+.WX+XXX+.9.W.9.SX9X0Xs.& C u p i X       X                                                                                                                                                          ",
"                                                                                                                                                                             f p u C WXtXvXlXlX..VXdXdXdXdXdXfXfX.X@X@X@XfXfX..VXfX.X.X@X@X@X@X@.Z.0.0.0.Z.Z.0.ZXoXo.U.R.U.V.V.V.V.V.R.VX.X..V.VX..V.V.TXeX.X X X X XeX..V.V.V.V.T.TXfXlXlX7 Z C u p i X         o                                                                                                                                                              ",
"                                                                                                                                                                   X o o #       O i p v C UX#XpXqXqXpXk.MXk.MXa.NXb.RXk.VX..Q.V.V.V.V.V.V.V.V.V.SX..S.S.P.S.S.P.P.S.P.P.V.V.S.V.U.V.V.V.P.V.R.V.V.V.V.V.T.R.R.R.R.N.N.M.M.MXkXpXpXq.v N w u q j +         X   X                                                                                                                                                                ",
"                                                                                                                                                                             o         X f m q v w N.*X0XlXqXpXpXf.R.U.UX.X@X..V.VXdXd.V.V.V.V.T.S.8.S.0.0X@.0.Q.P.P.P.V.V.SX.X..U.P.P.V.V.V.V.V.V.V.S.V.N.P.8.8.SXoXfXlXlXt.* N C v q m f O         #                                                                                                                                                                          ",
"                                                                                                                                                                                   X           O f m q v w L U.dXtXlXlXfXfX..T.P.PXb.V.V.V.V.V.U.P.V.P.V.SX..S.P.P.P.P.P.R.V.V.P.V.R.P.R.V.S.P.P.P.N.P.P.VXjXlX1X0X*.& L w v t m h +           o X                                                                                                                                                                              ",
"                                                                                                                                                                                       o X               + j m u v w C U.*XtXlXpXpXpXpXpXkXk.R.R.R.R.R.R.R.R.R.R.R.R.P.P.R.R.R.R.RXkXkXkXkXfXkXpXlXlXgX4.* U L w v u p j f O             o                                                                                                                                                                                      ",
"                                                                                                                                                                                               X X o             O f j p t u w C L ZX2X-.EX@XfXd.R.U.R.R.R.R.R.R.R.R.R.R.R.UXkXkXkXdXfXf.C.j.*.& M C w v z p m i O               o o                                                                                                                                                                                            ",
"                                                                                                                                                                                                         X o               X + i k q u w C N W T. ...X.8.R.R.R.R.R.R.R.R.R.U.U.X. .  T N L w u q m i + O X             X X X X                                                                                                                                                               #                                  "
};
