/* XPM */
static char *image_xpm[] = {
/* width height ncolors chars_per_pixel */
"64 64 255 2",
"   c #ffffff",
" . c #fffffe",
" X c #fffffc",
" o c #feffff",
" O c #fefffe",
" + c #fdffff",
" @ c #fdfffe",
" # c #fcffff",
" $ c #fffefe",
" % c #fffefd",
" & c #fefefe",
" * c #fefefd",
" = c #fefdfd",
" - c #fdfeff",
" ; c #fdfdfe",
" : c #fdfdfd",
" > c #fffefc",
" , c #fefdfc",
" < c #fefdfa",
" 1 c #fdfdfc",
" 2 c #fdfcfd",
" 3 c #fdfcfc",
" 4 c #fdfcfa",
" 5 c #fcfdff",
" 6 c #fcfcfd",
" 7 c #fcfcfc",
" 8 c #fcfcfb",
" 9 c #f8fdfd",
" 0 c #fdfbfa",
" a c #fcfbfc",
" b c #fcfbfb",
" c c #fcfbfa",
" d c #fcfafa",
" e c #fdfaf6",
" f c #fcfbf9",
" g c #fcfaf8",
" h c #fcfaf6",
" i c #fbfbfa",
" j c #fbf9f5",
" k c #fdf8f1",
" l c #fbf6ef",
" m c #f9f8f6",
" n c #fbf4e9",
" p c #fbf0e1",
" q c #f5f1eb",
" r c #f9eddd",
" s c #f9ead6",
" t c #f2ebe2",
" u c #f8e5cd",
" v c #f0e5db",
" w c #f6e0c4",
" x c #f7ddbe",
" y c #f0ddca",
" z c #e8dcd2",
" A c #f5d8b3",
" B c #f3d5b1",
" C c #f4d3ab",
" D c #f3cfa3",
" E c #f2cc9e",
" F c #edd4bf",
" G c #e5d4c7",
" H c #eacdb0",
" I c #f3c894",
" J c #f1c58f",
" K c #f0c08b",
" L c #f2bf82",
" M c #f0bd80",
" N c #efba7b",
" P c #efb673",
" Q c #f0b26e",
" R c #e6c5a9",
" S c #e8bb92",
" T c #d8c5b7",
" U c #d4ba9e",
" V c #eab581",
" W c #e9b179",
" Y c #e0b390",
" Z c #cbb597",
".  c #eeae62",
".. c #f1aa5a",
".X c #f0a655",
".o c #f3a149",
".O c #eda24a",
".+ c #f99e33",
".@ c #f39e3b",
".# c #ee9d4c",
".$ c #ed9e41",
".% c #f99a2c",
".& c #f9982b",
".* c #f6992c",
".= c #f69628",
".- c #f4962a",
".; c #ee9b47",
".: c #ed9841",
".> c #f3992d",
"., c #f1962a",
".< c #eaad69",
".1 c #eaa95f",
".2 c #eaa65d",
".3 c #eaa154",
".4 c #e99f46",
".5 c #e89b4a",
".6 c #e99749",
".7 c #e99838",
".8 c #e89636",
".9 c #e1ab80",
".0 c #dfa370",
".a c #e39c5d",
".b c #df9753",
".c c #c1ad95",
".d c #bda993",
".e c #bfa182",
".f c #b6987a",
".g c #f29426",
".h c #f09428",
".i c #f09125",
".j c #ee9328",
".k c #ed9228",
".l c #ee9124",
".m c #e99337",
".n c #ea922a",
".p c #ea9229",
".q c #e99029",
".r c #eb9127",
".s c #e89028",
".t c #e79236",
".u c #e7902e",
".v c #e7912b",
".w c #e7902b",
".x c #e7912a",
".y c #e7902a",
".z c #e79029",
".A c #e79028",
".B c #e79027",
".C c #e69133",
".D c #e6902d",
".E c #e6902c",
".F c #e6912b",
".G c #e6902b",
".H c #e6912a",
".I c #e6902a",
".J c #e69029",
".K c #e69028",
".L c #e5902e",
".M c #e5902a",
".N c #e59029",
".P c #e0924f",
".Q c #cc9162",
".R c #e68f34",
".S c #e68f2d",
".T c #e78f2c",
".U c #e68f2c",
".V c #e68e2c",
".W c #e78f2b",
".Y c #e68f2b",
".Z c #e78e2b",
"X  c #e68e2b",
"X. c #e88f2a",
"XX c #e78f2a",
"Xo c #e78e2a",
"XO c #e68f2a",
"X+ c #e68e2a",
"X@ c #ea8f29",
"X# c #e78f29",
"X$ c #e78e29",
"X% c #e68f29",
"X& c #e68e29",
"X* c #e88e28",
"X= c #e78f28",
"X- c #e78e28",
"X; c #e68f28",
"X: c #e68e28",
"X> c #ec8f22",
"X, c #ea8f24",
"X< c #e98e25",
"X1 c #e78f27",
"X2 c #e78e26",
"X3 c #e68f27",
"X4 c #e68f26",
"X5 c #e68e27",
"X6 c #e68e26",
"X7 c #e58f2c",
"X8 c #e58f2a",
"X9 c #e58f29",
"X0 c #e58e2a",
"Xa c #e58f28",
"Xb c #e58e28",
"Xc c #e58e27",
"Xd c #e58e25",
"Xe c #d18e49",
"Xf c #e88d29",
"Xg c #e78d25",
"Xh c #e68d28",
"Xi c #e68d26",
"Xj c #e68d25",
"Xk c #e68c26",
"Xl c #e58d27",
"Xm c #e98c22",
"Xn c #e78c23",
"Xp c #e68c23",
"Xq c #e68b21",
"Xr c #e58b22",
"Xs c #e78922",
"Xt c #e6891f",
"Xu c #e58921",
"Xv c #e5891d",
"Xw c #e5871c",
"Xx c #e6871a",
"Xy c #e5871b",
"Xz c #e6861c",
"XA c #e18a3b",
"XB c #e38a22",
"XC c #e1862b",
"XD c #e1822d",
"XE c #de812c",
"XF c #df7f2c",
"XG c #e07f24",
"XH c #d9883f",
"XI c #d88330",
"XJ c #d97f32",
"XK c #d4843d",
"XL c #d17e2e",
"XM c #b2845d",
"XN c #db7b28",
"XP c #d77a2d",
"XQ c #d07b26",
"XR c #d07b1f",
"XS c #cd7b22",
"XT c #d97726",
"XU c #d37627",
"XV c #d37121",
"XW c #c87a2f",
"XY c #c3732b",
"XZ c #be6d28",
"o  c #bf6721",
"o. c #a8764e",
"oX c #9b7456",
"oo c #a76533",
"oO c #b45e1b",
"o+ c #ad5f1b",
"o@ c #a75e24",
"o# c #aa5819",
"o$ c #a5561a",
"o% c #a25c29",
"o& c #a2551a",
"o* c #9e5927",
"o= c #8b5939",
"o- c #a05118",
"o; c #9c4d15",
"o: c #984e16",
"o> c #884b20",
"o, c #7b3e16",
"o< c #602809",
"o1 c #4d1e06",
"o2 c #471502",
"                                     . <         r C L. .4.u.A.B.s.s.v.$.2 N D s <       = $                                    ",
"                                 . ,     O u J.X.@.>.hX,XgX=.z.z.z.z.AX2X,.j.>.@.O M x e       %                                ",
"                               >     k D.X.+.=X>X6X8.GX .W.z.z.z.z.z.z.W.S.D.SX0Xg.g.+.$ J p     = .                            ",
"                           %     k E.$.*X,.NX7X7X%X;X$XoX-X;X;X;X;X;X;X%.W.WX X .S.L.EXg.-.@ L p     ,                          ",
"                       . <   o C.$.*Xp.FX7X+X&X;X;X-.W.w.w.vX#X;X;X;.v.v.v.vXOX+XOXOX+.U.DXh.g.@ J e   =                        ",
"                       $   p Q.%Xn.E.IX;XOX+X;XaX:XiXwXyXwXyXqX=X;XiXwXwXvXwXpXOX+XOX+X+X+.Y.LXl.=.O u     *                    ",
"                   .     A.@.l.M.y.z.zXOX+XOX:X;X2.u D B C B.1XtX6.8 D C C B.1Xq.SX+X+X+X+X+X+X X7Xn.+ I o   .                  ",
"                 %   o J.+Xg.E.z.z.zX%X%X%X&X+X#Xk.8 f o +   KXxX2.4 + o +   LXx.uX+X+X+X+X+X+X0X+.VX0.= Q e   *                ",
"               .   o M.&X%.y.z.z.z.z.z.AX;XOX%XOXk.8 n 7 j 1 MXxX2.4 k a j 1 MXx.DX+X+X+X+X+X8X8X0X+.W.L.i.. l   %              ",
"             .   & N.=.M.x.z.x.z.z.z.z.zX%X%X;X%Xk.8 n 5 g o LXtX#.4 j 5 g + MXx.uX+X+X+X+XOX8X8X8.Y.G.wX7.l.X l   $            ",
"             =   N.=.M.y.z.z.z.z.z.z.z.zX%X;X;XOXo.7 n 5 g o NXxXx.8 j ; g + MXx.uXOX+X+XOX8XOXOXO.YX8XO.W.L.l.. h   .          ",
"         . %   I.&.M.y.z.z.zXX.z.z.zX;XOX&X+.wXfXy.U n 5 g - D.  Q P j ; g + PXx.u.SX X+XOX8X+X+.Y.YX+.W.W.wX7.g Q o = &        ",
"         *   A.+X%.y.z.z.zXXXX.z.zX;X;X;.IX+Xz.u.< B f 7 7 7 + + + + 7 6 a - C.7XwXk.uX0X+X+X+X8X8XO.Z.W.W.W.T.L.* I   , O      ",
"       %   p.@X,.G.z.z.z.z.z.z.zX;X;X;.IXpXl M r + o 6 7 7 7 b f f c 7 7 7 7 + j C.:Xw.SX+XOX8X8X8XO.Y.G.W.W.W.w.N.+ w   %      ",
"       %  . .l.G.z.z.z.z.z.z.zX;X;X;.IXr.7 w o + c f 7 : : 8 c c c b 7 1 : 7 b 5   l.<Xw.SX0X8X8XOX8.G.G.W.W.W.G.SX@.O e & .    ",
"     %   C.%X9.z.z.J.z.z.z.zX;X;X;.IXp.7 r o g b 7 : : 8 c 5 + + + 5 6 f 8 7 7 8 g - + QXy.SX+X+X+XOXOX+X+XX.W.W.W.S.= K   *    ",
"   . $ j.$X<XO.z.zX;X;X#.z.zX;X;X;X-Xs w o g 7 7 7 : a + + j p s r n 7 o - c 7 7 7 c : f.OXt.UX+X+X+X+X+X+X+X+.W.W.TX0.@ r   %  ",
"   %   E.&.FX=X;X;X;X;.JX;.z.zX;.GXy P o 0 : 3 : : 8 o s P.$.uX*X..8.O K p + c 7 7 : 0 o wXu.YX+X+X+X+X+X+X+X+X+XO.W.D.g P   *  ",
" . & k.$X<.IX;X;.z.JX;X;X;.z.zX;X#Xv w . 4 : : : 4 o wX%XwXkXhX0X8XlXkXy.t w + c 7 1 1 f 1.1Xv.GX&X+XOXOX+X+XXXXX#XOXOX:.+ r   %",
" ,   D.%.NX;X;X;X;.JX;X=.z.z.JXOXp.8 l - 3 : : : 3 :.3Xv.C.UX X8X7.S.u.uXq.C p 4 h b + o   xXw.UX+X+X+XOXO.WXXX#XOX+X%.E.- M   %",
"   o.3X,X8X;X;.z.z.zX#.z.z.zX=.WXu.3 - 6 1 : : 7 - j.7X*.S.VX+X .V.V.VX7.CXx M   o + n w I. X5X+X%X%X+X+.W.W.W.WX+X+X+.YX2.$ k  ",
"   s.+XbX%X=X;.z.z.zX;.z.z.z.z.wXt.X + 3 : : 6 7 3 1.OXt.C.TX .V.V.V.Y.U.SXk.4 A K.2.8XtXyXvX%X%X%XOX+XOXX.W.W.W.WXXXX.Z.E.% A  ",
"   J.*.FX;X;X%.z.zX;X;X;X;.zX;.IXq.O * : 1 : : : 4 o xXhXwX&.u.u.u.W.W.T.W.WX%XvXwXuXc.E.D.IX;X;XOXOX;X%.AXXXXX#.z.yXXXX.E.g Q  ",
"  .1.lX9X;X;X;.zX;X;X=X;.z.zX;.JXj.C n - 3 : : : : 3 o s.<.uXyXwXrX+.D.D.w.W.Y.u.u.D.GX+X&X;XaX;X;X;X;X;X;X;X;.z.z.z.zX;.JX<.$ k",
" p.7XpX3X;X;X;X;X;.z.z.z.z.zX;X;.yXx A o f : : 2 : : 4 o o p B P.5.TXzXwXrX+.u.u.W.WXOX+X+X;X:X:X;X;X%X+X+X%X;X;X#.z.AX%X%X:.+ u",
" x.>X;X4X3X;X;X;X;X;.z.z.zX#X;X;.wXt.2 + c 7 7 2 3 3 6 b c + o o 8 r B N.5X-XyXuX+.u.Y.W.WX+X+X;X;X;X+X&X%X%X;X=X#.zX%X+X%.w.- E",
" E.-X%XdXdXdX3X;X;X;X;.zX;X;X;X;X;.wXx D o g 7 2 : 3 7 7 1 3 0 c ; o   o 8 s E.1X#XyXk.u.YX+X&X;X;X;X;X;X;X;X;X;.A.zX%X+.z.G.l Q",
" N.l.MX4XdXdX3X:XcX3X;X;X;X;X;X;X;X%X1Xg x   3 0 : : : 3 : : : : 1 4 h g a +   + r K.8XyX XOX;X;X;X;X;X;X;X;X;X;.A.zX%X%.J.yX<.O",
".3XqX%X4X4X;X;X;X3XcXcX;X;X;X;X;X;X;.IX6Xn E + o 7 c 3 : : 7 b i i i       c g 8 o o n MXvX6.IX:XbX;X;X;X;X;X;X;.z.z.z.KX;.zX1.8",
".8X4X;X4X3X=X;X;XaXcX;X;X;X;X%X;X;X;X&.YX:Xw.X x - o + i g           Go= G   g 7 4 f -   BXkX2XOX:X;X;X;X;X;X%X%.A.z.zX%X%.z.z.v",
".s.AX;X;X=X=X;X;XcXcX;X;X;XXXXXOX#XXX X+X .EXuXu.3 E p     q z T.cXMo#o o. 5 b 7 6 6 b g   CXv.IX;X&X;X;X;X;X%X#.z.AX%X+X%.z.z.q",
".s.A.zX3X;X;X;X;X;X;X;X;X;.z.z.z.W.WXOXOX+X+.U.YXuXz.u.<XMo%o-o#oOXK.<.:o@ z   i 7 : : 1 c o QXx.FX&X;X;X;X%X%X;.z.KX%X&X;.z.z.A",
".s.A.zX;X;.A.zX;X;X;XaXcX;X;.J.zXXXOXOX%X+X+X+X0.S.V.ro;oOXCXf.R.6 S q.<o@ z % i : : : : 0 O uXp.JX;X;X;X+X+.J.z.zX;X;X;X;X;.JX=",
".s.AX;.z.z.z.z.z.zX;XbXbXaX;X%X XOXOXOX&X+X+.U.SX0.nXEo&.RXCXDXDXH R F Io@ H   i b : : : 1 ; 8.4Xq.IX;X+X+X%X;X;.z.zX%X&X;X;X;.B",
".8X6X;X;.z.z.z.z.zX%X0XbXcX&X+X+X+.I.E.D.UXhXtXx.iX.XYo;XCXDXDXCXA Y v.0o:XG K   = a 6 ; : c o PXx.FX+X+X%X;X%X%X%.KX%X+X;.J.A.q",
".3Xn.JX;X;.z.z.z.zX;X;X;X;X&X&X%X;XqXxXxXt.C.3 KXWo;o#o XDXEXEXFXF.P.0XWo:o-o;.f m = i 7 6 d o KXx.EX:X;X;X;X%X;.zX;X%X+X%.zX2.7",
" M.h.MX;X;X;.zX;X;XaX;.zX#X;X;X;X3.:.< J x p  .do*XKXDXDXNXNXNXFXNXJXFXFXGXFXHoOoX m b i 6 f o MXx.FX3X;X;X;X;X;X;X;X;X;.J.JXg.3",
" E.>X8X4X;X;.zX;X;X;X;X;.zX;X;X;Xk u   o #   to: S yXHXPXNXTXN.b YXHXNXTXTXL R xo+.c   g 7 c o PXx.FX3XaX;X;X;X;X;X;X;.JX;X8.l Q",
" w.>XaX4X;X;.z.zX;X;X;X;X;X;X&.wXy J o j m % Too F z.0XUXUXUXK R   YXJXTXUXe G y.bo. & i 7 5 8.OXq.IX#.AX;X;X;X;X;X;X#.zX;X8.- D",
" l.7XpX;X=X=X;X;X;X;X;X;X;XOX+.IXp.7 k 3 m . To@ H G.0XNXVXU.Q z G F.PXTXTXH R GXeXM   m f @ uXn.z.y.z.z.zX;X;X;X;X;.zX%X%Xc.> u",
"  . .l.NX3X;X;X;X;X;X;X;X;X%X%X%.DXx J +   + To:.a VXZo+XVXU.0 T.9 R.0XNo oO.Q VoO.f m   g + NXx.v.y.z.z.z.z.z.A.z.z.z.z.JX<.$ e",
"   E.&.NX4X;X;X;X;XaX;X;X=.KX;X;X X5Xj r To=o@o XFoOXM.fo*XP.P F t H.PXYo..eooXUXJoOo*.f o wXq.z.z.A.A.z.z.z.z.z.z.z.z.z.F.g P  ",
"   s.+Xd.JX;X;X;X;X;X;X;X;.zX;X;X&X9.lXWo:XTXDXAXUo..do,o,XZ.6.9 v.9XAoo.co=o,o@.;.5.3o+.f.$Xt.wX=.A.z.z.z.z.AX%.z.z.z.z.N.% x  ",
"    .3X>.FX=X;X;X;X;X;X;X;X;X;X;X;X5.qo:XK S.9.6XY.eo=o2o1o>.#.3.a.XXLXMoXo2o1o>.6 V t Wo;XR.nX5.A.z.z.z.z.z.zX#.z.z.z.IXg.$ e  ",
" ,   C.&X;X=X;X;X;.z.zX;X;X;X;X;Xa.pXGo@ W q v.<oo.eo=o1o2o,.#.#.6.oXW.foXo1o1o<.b F t CXWo .hXb.z.z.z.z.z.z.z.z.z.zX#.U.- K   ,",
" . & e.$X,XaX;X#X;.z.zX%.z.A.A.zX;.kXRo@ E H H Koo.e.eo<o2o,.5.< V. XY.f Zo<o2o<.a H R BXeo .hXc.z.z.A.A.AX%.z.z.z.z.zXh.@ p   *",
"   %   E.&.KX;X;.A.A.z.z.B.B.A.zX5.rX<o* V y y NXY.eo=o1o1o,.3 H 9 KXW.foXo1o1o,.6 S t IXZXR.-Xl.A.A.B.AX%.A.z.z.z.z.E.g N   %  ",
"   . $ 4.OX>X&X;X;X;.z.A.B.B.zX;.r.ko o:.b D E.XXKXMoXo2o<o@ N v t y.bXMXMo2o<o:.#.3 W.2o&o+Xk.jX6.B.A.zX#.JX;.zX#.yX-.@ p   %  ",
"     %   A.%XcX;X;X=X;.A.z.zX%.rXlo:XZXA.#.#.3.#.;oo.eoXo>XK J H S H Poo.foXo>XW.o.;.;.#.6XZo:XS.hX5X*X#.zX;X%X X.X .= J   %    ",
"       %  .<.i.GX;.z.z.z.z.AX1.po:XW.X.#.#.#.#.#.oXAooo.XW.#.0 y v H.3.:ooo.XY.6.#.;.;.#.#.oXAo:XG.kX#.z.zXXX&X%X7X,.O g $ .    ",
"       %   n.@X,.GX=.z.z.zXa.,XZo@.X W S.a.6.6.6.6.;.:XI.:.:.P S t.9.6.:.tXI.m.t.R.t.:.a S.9.#XWo+.,X;.z.zXXX;.JX3.@ u   %      ",
"         >   x.+X1.yX=X#.zXa.,o+XL.a v m.0XHXAXAXDXD.RXCXDXFXD.P.bXHXDXDXEXDXDXFXFXEXH.9 # y.PXAo$Xl.q.z.z.z.z.N.% E   ,        ",
"           ,   E.&XOX.X#.zX%.jo$XL S v v RXKXTXPXPXUo@o%o%o*o%o%o%o%o%o@o*o%oOXTXTXUXe F v z.9XPo$XC.pX#.z.z.F.g N   ,          ",
"             ,   K.=.I.yX#Xh.,o#XY S R U HXHXUXe YXKoo.c Z.c.c.d.c.d.d.c ZXMo$XPXTXTXe H Y R YXUo#XB.qX#.x.E.i.  1   .          ",
"             $ $ o N.=X#.qX-.,o o+.0 z t YXPXJ Y m.9o o%.f.c Z Z Z Z Z.eo.o$.9 YXJXTXJ Y t z.aXUo#.jX%.z.H.i.  j   %            ",
"               .   o L.&X2X#.sX&o:XP S FXKXPXK U T UXJXVo#o&ooo.o.o.ooo#oOXe y v.bXTXNXH F YXDo-XS.jX9.N.g Q j   $              ",
"                 .     I.+XnX8.hXRo:XYXJXFXFXD.9 v.9XJXFXDXGXVXVXVXVXTXGXD.a F y.0XNXNXFXJXWo-o .hX0X1.& N 8   *                ",
"                   $     x.@.iX-.hXGo#o&o#o$o-o%o.ooo&o-o;o;o-o&o$o&o&o;o-o%.d.cooo-o-o&o-o$XR.hXaXm.+ D o   %                  ",
"                       %   n Q.%Xm.k.,XkXGXRXSXSXRXSXSXSXSXSXSXSXSXSXSXSXSXSXQXQXQXSXQXNXB.j.kXp.=.X s     .                    ",
"                         ,     A.o.=Xq.q.q.r.k.j.k.k.k.j.j.k.j.j.j.j.k.k.j.k.r.r.k.k.k.nX@Xs.g.@ E 4   ,                        ",
"                           %     e E.$.=XmXkX0XlXhXhXiXiXiXlXiXiXiXiXiXiXiXjX6X5XlX0X:Xs.=.@ K n     %                          ",
"                               %     j C.X.+.=X>XnXhX:XhX5X2X2X2X2X2X2X1X:X;X5XrXm.g.%.4 I n     % &                            ",
"                                 $ ,       s I.X.8.-.gX>XmXgX2X2X<X<X<XmX>.i.>.>.O L w 4     $ *                                ",
"                                     . <         n x I Q.4.nX,X,X,X,.r.$.  L A r X       % %                                    "
};
