/* XPM */
static char *image_xpm[] = {
/* width height ncolors chars_per_pixel */
"16 16 209 2",
"   c #ffffff",
" . c #fffffe",
" X c #fffefd",
" o c #fdffff",
" O c #fefefe",
" + c #fefefd",
" @ c #fdfeff",
" # c #fdfefe",
" $ c #fefdfc",
" % c #fffcfa",
" & c #fefcfa",
" * c #fefcf9",
" = c #fdfcfa",
" - c #fffbf5",
" ; c #fefbf6",
" : c #fdfbf8",
" > c #fefaf6",
" , c #fdfaf7",
" < c #fefaf4",
" 1 c #fcf8f2",
" 2 c #fcf6ef",
" 3 c #f2f1f2",
" 4 c #fdefdd",
" 5 c #f8ead9",
" 6 c #fde9d0",
" 7 c #fae8d3",
" 8 c #fde7cc",
" 9 c #f8e7d3",
" 0 c #fae6cf",
" a c #fae4ca",
" b c #f9e4cb",
" c c #f9e4ca",
" d c #f7e4cd",
" e c #f9e2c7",
" f c #f6dcbf",
" g c #f6dab8",
" h c #f5d9b8",
" i c #e6ddd8",
" j c #e3d8d3",
" k c #f4d2ab",
" l c #e7d7cc",
" m c #f3d1a9",
" n c #f3cfa6",
" p c #f6cd9c",
" q c #f3cc9e",
" r c #f1c490",
" s c #f5c185",
" t c #f4c184",
" u c #f3bd7e",
" v c #f0be83",
" w c #efbe82",
" x c #f6bb76",
" y c #f3bc79",
" z c #f5ba73",
" A c #f2bc7d",
" B c #f2ba75",
" C c #f0bc7f",
" D c #efba7d",
" E c #efb97a",
" F c #efb978",
" G c #efb977",
" H c #efb36f",
" I c #ebb786",
" J c #eeb778",
" K c #dabca7",
" L c #eeb574",
" M c #eeb36d",
" N c #f2b265",
" P c #f1af60",
" Q c #eeae64",
" R c #efae61",
" S c #edad62",
" T c #ebad63",
" U c #f0ab5c",
" V c #ecac63",
" W c #eea959",
" Y c #eca85a",
" Z c #eba85a",
".  c #eba757",
".. c #eba554",
".X c #eea159",
".o c #fe9f2d",
".O c #fe9e2d",
".+ c #e4b282",
".@ c #e6ac6a",
".# c #dfab7c",
".$ c #dea979",
".% c #dfa777",
".& c #d5a783",
".* c #d3a884",
".= c #dea073",
".- c #e4a054",
".; c #eaa350",
".: c #d6a57c",
".> c #d4a582",
"., c #d3a37d",
".< c #fc9d2c",
".1 c #fb9b2d",
".2 c #fa9b2d",
".3 c #f2962a",
".4 c #f29629",
".5 c #f1962b",
".6 c #ef9d3c",
".7 c #ee9c39",
".8 c #f0962e",
".9 c #f0962d",
".0 c #ee962f",
".a c #f1952c",
".b c #ea9b50",
".c c #e89d43",
".d c #e79c40",
".e c #e7993a",
".f c #ec9838",
".g c #eb9835",
".h c #e89839",
".i c #ed9630",
".j c #ed942c",
".k c #ec942b",
".l c #e7973a",
".m c #f09226",
".n c #f09225",
".p c #ec9228",
".q c #eb9229",
".r c #ea9329",
".s c #ea9128",
".t c #e99126",
".u c #e99026",
".v c #e89028",
".w c #e79333",
".x c #e7922d",
".y c #e7912e",
".z c #e7912a",
".A c #e7902b",
".B c #e7902a",
".C c #e79029",
".D c #e79028",
".E c #df9a61",
".F c #dc9863",
".G c #d8975c",
".H c #d69b68",
".I c #d7995d",
".J c #e19451",
".K c #e69231",
".L c #d6914c",
".M c #e6922e",
".N c #e6922d",
".P c #e6912d",
".Q c #e4912f",
".R c #e6902e",
".S c #e6902d",
".T c #e6902c",
".U c #e6902a",
".V c #e5902c",
".W c #e69029",
".Y c #f08e21",
".Z c #e88c1f",
"X  c #e78c21",
"X. c #e68f2b",
"XX c #e68f2a",
"Xo c #e68f29",
"XO c #e68f28",
"X+ c #e68f27",
"X@ c #e68d26",
"X# c #e68d25",
"X$ c #e68d24",
"X% c #e68c22",
"X& c #ed8a1f",
"X* c #e58b22",
"X= c #e58b1f",
"X- c #e58a22",
"X; c #e58a20",
"X: c #e58a1e",
"X> c #e58920",
"X, c #e5891c",
"X< c #e5881c",
"X1 c #e58718",
"X2 c #dc8735",
"X3 c #db8735",
"X4 c #dd8825",
"X5 c #e4871e",
"X6 c #e4871a",
"X7 c #d88c4c",
"X8 c #d48a51",
"X9 c #d3873c",
"X0 c #cd8956",
"Xa c #de8527",
"Xb c #dc8624",
"Xc c #d38340",
"Xd c #dd8224",
"Xe c #d57f25",
"Xf c #e17e0e",
"Xg c #e17e0b",
"Xh c #e27d0c",
"Xi c #ca8551",
"Xj c #c18353",
"Xk c #cb7a2f",
"Xl c #d17a1d",
"Xm c #b7855a",
"Xn c #b78254",
"Xp c #d4731c",
"Xq c #cd741c",
"Xr c #c97320",
"Xs c #c97220",
"Xt c #c47025",
"Xu c #ad6e3a",
"Xv c #a86e43",
"Xw c #a36432",
"Xx c #8e6442",
"Xy c #704223",
"   .     0 y.fX%X$.g B a     +  ",
" .   * t.i.n W. .; Q.m.0 A >   +",
" X % R.<.NXg m h n fXf.Q.2 U ; X",
"   w.<.NX# r 1 o o 2 JX-.K.1 E  ",
" 7.j.xX, L   d Y V 5   ZX>.R.8 c",
" G.3.MX1 q X kX5Xh.w S.hX@.S.a M",
".d.u.TX=.  #   - e C.wX<.UXO.v.l",
".zX+XO.UX;.. g l K 3 < TX:.AXo.B",
".z.DXOXoXX.yXqXpX7.* @ 9X*.UXo.C",
".c.s.TX6 p iX8.J.EXc j 4X;.W.v.e",
" F.4.VX .-.:XuXj.$Xw.,.@.Z.P.5 H",
" 7.k.U.rXl IXxXv.+Xy.%Xe.tX..9 b",
"   v.oX4.I.XXk.H.#Xt.b.GXb.O D  ",
" $ & N.Y.&.=X0XnXmXi.F.>X& P , X",
" .   = sXaX2X9XsXr.LX3Xd u :   .",
"   .     6 x.6.q.p.7 z 8     O  "
};
